%
(Header)
(Generated by gcodetools from Inkscape.)
(Using default header. To add your own header create file "header" in the output dir.)
M3
(Header end.)
G21 (All units in mm)

(Start cutting path id: path3180)
(Change tool to Default tool)

G00 Z5.000000
G00 X64.494533 Y19.044450

G01 Z-1.000000 F100.0(Penetrate)
G01 X65.440212 Y19.127150 Z-1.000000 F400.000000
G03 X65.562183 Y18.578784 Z-1.000000 I2.760349 J0.326227
G03 X65.750270 Y18.191800 Z-1.000000 I1.547779 J0.513071
G03 X66.042316 Y17.883151 Z-1.000000 I1.122889 J0.769992
G03 X66.515081 Y17.602690 Z-1.000000 I1.390448 J1.805147
G03 X67.044200 Y17.440482 Z-1.000000 I1.008214 J2.344673
G03 X67.677801 Y17.380480 Z-1.000000 I0.633601 J3.315337
G03 X68.242565 Y17.427694 Z-1.000000 I0.000000 J3.401417
G03 X68.690659 Y17.551020 Z-1.000000 I-0.379802 J2.255689
G03 X69.093473 Y17.768616 Z-1.000000 I-0.664710 J1.712155
G03 X69.341782 Y18.016100 Z-1.000000 I-0.625954 J0.876351
G03 X69.504648 Y18.333385 Z-1.000000 I-0.950821 J0.688510
G03 X69.558823 Y18.667230 Z-1.000000 I-1.001546 J0.333845
G03 X69.504030 Y19.004875 Z-1.000000 I-1.067715 J-0.000000
G03 X69.352117 Y19.287340 Z-1.000000 I-0.890491 J-0.296834
G03 X69.111750 Y19.510784 Z-1.000000 I-0.786273 J-0.604817
G03 X68.669988 Y19.736930 Z-1.000000 I-1.248372 J-1.894060
G03 X68.359927 Y19.839221 Z-1.000000 I-1.118040 J-2.867905
G03 X67.321234 Y20.103830 Z-1.000000 I-8.708043 J-32.011468
G02 X66.291979 Y20.395510 Z-1.000000 I3.304651 J13.622960
G02 X65.858791 Y20.579260 Z-1.000000 I0.838481 J2.579205
G02 X65.364416 Y20.916161 Z-1.000000 I1.202639 J2.295953
G02 X65.047471 Y21.282060 Z-1.000000 I1.111098 J1.282664
G02 X64.852607 Y21.725418 Z-1.000000 I1.449774 J0.901704
G02 X64.783921 Y22.227730 Z-1.000000 I1.802397 J0.502312
G02 X64.865642 Y22.776920 Z-1.000000 I1.886219 J-0.000000
G02 X65.109482 Y23.297440 Z-1.000000 I1.933919 J-0.588579
G02 X65.496647 Y23.724562 Z-1.000000 I1.513964 J-0.983300
G02 X66.060329 Y24.057080 Z-1.000000 I1.452213 J-1.817745
G02 X66.699350 Y24.246251 Z-1.000000 I1.225373 J-2.965428
G02 X67.450425 Y24.315460 Z-1.000000 I0.751075 J-4.040817
G02 X68.277251 Y24.239757 Z-1.000000 I0.000000 J-4.553125
G02 X68.933538 Y24.041580 Z-1.000000 I-0.563697 J-3.052529
G02 X69.516033 Y23.696269 Z-1.000000 I-0.926072 J-2.226117
G02 X69.925726 Y23.245760 Z-1.000000 I-1.219929 J-1.520946
G02 X70.187706 Y22.691675 Z-1.000000 I-1.841791 J-1.209802
G02 X70.297796 Y22.052030 Z-1.000000 I-2.359277 J-0.735356
G01 X69.336614 Y21.979730 Z-1.000000
G03 X69.147580 Y22.637551 Z-1.000000 I-1.984174 J-0.214107
G03 X68.809515 Y23.064930 Z-1.000000 I-1.137873 J-0.552683
G03 X68.324219 Y23.318103 Z-1.000000 I-0.838614 J-1.015792
G03 X67.491766 Y23.431830 Z-1.000000 I-0.832453 J-2.989816
G03 X66.620405 Y23.323349 Z-1.000000 I0.000000 J-3.553777
G03 X66.163682 Y23.095940 Z-1.000000 I0.294181 J-1.163169
G03 X65.852534 Y22.716059 Z-1.000000 I0.736466 J-0.920582
G03 X65.750270 Y22.294950 Z-1.000000 I0.815904 J-0.421109
G03 X65.828506 Y21.921690 Z-1.000000 I0.929525 J0.000000
G03 X66.044826 Y21.623160 Z-1.000000 I0.795514 J0.348805
G03 X66.369736 Y21.427539 Z-1.000000 I0.653138 J0.717171
G03 X67.553778 Y21.080560 Z-1.000000 I3.473994 J9.661058
G02 X68.766778 Y20.771658 Z-1.000000 I-4.655012 J-20.815429
G02 X69.233262 Y20.599970 Z-1.000000 I-0.925393 J-3.233907
G02 X69.837710 Y20.228226 Z-1.000000 I-1.246114 J-2.703440
G02 X70.209946 Y19.824820 Z-1.000000 I-1.107269 J-1.395152
G02 X70.441299 Y19.333985 Z-1.000000 I-1.452995 J-0.984802
G02 X70.525172 Y18.749950 Z-1.000000 I-1.991464 J-0.584035
G02 X70.439284 Y18.170611 Z-1.000000 I-1.996845 J0.000000
G02 X70.178940 Y17.607900 Z-1.000000 I-2.141665 J0.649282
G02 X69.770357 Y17.147771 Z-1.000000 I-1.732560 J1.126999
G02 X69.181585 Y16.775910 Z-1.000000 I-1.695559 J2.032565
G02 X68.518370 Y16.560799 Z-1.000000 I-1.269350 J2.783620
G02 X67.724310 Y16.481350 Z-1.000000 I-0.794060 J3.928450
G02 X66.713864 Y16.568434 Z-1.000000 I0.000000 J5.905727
G02 X65.998317 Y16.781080 Z-1.000000 I0.547401 J3.152202
G02 X65.374422 Y17.162767 Z-1.000000 I1.036915 J2.395657
G02 X64.907944 Y17.680250 Z-1.000000 I1.507009 J1.827465
G02 X64.612764 Y18.315215 Z-1.000000 I2.090368 J1.357856
G02 X64.494533 Y19.044510 Z-1.000000 I2.655767 J0.804776
G01 X64.494533 Y19.044450 Z-1.000000
G00 Z5.000000

(End cutting path id: path3180)


(Start cutting path id: path3178)
(Change tool to Default tool)

G00 Z5.000000
G00 X57.332179 Y20.284680

G01 Z-1.000000 F100.0(Penetrate)
G03 X57.544656 Y18.998658 Z-1.000000 I3.998080 J0.000000 F400.000000
G03 X58.065985 Y18.124610 Z-1.000000 I2.307777 J0.783984
G03 X58.894777 Y17.546940 Z-1.000000 I1.788439 J1.682527
G03 X59.916001 Y17.339120 Z-1.000000 I1.021224 J2.405225
G03 X60.954069 Y17.551829 Z-1.000000 I-0.000000 J2.639352
G03 X61.776352 Y18.134940 Z-1.000000 I-0.939457 J2.196125
G03 X62.292013 Y19.015983 Z-1.000000 I-1.756066 J1.619225
G03 X62.510158 Y20.393200 Z-1.000000 I-4.238333 J1.377217
G03 X62.422436 Y21.299053 Z-1.000000 I-4.720940 J0.000000
G03 X62.194931 Y22.005510 Z-1.000000 I-3.081339 J-0.602441
G03 X61.802282 Y22.625973 Z-1.000000 I-2.347611 J-1.051174
G03 X61.280259 Y23.075210 Z-1.000000 I-1.719906 J-1.470646
G03 X60.651600 Y23.357502 Z-1.000000 I-1.275650 J-1.999699
G03 X59.931504 Y23.457610 Z-1.000000 I-0.720096 J-2.539836
G03 X58.943142 Y23.267270 Z-1.000000 I0.000000 J-2.661263
G03 X58.096991 Y22.723810 Z-1.000000 I0.986636 J-2.466607
G03 X57.577941 Y21.889868 Z-1.000000 I1.354051 J-1.421270
G03 X57.332179 Y20.284680 Z-1.000000 I5.119249 J-1.605188
G01 X57.332179 Y20.284680 Z-1.000000
G00 Z5.000000

(End cutting path id: path3178)


(Start cutting path id: path3178)
(Change tool to Default tool)

G00 Z5.000000
G00 X56.298651 Y20.300180

G01 Z-1.000000 F100.0(Penetrate)
G02 X56.593686 Y22.068440 Z-1.000000 I5.446454 J0.000000 F400.000000
G02 X57.311509 Y23.250910 Z-1.000000 I3.067183 J-1.052831
G02 X58.449337 Y24.030179 Z-1.000000 I2.377578 J-2.251238
G02 X59.926336 Y24.320610 Z-1.000000 I1.476999 J-3.610449
G02 X60.939084 Y24.188685 Z-1.000000 I0.000000 J-3.953232
G02 X61.817694 Y23.819350 Z-1.000000 I-0.881965 J-3.327835
G02 X62.553713 Y23.220201 Z-1.000000 I-1.663042 J-2.794601
G02 X63.099269 Y22.418920 Z-1.000000 I-2.502882 J-2.290461
G02 X63.423794 Y21.496754 Z-1.000000 I-3.569045 J-1.774191
G02 X63.543686 Y20.388030 Z-1.000000 I-5.066630 J-1.108724
G02 X63.418684 Y19.265757 Z-1.000000 I-5.100414 J0.000000
G02 X63.078598 Y18.326140 Z-1.000000 I-3.896202 J0.878843
G02 X62.506385 Y17.520463 Z-1.000000 I-3.047554 J1.558414
G02 X61.760849 Y16.946380 Z-1.000000 I-2.244301 J2.143435
G02 X60.877830 Y16.600344 Z-1.000000 I-1.808892 J3.316286
G02 X59.921169 Y16.481290 Z-1.000000 I-0.956661 J3.784106
G02 X58.890108 Y16.618169 Z-1.000000 I-0.000000 J3.951764
G02 X58.009141 Y16.998060 Z-1.000000 I0.877231 J3.245719
G02 X57.271888 Y17.610044 Z-1.000000 I1.763549 J2.874609
G02 X56.732733 Y18.408830 Z-1.000000 I2.529895 J2.288948
G02 X56.408764 Y19.328149 Z-1.000000 I3.880910 J1.884377
G02 X56.298651 Y20.300180 Z-1.000000 I4.235260 J0.972031
G01 X56.298651 Y20.300180 Z-1.000000
G00 Z5.000000

(End cutting path id: path3178)


(Start cutting path id: path3176)
(Change tool to Default tool)

G00 Z5.000000
G00 X49.963120 Y17.504490

G01 Z-1.000000 F100.0(Penetrate)
G01 X51.580592 Y17.504490 Z-1.000000 F400.000000
G03 X52.322846 Y17.548476 Z-1.000000 I0.000000 J6.284703
G03 X52.753647 Y17.644010 Z-1.000000 I-0.261413 J2.197906
G03 X53.157888 Y17.823788 Z-1.000000 I-0.659488 J2.027264
G03 X53.435776 Y18.036760 Z-1.000000 I-0.666173 J1.157011
G03 X53.736125 Y18.427865 Z-1.000000 I-1.339576 J1.339606
G03 X53.988714 Y18.992770 Z-1.000000 I-2.582361 J1.493589
G03 X54.132069 Y19.606822 Z-1.000000 I-3.241549 J1.080524
G03 X54.190252 Y20.455210 Z-1.000000 I-6.156242 J0.848388
G03 X54.067466 Y21.608896 Z-1.000000 I-5.481359 J0.000000
G03 X53.797511 Y22.279390 Z-1.000000 I-2.079776 J-0.447770
G03 X53.339117 Y22.835904 Z-1.000000 I-2.134068 J-1.290762
G03 X52.851833 Y23.137220 Z-1.000000 I-1.058070 J-1.166424
G03 X52.438979 Y23.239595 Z-1.000000 I-0.616750 J-1.603545
G03 X51.554754 Y23.292250 Z-1.000000 I-0.884225 J-7.397986
G01 X49.963120 Y23.292250 Z-1.000000
G01 X49.963120 Y17.504490 Z-1.000000
G00 Z5.000000

(End cutting path id: path3176)


(Start cutting path id: path3176)
(Change tool to Default tool)

G00 Z5.000000
G00 X48.960597 Y16.610490

G01 Z-1.000000 F100.0(Penetrate)
G01 X48.960597 Y24.186250 Z-1.000000 F400.000000
G01 X51.570257 Y24.186250 Z-1.000000
G02 X52.449857 Y24.150921 Z-1.000000 I0.000000 J-10.967552
G02 X52.919012 Y24.077730 Z-1.000000 I-0.255912 J-3.180637
G02 X53.535665 Y23.859418 Z-1.000000 I-0.644680 J-2.801052
G02 X54.030055 Y23.535130 Z-1.000000 I-1.030428 J-2.109933
G02 X54.543783 Y22.968410 Z-1.000000 I-1.862352 J-2.204414
G02 X54.924057 Y22.238050 Z-1.000000 I-2.753542 J-1.897857
G02 X55.141213 Y21.437352 Z-1.000000 I-3.894079 J-1.485905
G02 X55.223781 Y20.439710 Z-1.000000 I-5.985839 J-0.997642
G02 X55.167716 Y19.585000 Z-1.000000 I-6.543089 J-0.000000
G02 X55.022243 Y18.910090 Z-1.000000 I-4.214604 J0.555303
G02 X54.775716 Y18.265639 Z-1.000000 I-4.604919 J1.392176
G02 X54.505478 Y17.804210 Z-1.000000 I-2.617694 J1.223219
G02 X54.160171 Y17.401343 Z-1.000000 I-2.668735 J1.938017
G02 X53.813014 Y17.116910 Z-1.000000 I-1.662237 J1.674726
G02 X53.423614 Y16.908413 Z-1.000000 I-1.272762 J1.909194
G02 X52.908677 Y16.739680 Z-1.000000 I-1.329459 J3.187124
G02 X52.377203 Y16.646713 Z-1.000000 I-0.956547 J3.902746
G02 X51.694281 Y16.610490 Z-1.000000 I-0.682922 J6.419517
G01 X48.960597 Y16.610490 Z-1.000000
G00 Z5.000000

(End cutting path id: path3176)


(Start cutting path id: path3174)
(Change tool to Default tool)

G00 Z5.000000
G00 X46.190742 Y16.610490

G01 Z-1.000000 F100.0(Penetrate)
G01 X46.190742 Y24.186250 Z-1.000000 F400.000000
G01 X47.193265 Y24.186250 Z-1.000000
G01 X47.193265 Y16.610490 Z-1.000000
G01 X46.190742 Y16.610490 Z-1.000000
G00 Z5.000000

(End cutting path id: path3174)


(Start cutting path id: path3172)
(Change tool to Default tool)

G00 Z5.000000
G00 X39.922389 Y17.504490

G01 Z-1.000000 F100.0(Penetrate)
G01 X41.808579 Y17.504490 Z-1.000000 F400.000000
G03 X42.293163 Y17.517339 Z-1.000000 I0.000000 J9.144023
G03 X42.490708 Y17.540690 Z-1.000000 I-0.081599 J1.537603
G03 X42.826429 Y17.630039 Z-1.000000 I-0.369678 J2.064426
G03 X43.069484 Y17.747400 Z-1.000000 I-0.425777 J1.192151
G03 X43.274659 Y17.917969 Z-1.000000 I-0.516160 J0.829567
G03 X43.451890 Y18.165980 Z-1.000000 I-0.941505 J0.860140
G03 X43.561192 Y18.455232 Z-1.000000 I-1.038419 J0.557673
G03 X43.601751 Y18.806760 Z-1.000000 I-1.503074 J0.351528
G03 X43.543076 Y19.212014 Z-1.000000 I-1.428830 J0.000000
G03 X43.384710 Y19.540570 Z-1.000000 I-1.087049 J-0.321519
G03 X43.128624 Y19.803222 Z-1.000000 I-0.894170 J-0.615651
G03 X42.780096 Y19.979820 Z-1.000000 I-0.723874 J-0.996389
G03 X42.390834 Y20.067294 Z-1.000000 I-0.610636 J-1.807498
G03 X41.674220 Y20.109010 Z-1.000000 I-0.716614 J-6.134267
G01 X39.922389 Y20.109010 Z-1.000000
G01 X39.922389 Y17.504490 Z-1.000000
G00 Z5.000000

(End cutting path id: path3172)


(Start cutting path id: path3172)
(Change tool to Default tool)

G00 Z5.000000
G00 X38.919867 Y16.610490

G01 Z-1.000000 F100.0(Penetrate)
G01 X38.919867 Y24.186250 Z-1.000000 F400.000000
G01 X41.762070 Y24.186250 Z-1.000000
G02 X42.615162 Y24.115388 Z-1.000000 I0.000000 J-5.170545
G02 X43.152166 Y23.953710 Z-1.000000 I-0.366147 J-2.188785
G02 X43.621658 Y23.659861 Z-1.000000 I-0.724564 J-1.679646
G02 X43.973821 Y23.245740 Z-1.000000 I-1.150247 J-1.334952
G02 X44.199940 Y22.749055 Z-1.000000 I-1.711423 J-1.078950
G02 X44.273545 Y22.248380 Z-1.000000 I-1.666043 J-0.500675
G02 X44.207591 Y21.781274 Z-1.000000 I-1.687082 J0.000000
G02 X44.009995 Y21.333710 Z-1.000000 I-1.743650 J0.502410
G02 X43.694678 Y20.961519 Z-1.000000 I-1.373556 J0.844002
G02 X43.214178 Y20.641250 Z-1.000000 I-1.482964 J1.704312
G02 X43.841243 Y20.352528 Z-1.000000 I-0.666454 J-2.272755
G02 X44.268377 Y19.953950 Z-1.000000 I-0.926386 J-1.420915
G02 X44.541185 Y19.434543 Z-1.000000 I-1.376454 J-1.054301
G02 X44.640447 Y18.806730 Z-1.000000 I-1.935763 J-0.627813
G02 X44.581789 Y18.288178 Z-1.000000 I-2.321417 J0.000000
G02 X44.413071 Y17.814550 Z-1.000000 I-2.100342 J0.481331
G02 X44.149218 Y17.394224 Z-1.000000 I-2.106146 J1.029124
G02 X43.860133 Y17.111750 Z-1.000000 I-1.221962 J0.961396
G02 X43.509872 Y16.904356 Z-1.000000 I-1.123527 J1.498016
G02 X43.028143 Y16.734510 Z-1.000000 I-1.217611 J2.685400
G02 X42.527560 Y16.646953 Z-1.000000 I-0.858849 J3.435493
G02 X41.808579 Y16.610490 Z-1.000000 I-0.718981 J7.070180
G01 X38.919867 Y16.610490 Z-1.000000
G00 Z5.000000

(End cutting path id: path3172)


(Start cutting path id: path3172)
(Change tool to Default tool)

G00 Z5.000000
G00 X39.922389 Y21.002980

G01 Z-1.000000 F100.0(Penetrate)
G01 X41.560532 Y21.002980 Z-1.000000 F400.000000
G03 X42.222647 Y21.033355 Z-1.000000 I-0.000000 J7.231636
G03 X42.516546 Y21.090880 Z-1.000000 I-0.135169 J1.470123
G03 X42.864771 Y21.252848 Z-1.000000 I-0.375171 J1.261920
G03 X43.090154 Y21.468120 Z-1.000000 I-0.476427 J0.724425
G03 X43.231365 Y21.749960 Z-1.000000 I-0.722322 J0.538202
G03 X43.286525 Y22.129580 Z-1.000000 I-1.278718 J0.379620
G03 X43.237784 Y22.492627 Z-1.000000 I-1.376454 J-0.000000
G03 X43.105657 Y22.791040 Z-1.000000 I-1.053912 J-0.288179
G03 X42.886734 Y23.030912 Z-1.000000 I-0.764255 J-0.477671
G03 X42.588893 Y23.183780 Z-1.000000 I-0.579521 J-0.762529
G03 X42.246998 Y23.254222 Z-1.000000 I-0.491911 J-1.522590
G03 X41.436509 Y23.292300 Z-1.000000 I-0.810489 J-8.606655
G01 X39.922389 Y23.292300 Z-1.000000
G01 X39.922389 Y21.002980 Z-1.000000
G00 Z5.000000

(End cutting path id: path3172)


(Start cutting path id: path3170)
(Change tool to Default tool)

G00 Z5.000000
G00 X31.922878 Y16.610490

G01 Z-1.000000 F100.0(Penetrate)
G01 X31.922878 Y24.186250 Z-1.000000 F400.000000
G01 X37.400580 Y24.186250 Z-1.000000
G01 X37.400580 Y23.292250 Z-1.000000
G01 X32.925401 Y23.292250 Z-1.000000
G01 X32.925401 Y20.971980 Z-1.000000
G01 X37.116360 Y20.971980 Z-1.000000
G01 X37.116360 Y20.083140 Z-1.000000
G01 X32.925401 Y20.083140 Z-1.000000
G01 X32.925401 Y17.504490 Z-1.000000
G01 X37.576280 Y17.504490 Z-1.000000
G01 X37.576280 Y16.610490 Z-1.000000
G01 X31.922878 Y16.610490 Z-1.000000
G00 Z5.000000

(End cutting path id: path3170)


(Start cutting path id: path3168)
(Change tool to Default tool)

G00 Z5.000000
G00 X25.804389 Y17.504490

G01 Z-1.000000 F100.0(Penetrate)
G01 X27.690579 Y17.504490 Z-1.000000 F400.000000
G03 X28.175163 Y17.517339 Z-1.000000 I0.000000 J9.144023
G03 X28.372708 Y17.540690 Z-1.000000 I-0.081599 J1.537603
G03 X28.708429 Y17.630039 Z-1.000000 I-0.369678 J2.064426
G03 X28.951484 Y17.747400 Z-1.000000 I-0.425777 J1.192151
G03 X29.156659 Y17.917970 Z-1.000000 I-0.516158 J0.829563
G03 X29.333889 Y18.165980 Z-1.000000 I-0.941499 J0.860131
G03 X29.443192 Y18.455232 Z-1.000000 I-1.038414 J0.557673
G03 X29.483751 Y18.806760 Z-1.000000 I-1.503063 J0.351528
G03 X29.425076 Y19.212014 Z-1.000000 I-1.428830 J0.000000
G03 X29.266710 Y19.540570 Z-1.000000 I-1.087049 J-0.321519
G03 X29.010624 Y19.803222 Z-1.000000 I-0.894170 J-0.615651
G03 X28.662096 Y19.979820 Z-1.000000 I-0.723874 J-0.996389
G03 X28.272834 Y20.067294 Z-1.000000 I-0.610636 J-1.807498
G03 X27.556220 Y20.109010 Z-1.000000 I-0.716614 J-6.134267
G01 X25.804389 Y20.109010 Z-1.000000
G01 X25.804389 Y17.504490 Z-1.000000
G00 Z5.000000

(End cutting path id: path3168)


(Start cutting path id: path3168)
(Change tool to Default tool)

G00 Z5.000000
G00 X24.801867 Y16.610490

G01 Z-1.000000 F100.0(Penetrate)
G01 X24.801867 Y24.186250 Z-1.000000 F400.000000
G01 X27.644070 Y24.186250 Z-1.000000
G02 X28.497162 Y24.115388 Z-1.000000 I-0.000000 J-5.170545
G02 X29.034166 Y23.953710 Z-1.000000 I-0.366147 J-2.188785
G02 X29.503658 Y23.659861 Z-1.000000 I-0.724564 J-1.679646
G02 X29.855821 Y23.245740 Z-1.000000 I-1.150247 J-1.334952
G02 X30.081940 Y22.749055 Z-1.000000 I-1.711423 J-1.078950
G02 X30.155545 Y22.248380 Z-1.000000 I-1.666043 J-0.500675
G02 X30.089591 Y21.781274 Z-1.000000 I-1.687082 J0.000000
G02 X29.891995 Y21.333710 Z-1.000000 I-1.743650 J0.502410
G02 X29.576678 Y20.961519 Z-1.000000 I-1.373556 J0.844002
G02 X29.096178 Y20.641250 Z-1.000000 I-1.482964 J1.704312
G02 X29.723243 Y20.352528 Z-1.000000 I-0.666454 J-2.272755
G02 X30.150377 Y19.953950 Z-1.000000 I-0.926386 J-1.420915
G02 X30.423185 Y19.434543 Z-1.000000 I-1.376454 J-1.054301
G02 X30.522447 Y18.806730 Z-1.000000 I-1.935763 J-0.627813
G02 X30.463789 Y18.288178 Z-1.000000 I-2.321417 J0.000000
G02 X30.295071 Y17.814550 Z-1.000000 I-2.100342 J0.481331
G02 X30.031218 Y17.394224 Z-1.000000 I-2.106146 J1.029124
G02 X29.742133 Y17.111750 Z-1.000000 I-1.221962 J0.961396
G02 X29.391872 Y16.904356 Z-1.000000 I-1.123527 J1.498016
G02 X28.910143 Y16.734510 Z-1.000000 I-1.217611 J2.685400
G02 X28.409560 Y16.646953 Z-1.000000 I-0.858849 J3.435493
G02 X27.690579 Y16.610490 Z-1.000000 I-0.718981 J7.070180
G01 X24.801867 Y16.610490 Z-1.000000
G00 Z5.000000

(End cutting path id: path3168)


(Start cutting path id: path3168)
(Change tool to Default tool)

G00 Z5.000000
G00 X25.804389 Y21.002980

G01 Z-1.000000 F100.0(Penetrate)
G01 X27.442532 Y21.002980 Z-1.000000 F400.000000
G03 X28.104647 Y21.033355 Z-1.000000 I-0.000000 J7.231636
G03 X28.398546 Y21.090880 Z-1.000000 I-0.135169 J1.470123
G03 X28.746771 Y21.252848 Z-1.000000 I-0.375171 J1.261920
G03 X28.972154 Y21.468120 Z-1.000000 I-0.476427 J0.724425
G03 X29.113365 Y21.749960 Z-1.000000 I-0.722322 J0.538202
G03 X29.168525 Y22.129580 Z-1.000000 I-1.278718 J0.379620
G03 X29.119784 Y22.492627 Z-1.000000 I-1.376454 J-0.000000
G03 X28.987657 Y22.791040 Z-1.000000 I-1.053912 J-0.288179
G03 X28.768734 Y23.030912 Z-1.000000 I-0.764255 J-0.477671
G03 X28.470893 Y23.183780 Z-1.000000 I-0.579521 J-0.762529
G03 X28.128998 Y23.254222 Z-1.000000 I-0.491911 J-1.522590
G03 X27.318509 Y23.292300 Z-1.000000 I-0.810489 J-8.606655
G01 X25.804389 Y23.292300 Z-1.000000
G01 X25.804389 Y21.002980 Z-1.000000
G00 Z5.000000

(End cutting path id: path3168)


(Start cutting path id: path3154)
(Change tool to Default tool)

G00 Z5.000000
G00 X27.954128 Y30.535550

G01 Z-1.000000 F100.0(Penetrate)
G01 X27.954128 Y37.217320 Z-1.000000 F400.000000
G01 X25.458157 Y37.217320 Z-1.000000
G01 X25.458157 Y38.111320 Z-1.000000
G01 X31.462958 Y38.111320 Z-1.000000
G01 X31.462958 Y37.217320 Z-1.000000
G01 X28.956651 Y37.217320 Z-1.000000
G01 X28.956651 Y30.535550 Z-1.000000
G01 X27.954128 Y30.535550 Z-1.000000
G00 Z5.000000

(End cutting path id: path3154)


(Start cutting path id: path3156)
(Change tool to Default tool)

G00 Z5.000000
G00 X32.511990 Y30.535550

G01 Z-1.000000 F100.0(Penetrate)
G01 X32.511990 Y38.111320 Z-1.000000 F400.000000
G01 X37.989691 Y38.111320 Z-1.000000
G01 X37.989691 Y37.217320 Z-1.000000
G01 X33.514512 Y37.217320 Z-1.000000
G01 X33.514512 Y34.897040 Z-1.000000
G01 X37.705471 Y34.897040 Z-1.000000
G01 X37.705471 Y34.008210 Z-1.000000
G01 X33.514512 Y34.008210 Z-1.000000
G01 X33.514512 Y31.429560 Z-1.000000
G01 X38.165391 Y31.429560 Z-1.000000
G01 X38.165391 Y30.535550 Z-1.000000
G01 X32.511990 Y30.535550 Z-1.000000
G00 Z5.000000

(End cutting path id: path3156)


(Start cutting path id: path3158)
(Change tool to Default tool)

G00 Z5.000000
G00 X39.519313 Y30.535550

G01 Z-1.000000 F100.0(Penetrate)
G01 X39.519313 Y38.111320 Z-1.000000 F400.000000
G01 X41.028265 Y38.111320 Z-1.000000
G01 X42.821437 Y32.747300 Z-1.000000
G02 X43.066611 Y31.997086 Z-1.000000 I-98.081906 J-32.468868
G02 X43.183172 Y31.625930 Z-1.000000 I-23.888834 J-7.706134
G02 X43.315983 Y32.038156 Z-1.000000 I23.502212 J-7.344462
G02 X43.586248 Y32.840320 Z-1.000000 I89.270855 J-29.630464
G01 X45.400091 Y38.111320 Z-1.000000
G01 X46.748846 Y38.111320 Z-1.000000
G01 X46.748846 Y30.535550 Z-1.000000
G01 X45.782497 Y30.535550 Z-1.000000
G01 X45.782497 Y36.876250 Z-1.000000
G01 X43.581081 Y30.535550 Z-1.000000
G01 X42.676743 Y30.535550 Z-1.000000
G01 X40.485662 Y36.984770 Z-1.000000
G01 X40.485662 Y30.535550 Z-1.000000
G01 X39.519313 Y30.535550 Z-1.000000
G00 Z5.000000

(End cutting path id: path3158)


(Start cutting path id: path3160)
(Change tool to Default tool)

G00 Z5.000000
G00 X47.534327 Y30.535550

G01 Z-1.000000 F100.0(Penetrate)
G01 X50.443710 Y38.111320 Z-1.000000 F400.000000
G01 X51.523747 Y38.111320 Z-1.000000
G01 X54.624333 Y30.535550 Z-1.000000
G01 X53.482284 Y30.535550 Z-1.000000
G01 X52.598617 Y32.829990 Z-1.000000
G01 X49.430852 Y32.829990 Z-1.000000
G01 X48.598861 Y30.535550 Z-1.000000
G01 X47.534327 Y30.535550 Z-1.000000
G00 Z5.000000

(End cutting path id: path3160)


(Start cutting path id: path3160)
(Change tool to Default tool)

G00 Z5.000000
G00 X49.720240 Y33.646470

G01 Z-1.000000 F100.0(Penetrate)
G01 X52.288558 Y33.646470 Z-1.000000 F400.000000
G01 X51.497909 Y35.744540 Z-1.000000
G02 X51.151754 Y36.705713 Z-1.000000 I29.762365 J11.261482
G02 X50.960474 Y37.315500 Z-1.000000 I11.782528 J4.030875
G02 X50.787530 Y36.594796 Z-1.000000 I-9.208715 J1.828675
G02 X50.552230 Y35.868560 Z-1.000000 I-9.586140 J2.704662
G01 X49.720240 Y33.646470 Z-1.000000
G00 Z5.000000

(End cutting path id: path3160)


(Start cutting path id: path3162)
(Change tool to Default tool)

G00 Z5.000000
G00 X55.084255 Y32.969510

G01 Z-1.000000 F100.0(Penetrate)
G01 X56.029933 Y33.052210 Z-1.000000 F400.000000
G03 X56.151906 Y32.503835 Z-1.000000 I2.760354 J0.326221
G03 X56.339992 Y32.116860 Z-1.000000 I1.547670 J0.513037
G03 X56.632038 Y31.808211 Z-1.000000 I1.122889 J0.769992
G03 X57.104803 Y31.527750 Z-1.000000 I1.390448 J1.805147
G03 X57.633921 Y31.365542 Z-1.000000 I1.008211 J2.344661
G03 X58.267523 Y31.305540 Z-1.000000 I0.633602 J3.315342
G03 X58.832288 Y31.352751 Z-1.000000 I0.000000 J3.401617
G03 X59.280381 Y31.476070 Z-1.000000 I-0.379797 J2.255791
G03 X59.683195 Y31.693674 Z-1.000000 I-0.664778 J1.712226
G03 X59.931504 Y31.941160 Z-1.000000 I-0.625989 J0.876381
G03 X60.094371 Y32.258445 Z-1.000000 I-0.950835 J0.688521
G03 X60.148545 Y32.592280 Z-1.000000 I-1.001501 J0.333835
G03 X60.093753 Y32.929926 Z-1.000000 I-1.067733 J-0.000000
G03 X59.941839 Y33.212400 Z-1.000000 I-0.890550 J-0.296849
G03 X59.701471 Y33.435844 Z-1.000000 I-0.786278 J-0.604825
G03 X59.259710 Y33.661990 Z-1.000000 I-1.248374 J-1.894063
G03 X58.949650 Y33.764275 Z-1.000000 I-1.118257 J-2.868712
G03 X57.910955 Y34.028890 Z-1.000000 I-8.710555 J-32.020728
G02 X56.881700 Y34.320562 Z-1.000000 I3.304395 J13.622445
G02 X56.448512 Y34.504310 Z-1.000000 I0.838435 J2.579117
G02 X55.954138 Y34.841211 Z-1.000000 I1.202643 J2.295957
G02 X55.637192 Y35.207110 Z-1.000000 I1.111106 J1.282673
G02 X55.442328 Y35.650477 Z-1.000000 I1.449854 J0.901729
G02 X55.373643 Y36.152790 Z-1.000000 I1.802425 J0.502313
G02 X55.455365 Y36.701979 Z-1.000000 I1.886200 J-0.000000
G02 X55.699204 Y37.222490 Z-1.000000 I1.933843 J-0.588561
G02 X56.086368 Y37.649614 Z-1.000000 I1.513999 J-0.983323
G02 X56.650050 Y37.982140 Z-1.000000 I1.452271 J-1.817793
G02 X57.289071 Y38.171311 Z-1.000000 I1.225373 J-2.965428
G02 X58.040146 Y38.240520 Z-1.000000 I0.751075 J-4.040817
G02 X58.866971 Y38.164814 Z-1.000000 I-0.000000 J-4.552962
G02 X59.523260 Y37.966630 Z-1.000000 I-0.563704 J-3.052458
G02 X60.105753 Y37.621327 Z-1.000000 I-0.926014 J-2.226055
G02 X60.515447 Y37.170820 Z-1.000000 I-1.219897 J-1.520923
G02 X60.777427 Y36.616735 Z-1.000000 I-1.841787 J-1.209803
G02 X60.887518 Y35.977090 Z-1.000000 I-2.359269 J-0.735355
G01 X59.926336 Y35.904690 Z-1.000000
G03 X59.737301 Y36.562521 Z-1.000000 I-1.984214 J-0.214109
G03 X59.399237 Y36.989900 Z-1.000000 I-1.137865 J-0.552674
G03 X58.913940 Y37.243073 Z-1.000000 I-0.838616 J-1.015797
G03 X58.081488 Y37.356800 Z-1.000000 I-0.832452 J-2.989813
G03 X57.210126 Y37.248319 Z-1.000000 I-0.000000 J-3.553783
G03 X56.753403 Y37.020910 Z-1.000000 I0.294181 J-1.163169
G03 X56.442256 Y36.641030 Z-1.000000 I0.736467 J-0.920580
G03 X56.339992 Y36.219920 Z-1.000000 I0.815906 J-0.421110
G03 X56.418227 Y35.846660 Z-1.000000 I0.929528 J-0.000000
G03 X56.634547 Y35.548130 Z-1.000000 I0.795514 J0.348804
G03 X56.959457 Y35.352507 Z-1.000000 I0.653152 J0.717188
G03 X58.143499 Y35.005520 Z-1.000000 I3.474116 J9.661221
G02 X59.356498 Y34.696624 Z-1.000000 I-4.654209 J-20.812614
G02 X59.822983 Y34.524930 Z-1.000000 I-0.925279 J-3.233508
G02 X60.427434 Y34.153188 Z-1.000000 I-1.246147 J-2.703517
G02 X60.799668 Y33.749790 Z-1.000000 I-1.107255 J-1.395154
G02 X61.031021 Y33.258955 Z-1.000000 I-1.452995 J-0.984802
G02 X61.114894 Y32.674920 Z-1.000000 I-1.991464 J-0.584035
G02 X61.029004 Y32.095571 Z-1.000000 I-1.996877 J0.000000
G02 X60.768662 Y31.532870 Z-1.000000 I-2.141569 J0.649253
G02 X60.360079 Y31.072741 Z-1.000000 I-1.732560 J1.126999
G02 X59.771307 Y30.700880 Z-1.000000 I-1.695559 J2.032565
G02 X59.108091 Y30.485769 Z-1.000000 I-1.269353 J2.783630
G02 X58.314031 Y30.406320 Z-1.000000 I-0.794060 J3.928453
G02 X57.303586 Y30.493404 Z-1.000000 I0.000000 J5.905717
G02 X56.588039 Y30.706050 Z-1.000000 I0.547401 J3.152203
G02 X55.964144 Y31.087737 Z-1.000000 I1.036915 J2.395657
G02 X55.497666 Y31.605220 Z-1.000000 I1.507009 J1.827465
G02 X55.202485 Y32.240184 Z-1.000000 I2.090384 J1.357866
G02 X55.084255 Y32.969470 Z-1.000000 I2.655713 J0.804765
G01 X55.084255 Y32.969510 Z-1.000000
G00 Z5.000000

(End cutting path id: path3162)


(Start cutting path id: path3152)
(Change tool to Default tool)

G00 Z5.000000
G00 X18.626533 Y32.969510

G01 Z-1.000000 F100.0(Penetrate)
G01 X19.572212 Y33.052210 Z-1.000000 F400.000000
G03 X19.694185 Y32.503835 Z-1.000000 I2.760367 J0.326223
G03 X19.882270 Y32.116860 Z-1.000000 I1.547674 J0.513037
G03 X20.174316 Y31.808211 Z-1.000000 I1.122889 J0.769992
G03 X20.647081 Y31.527750 Z-1.000000 I1.390448 J1.805147
G03 X21.176200 Y31.365542 Z-1.000000 I1.008214 J2.344673
G03 X21.809801 Y31.305540 Z-1.000000 I0.633601 J3.315337
G03 X22.374566 Y31.352751 Z-1.000000 I0.000000 J3.401617
G03 X22.822659 Y31.476070 Z-1.000000 I-0.379797 J2.255791
G03 X23.225474 Y31.693674 Z-1.000000 I-0.664776 J1.712224
G03 X23.473782 Y31.941160 Z-1.000000 I-0.625984 J0.876373
G03 X23.636649 Y32.258445 Z-1.000000 I-0.950835 J0.688521
G03 X23.690823 Y32.592280 Z-1.000000 I-1.001501 J0.333835
G03 X23.636031 Y32.929926 Z-1.000000 I-1.067733 J-0.000000
G03 X23.484117 Y33.212400 Z-1.000000 I-0.890550 J-0.296849
G03 X23.243750 Y33.435844 Z-1.000000 I-0.786273 J-0.604817
G03 X22.801988 Y33.661990 Z-1.000000 I-1.248372 J-1.894060
G03 X22.491929 Y33.764275 Z-1.000000 I-1.118247 J-2.868678
G03 X21.453234 Y34.028890 Z-1.000000 I-8.710511 J-32.020540
G02 X20.423979 Y34.320562 Z-1.000000 I3.304395 J13.622445
G02 X19.990791 Y34.504310 Z-1.000000 I0.838435 J2.579117
G02 X19.496416 Y34.841211 Z-1.000000 I1.202639 J2.295953
G02 X19.179471 Y35.207110 Z-1.000000 I1.111098 J1.282664
G02 X18.984607 Y35.650477 Z-1.000000 I1.449850 J0.901730
G02 X18.915921 Y36.152790 Z-1.000000 I1.802418 J0.502313
G02 X18.997643 Y36.701979 Z-1.000000 I1.886200 J-0.000000
G02 X19.241482 Y37.222490 Z-1.000000 I1.933843 J-0.588561
G02 X19.628646 Y37.649614 Z-1.000000 I1.513996 J-0.983321
G02 X20.192329 Y37.982140 Z-1.000000 I1.452272 J-1.817796
G02 X20.831350 Y38.171311 Z-1.000000 I1.225373 J-2.965428
G02 X21.582425 Y38.240520 Z-1.000000 I0.751075 J-4.040817
G02 X22.409250 Y38.164814 Z-1.000000 I-0.000000 J-4.552959
G02 X23.065538 Y37.966630 Z-1.000000 I-0.563703 J-3.052448
G02 X23.648032 Y37.621327 Z-1.000000 I-0.926013 J-2.226058
G02 X24.057726 Y37.170820 Z-1.000000 I-1.219894 J-1.520922
G02 X24.319706 Y36.616735 Z-1.000000 I-1.841791 J-1.209802
G02 X24.429796 Y35.977090 Z-1.000000 I-2.359277 J-0.735356
G01 X23.468614 Y35.904690 Z-1.000000
G03 X23.279579 Y36.562521 Z-1.000000 I-1.984214 J-0.214109
G03 X22.941515 Y36.989900 Z-1.000000 I-1.137865 J-0.552674
G03 X22.456219 Y37.243073 Z-1.000000 I-0.838614 J-1.015792
G03 X21.623766 Y37.356800 Z-1.000000 I-0.832453 J-2.989816
G03 X20.752405 Y37.248319 Z-1.000000 I-0.000000 J-3.553777
G03 X20.295682 Y37.020910 Z-1.000000 I0.294181 J-1.163169
G03 X19.984534 Y36.641029 Z-1.000000 I0.736466 J-0.920582
G03 X19.882270 Y36.219920 Z-1.000000 I0.815904 J-0.421109
G03 X19.960506 Y35.846660 Z-1.000000 I0.929525 J0.000000
G03 X20.176826 Y35.548130 Z-1.000000 I0.795514 J0.348805
G03 X20.501736 Y35.352507 Z-1.000000 I0.653149 J0.717182
G03 X21.685778 Y35.005520 Z-1.000000 I3.474114 J9.661213
G02 X22.898776 Y34.696624 Z-1.000000 I-4.654223 J-20.812659
G02 X23.365262 Y34.524930 Z-1.000000 I-0.925286 J-3.233532
G02 X23.969712 Y34.153188 Z-1.000000 I-1.246148 J-2.703514
G02 X24.341946 Y33.749790 Z-1.000000 I-1.107258 J-1.395156
G02 X24.573299 Y33.258955 Z-1.000000 I-1.452995 J-0.984802
G02 X24.657172 Y32.674920 Z-1.000000 I-1.991464 J-0.584035
G02 X24.571282 Y32.095571 Z-1.000000 I-1.996877 J0.000000
G02 X24.310940 Y31.532870 Z-1.000000 I-2.141569 J0.649253
G02 X23.902357 Y31.072741 Z-1.000000 I-1.732560 J1.126999
G02 X23.313585 Y30.700880 Z-1.000000 I-1.695559 J2.032565
G02 X22.650370 Y30.485769 Z-1.000000 I-1.269350 J2.783620
G02 X21.856310 Y30.406320 Z-1.000000 I-0.794060 J3.928450
G02 X20.845864 Y30.493404 Z-1.000000 I0.000000 J5.905727
G02 X20.130317 Y30.706050 Z-1.000000 I0.547401 J3.152202
G02 X19.506422 Y31.087737 Z-1.000000 I1.036915 J2.395657
G02 X19.039944 Y31.605220 Z-1.000000 I1.507009 J1.827465
G02 X18.744763 Y32.240184 Z-1.000000 I2.090384 J1.357866
G02 X18.626533 Y32.969470 Z-1.000000 I2.655713 J0.804765
G01 X18.626533 Y32.969510 Z-1.000000
G00 Z5.000000

(End cutting path id: path3152)


(Start cutting path id: path3150)
(Change tool to Default tool)

G00 Z5.000000
G00 X16.197740 Y30.535550

G01 Z-1.000000 F100.0(Penetrate)
G01 X16.197740 Y38.111320 Z-1.000000 F400.000000
G01 X17.200263 Y38.111320 Z-1.000000
G01 X17.200263 Y30.535550 Z-1.000000
G01 X16.197740 Y30.535550 Z-1.000000
G00 Z5.000000

(End cutting path id: path3150)


(Start cutting path id: path3148)
(Change tool to Default tool)

G00 Z5.000000
G00 X8.627143 Y32.969510

G01 Z-1.000000 F100.0(Penetrate)
G01 X9.572822 Y33.052210 Z-1.000000 F400.000000
G03 X9.694794 Y32.503835 Z-1.000000 I2.760335 J0.326214
G03 X9.882881 Y32.116860 Z-1.000000 I1.547662 J0.513034
G03 X10.174926 Y31.808211 Z-1.000000 I1.122885 J0.769988
G03 X10.647692 Y31.527750 Z-1.000000 I1.390448 J1.805147
G03 X11.176810 Y31.365542 Z-1.000000 I1.008212 J2.344663
G03 X11.810411 Y31.305540 Z-1.000000 I0.633601 J3.315334
G03 X12.375177 Y31.352751 Z-1.000000 I0.000000 J3.401623
G03 X12.823269 Y31.476070 Z-1.000000 I-0.379794 J2.255778
G03 X13.226084 Y31.693674 Z-1.000000 I-0.664776 J1.712224
G03 X13.474392 Y31.941160 Z-1.000000 I-0.625984 J0.876373
G03 X13.637259 Y32.258445 Z-1.000000 I-0.950835 J0.688521
G03 X13.691433 Y32.592280 Z-1.000000 I-1.001501 J0.333835
G03 X13.636641 Y32.929926 Z-1.000000 I-1.067738 J0.000000
G03 X13.484728 Y33.212400 Z-1.000000 I-0.890552 J-0.296848
G03 X13.244360 Y33.435844 Z-1.000000 I-0.786278 J-0.604825
G03 X12.802599 Y33.661990 Z-1.000000 I-1.248374 J-1.894063
G03 X12.492539 Y33.764275 Z-1.000000 I-1.118257 J-2.868712
G03 X11.453844 Y34.028890 Z-1.000000 I-8.710555 J-32.020728
G02 X10.424589 Y34.320562 Z-1.000000 I3.304395 J13.622445
G02 X9.991401 Y34.504310 Z-1.000000 I0.838435 J2.579117
G02 X9.497027 Y34.841211 Z-1.000000 I1.202641 J2.295955
G02 X9.180081 Y35.207110 Z-1.000000 I1.111102 J1.282669
G02 X8.985217 Y35.650477 Z-1.000000 I1.449851 J0.901730
G02 X8.916531 Y36.152790 Z-1.000000 I1.802419 J0.502313
G02 X8.998253 Y36.701979 Z-1.000000 I1.886198 J-0.000000
G02 X9.242093 Y37.222490 Z-1.000000 I1.933842 J-0.588562
G02 X9.629257 Y37.649614 Z-1.000000 I1.513995 J-0.983319
G02 X10.192939 Y37.982140 Z-1.000000 I1.452271 J-1.817793
G02 X10.831960 Y38.171311 Z-1.000000 I1.225373 J-2.965428
G02 X11.583035 Y38.240520 Z-1.000000 I0.751075 J-4.040817
G02 X12.409860 Y38.164814 Z-1.000000 I0.000000 J-4.552962
G02 X13.066149 Y37.966630 Z-1.000000 I-0.563704 J-3.052458
G02 X13.648642 Y37.621327 Z-1.000000 I-0.926014 J-2.226055
G02 X14.058336 Y37.170820 Z-1.000000 I-1.219897 J-1.520923
G02 X14.320316 Y36.616735 Z-1.000000 I-1.841791 J-1.209802
G02 X14.430406 Y35.977090 Z-1.000000 I-2.359277 J-0.735356
G01 X13.469225 Y35.904690 Z-1.000000
G03 X13.280185 Y36.562523 Z-1.000000 I-1.984296 J-0.214145
G03 X12.942125 Y36.989900 Z-1.000000 I-1.137883 J-0.552684
G03 X12.456829 Y37.243073 Z-1.000000 I-0.838614 J-1.015792
G03 X11.624376 Y37.356800 Z-1.000000 I-0.832453 J-2.989816
G03 X10.753015 Y37.248319 Z-1.000000 I0.000000 J-3.553777
G03 X10.296292 Y37.020910 Z-1.000000 I0.294181 J-1.163169
G03 X9.985144 Y36.641029 Z-1.000000 I0.736467 J-0.920581
G03 X9.882881 Y36.219920 Z-1.000000 I0.815905 J-0.421109
G03 X9.961116 Y35.846660 Z-1.000000 I0.929526 J-0.000000
G03 X10.177436 Y35.548130 Z-1.000000 I0.795514 J0.348804
G03 X10.502346 Y35.352507 Z-1.000000 I0.653149 J0.717182
G03 X11.686388 Y35.005520 Z-1.000000 I3.474114 J9.661213
G02 X12.899386 Y34.696624 Z-1.000000 I-4.654223 J-20.812659
G02 X13.365872 Y34.524930 Z-1.000000 I-0.925286 J-3.233532
G02 X13.970322 Y34.153188 Z-1.000000 I-1.246148 J-2.703514
G02 X14.342556 Y33.749790 Z-1.000000 I-1.107258 J-1.395156
G02 X14.573909 Y33.258954 Z-1.000000 I-1.452991 J-0.984803
G02 X14.657783 Y32.674920 Z-1.000000 I-1.991457 J-0.584034
G02 X14.571893 Y32.095571 Z-1.000000 I-1.996877 J0.000000
G02 X14.311551 Y31.532870 Z-1.000000 I-2.141569 J0.649253
G02 X13.902968 Y31.072741 Z-1.000000 I-1.732557 J1.126997
G02 X13.314195 Y30.700880 Z-1.000000 I-1.695559 J2.032568
G02 X12.650980 Y30.485769 Z-1.000000 I-1.269350 J2.783620
G02 X11.856920 Y30.406320 Z-1.000000 I-0.794060 J3.928450
G02 X10.846474 Y30.493404 Z-1.000000 I0.000000 J5.905727
G02 X10.130927 Y30.706050 Z-1.000000 I0.547401 J3.152202
G02 X9.507033 Y31.087737 Z-1.000000 I1.036914 J2.395654
G02 X9.040555 Y31.605220 Z-1.000000 I1.507007 J1.827462
G02 X8.745374 Y32.240184 Z-1.000000 I2.090387 J1.357868
G02 X8.627143 Y32.969470 Z-1.000000 I2.655718 J0.804768
G01 X8.627143 Y32.969510 Z-1.000000
G00 Z5.000000

(End cutting path id: path3148)


(Start cutting path id: path3164)
(Change tool to Default tool)

G00 Z5.000000
G00 X8.988878 Y16.610490

G01 Z-1.000000 F100.0(Penetrate)
G01 X8.988878 Y24.186250 Z-1.000000 F400.000000
G01 X14.466580 Y24.186250 Z-1.000000
G01 X14.466580 Y23.292250 Z-1.000000
G01 X9.991401 Y23.292250 Z-1.000000
G01 X9.991401 Y20.971980 Z-1.000000
G01 X14.182360 Y20.971980 Z-1.000000
G01 X14.182360 Y20.083140 Z-1.000000
G01 X9.991401 Y20.083140 Z-1.000000
G01 X9.991401 Y17.504490 Z-1.000000
G01 X14.642280 Y17.504490 Z-1.000000
G01 X14.642280 Y16.610490 Z-1.000000
G01 X8.988878 Y16.610490 Z-1.000000
G00 Z5.000000

(End cutting path id: path3164)


(Start cutting path id: path3166)
(Change tool to Default tool)

G00 Z5.000000
G00 X15.996202 Y16.610490

G01 Z-1.000000 F100.0(Penetrate)
G01 X15.996202 Y24.186250 Z-1.000000 F400.000000
G01 X17.505154 Y24.186250 Z-1.000000
G01 X19.298326 Y18.822240 Z-1.000000
G02 X19.543501 Y18.072016 Z-1.000000 I-98.100887 J-32.474718
G02 X19.660061 Y17.700860 Z-1.000000 I-23.892871 J-7.707367
G02 X19.792872 Y18.113086 Z-1.000000 I23.502212 J-7.344462
G02 X20.063137 Y18.915250 Z-1.000000 I89.270855 J-29.630464
G01 X21.876980 Y24.186250 Z-1.000000
G01 X23.225735 Y24.186250 Z-1.000000
G01 X23.225735 Y16.610490 Z-1.000000
G01 X22.259386 Y16.610490 Z-1.000000
G01 X22.259386 Y22.951180 Z-1.000000
G01 X20.057970 Y16.610490 Z-1.000000
G01 X19.153632 Y16.610490 Z-1.000000
G01 X16.962552 Y23.059700 Z-1.000000
G01 X16.962552 Y16.610490 Z-1.000000
G01 X15.996202 Y16.610490 Z-1.000000
G00 Z5.000000

(End cutting path id: path3166)


(Footer)
M5
G00 X0.0000 Y0.0000
M2
(Using default footer. To add your own footer create file "footer" in the output dir.)
(end)
%