%
(Header)
(Generated by gcodetools from Inkscape.)
(Using default header. To add your own header create file "header" in the output dir.)
M3
(Header end.)
G21 (All units in mm)

(Start cutting path id: text4387)
(Change tool to Graffiti)
(Add G00 here to change sprayer if needed)
G00 Z10.000000
G00 X4.685816 Y25.258600
M03 S1(Turn spray on)
 
G01 Z-1.000000 F100.0(Penetrate)
G03 X3.328815 Y25.059828 Z-1.000000 I0.000000 J-4.731463 F400.000000
G03 X2.336092 Y24.555285 Z-1.000000 I0.895269 J-2.990402
G03 X1.647564 Y23.739523 Z-1.000000 I1.443974 J-1.917208
G03 X1.410051 Y22.762114 Z-1.000000 I1.892356 J-0.977409
G03 X1.565692 Y21.868401 Z-1.000000 I2.643743 J-0.000000
G03 X1.967123 Y21.209758 Z-1.000000 I1.804545 J0.648182
G03 X2.601009 Y20.745694 Z-1.000000 I1.600544 J1.521300
G03 X3.689496 Y20.371567 Z-1.000000 I2.069393 J4.250210
G03 X4.265077 Y20.261581 Z-1.000000 I4.683556 J22.949057
G03 X4.773666 Y20.178297 Z-1.000000 I3.231502 J18.139194
G02 X5.286439 Y20.088616 Z-1.000000 I-1.436928 J-9.726846
G02 X5.728645 Y19.985027 Z-1.000000 I-1.477076 J-7.301029
G02 X6.278286 Y19.778795 Z-1.000000 I-0.731340 J-2.784702
G02 X6.590090 Y19.557146 Z-1.000000 I-0.544652 J-1.096323
G02 X6.788472 Y19.244059 Z-1.000000 I-0.536525 J-0.559354
G02 X6.876894 Y18.701902 Z-1.000000 I-1.617896 J-0.542157
G02 X6.722567 Y18.110505 Z-1.000000 I-1.210307 J0.000000
G02 X6.273314 Y17.623933 Z-1.000000 I-1.240684 J0.694841
G02 X5.637913 Y17.343233 Z-1.000000 I-1.094396 J1.617804
G02 X4.597967 Y17.219306 Z-1.000000 I-1.039946 J4.301448
G02 X3.847471 Y17.287479 Z-1.000000 I0.000000 J4.165095
G02 X2.968611 Y17.517997 Z-1.000000 I1.087587 J5.937088
G02 X2.141079 Y17.887311 Z-1.000000 I1.681366 J4.879269
G02 X1.439507 Y18.368073 Z-1.000000 I2.223757 J3.997392
G01 X1.357342 Y18.368073 Z-1.000000
G01 X1.357342 Y16.914933 Z-1.000000
G03 X2.148875 Y16.604940 Z-1.000000 I3.896157 J8.782886
G03 X2.886962 Y16.393003 Z-1.000000 I2.512284 J7.358025
G03 X3.648328 Y16.265638 Z-1.000000 I1.394205 J5.994989
G03 X4.586081 Y16.217301 Z-1.000000 I0.937753 J9.072215
G03 X5.455041 Y16.278033 Z-1.000000 I0.000000 J6.247030
G03 X6.086246 Y16.428142 Z-1.000000 I-0.481138 J3.425317
G03 X6.686643 Y16.687612 Z-1.000000 I-1.252362 J3.722267
G03 X7.181785 Y17.014151 Z-1.000000 I-1.527429 J2.854758
G03 X7.560421 Y17.398402 Z-1.000000 I-1.503346 J1.860056
G03 X7.843759 Y17.858028 Z-1.000000 I-1.890899 J1.482797
G03 X8.025669 Y18.369349 Z-1.000000 I-2.275257 J1.097476
G03 X8.084054 Y18.865716 Z-1.000000 I-2.080775 J0.496368
G03 X7.939756 Y19.746024 Z-1.000000 I-2.757356 J0.000000
G03 X7.592095 Y20.325056 Z-1.000000 I-1.494657 J-0.503532
G03 X7.040058 Y20.746065 Z-1.000000 I-1.558031 J-1.470496
G03 X6.127070 Y21.104337 Z-1.000000 I-2.009391 J-3.778129
G03 X5.644042 Y21.215643 Z-1.000000 I-2.537903 J-9.909878
G03 X4.955050 Y21.344631 Z-1.000000 I-4.098528 J-19.987645
G02 X4.264974 Y21.467429 Z-1.000000 I7.136467 J42.104500
G02 X3.888967 Y21.543585 Z-1.000000 I2.264992 J12.149451
G02 X3.220869 Y21.777544 Z-1.000000 I0.730604 J3.157220
G02 X2.898331 Y22.017974 Z-1.000000 I0.449658 J0.939777
G02 X2.699320 Y22.360332 Z-1.000000 I0.706061 J0.639451
G02 X2.617212 Y22.873736 Z-1.000000 I1.564045 J0.513404
G02 X2.758061 Y23.408945 Z-1.000000 I1.087285 J0.000000
G02 X3.179967 Y23.869539 Z-1.000000 I1.208349 J-0.683322
G02 X3.783202 Y24.142662 Z-1.000000 I1.086297 J-1.596524
G02 X4.679615 Y24.256595 Z-1.000000 I0.896413 J-3.469487
G02 X5.517353 Y24.186125 Z-1.000000 I-0.000000 J-5.014728
G02 X6.337910 Y23.975475 Z-1.000000 I-0.848970 J-5.010547
G02 X7.117931 Y23.638873 Z-1.000000 I-1.674882 J-4.953355
G02 X7.650490 Y23.277844 Z-1.000000 I-1.413783 J-2.658796
G01 X7.732655 Y23.277844 Z-1.000000
G01 X7.732655 Y24.648818 Z-1.000000
G03 X7.130451 Y24.875547 Z-1.000000 I-2.532126 J-5.812345
G03 X6.373050 Y25.082901 Z-1.000000 I-2.840284 J-8.887762
G03 X5.600224 Y25.211132 Z-1.000000 I-1.441429 J-6.294285
G03 X4.685816 Y25.258600 Z-1.000000 I-0.914407 J-8.783679
G01 X4.685816 Y25.258600 Z-1.000000
G00 Z10.000000
M05 (Turn spray off)
 
(End cutting path id: text4387)


(Start cutting path id: text4387)
(Change tool to Graffiti)
(Add G00 here to change sprayer if needed)
G00 Z10.000000
G00 X4.685816 Y25.258600
M03 S1(Turn spray on)
 
G01 Z-2.000000 F100.0(Penetrate)
G03 X3.328815 Y25.059828 Z-2.000000 I0.000000 J-4.731463 F400.000000
G03 X2.336092 Y24.555285 Z-2.000000 I0.895269 J-2.990402
G03 X1.647564 Y23.739523 Z-2.000000 I1.443974 J-1.917208
G03 X1.410051 Y22.762114 Z-2.000000 I1.892356 J-0.977409
G03 X1.565692 Y21.868401 Z-2.000000 I2.643743 J-0.000000
G03 X1.967123 Y21.209758 Z-2.000000 I1.804545 J0.648182
G03 X2.601009 Y20.745694 Z-2.000000 I1.600544 J1.521300
G03 X3.689496 Y20.371567 Z-2.000000 I2.069393 J4.250210
G03 X4.265077 Y20.261581 Z-2.000000 I4.683556 J22.949057
G03 X4.773666 Y20.178297 Z-2.000000 I3.231502 J18.139194
G02 X5.286439 Y20.088616 Z-2.000000 I-1.436928 J-9.726846
G02 X5.728645 Y19.985027 Z-2.000000 I-1.477076 J-7.301029
G02 X6.278286 Y19.778795 Z-2.000000 I-0.731340 J-2.784702
G02 X6.590090 Y19.557146 Z-2.000000 I-0.544652 J-1.096323
G02 X6.788472 Y19.244059 Z-2.000000 I-0.536525 J-0.559354
G02 X6.876894 Y18.701902 Z-2.000000 I-1.617896 J-0.542157
G02 X6.722567 Y18.110505 Z-2.000000 I-1.210307 J0.000000
G02 X6.273314 Y17.623933 Z-2.000000 I-1.240684 J0.694841
G02 X5.637913 Y17.343233 Z-2.000000 I-1.094396 J1.617804
G02 X4.597967 Y17.219306 Z-2.000000 I-1.039946 J4.301448
G02 X3.847471 Y17.287479 Z-2.000000 I0.000000 J4.165095
G02 X2.968611 Y17.517997 Z-2.000000 I1.087587 J5.937088
G02 X2.141079 Y17.887311 Z-2.000000 I1.681366 J4.879269
G02 X1.439507 Y18.368073 Z-2.000000 I2.223757 J3.997392
G01 X1.357342 Y18.368073 Z-2.000000
G01 X1.357342 Y16.914933 Z-2.000000
G03 X2.148875 Y16.604940 Z-2.000000 I3.896157 J8.782886
G03 X2.886962 Y16.393003 Z-2.000000 I2.512284 J7.358025
G03 X3.648328 Y16.265638 Z-2.000000 I1.394205 J5.994989
G03 X4.586081 Y16.217301 Z-2.000000 I0.937753 J9.072215
G03 X5.455041 Y16.278033 Z-2.000000 I0.000000 J6.247030
G03 X6.086246 Y16.428142 Z-2.000000 I-0.481138 J3.425317
G03 X6.686643 Y16.687612 Z-2.000000 I-1.252362 J3.722267
G03 X7.181785 Y17.014151 Z-2.000000 I-1.527429 J2.854758
G03 X7.560421 Y17.398402 Z-2.000000 I-1.503346 J1.860056
G03 X7.843759 Y17.858028 Z-2.000000 I-1.890899 J1.482797
G03 X8.025669 Y18.369349 Z-2.000000 I-2.275257 J1.097476
G03 X8.084054 Y18.865716 Z-2.000000 I-2.080775 J0.496368
G03 X7.939756 Y19.746024 Z-2.000000 I-2.757356 J0.000000
G03 X7.592095 Y20.325056 Z-2.000000 I-1.494657 J-0.503532
G03 X7.040058 Y20.746065 Z-2.000000 I-1.558031 J-1.470496
G03 X6.127070 Y21.104337 Z-2.000000 I-2.009391 J-3.778129
G03 X5.644042 Y21.215643 Z-2.000000 I-2.537903 J-9.909878
G03 X4.955050 Y21.344631 Z-2.000000 I-4.098528 J-19.987645
G02 X4.264974 Y21.467429 Z-2.000000 I7.136467 J42.104500
G02 X3.888967 Y21.543585 Z-2.000000 I2.264992 J12.149451
G02 X3.220869 Y21.777544 Z-2.000000 I0.730604 J3.157220
G02 X2.898331 Y22.017974 Z-2.000000 I0.449658 J0.939777
G02 X2.699320 Y22.360332 Z-2.000000 I0.706061 J0.639451
G02 X2.617212 Y22.873736 Z-2.000000 I1.564045 J0.513404
G02 X2.758061 Y23.408945 Z-2.000000 I1.087285 J0.000000
G02 X3.179967 Y23.869539 Z-2.000000 I1.208349 J-0.683322
G02 X3.783202 Y24.142662 Z-2.000000 I1.086297 J-1.596524
G02 X4.679615 Y24.256595 Z-2.000000 I0.896413 J-3.469487
G02 X5.517353 Y24.186125 Z-2.000000 I-0.000000 J-5.014728
G02 X6.337910 Y23.975475 Z-2.000000 I-0.848970 J-5.010547
G02 X7.117931 Y23.638873 Z-2.000000 I-1.674882 J-4.953355
G02 X7.650490 Y23.277844 Z-2.000000 I-1.413783 J-2.658796
G01 X7.732655 Y23.277844 Z-2.000000
G01 X7.732655 Y24.648818 Z-2.000000
G03 X7.130451 Y24.875547 Z-2.000000 I-2.532126 J-5.812345
G03 X6.373050 Y25.082901 Z-2.000000 I-2.840284 J-8.887762
G03 X5.600224 Y25.211132 Z-2.000000 I-1.441429 J-6.294285
G03 X4.685816 Y25.258600 Z-2.000000 I-0.914407 J-8.783679
G01 X4.685816 Y25.258600 Z-2.000000
G00 Z10.000000
M05 (Turn spray off)
 
(End cutting path id: text4387)


(Start cutting path id: text4387)
(Change tool to Graffiti)
(Add G00 here to change sprayer if needed)
G00 Z10.000000
G00 X4.685816 Y25.258600
M03 S1(Turn spray on)
 
G01 Z-3.000000 F100.0(Penetrate)
G03 X3.328815 Y25.059828 Z-3.000000 I0.000000 J-4.731463 F400.000000
G03 X2.336092 Y24.555285 Z-3.000000 I0.895269 J-2.990402
G03 X1.647564 Y23.739523 Z-3.000000 I1.443974 J-1.917208
G03 X1.410051 Y22.762114 Z-3.000000 I1.892356 J-0.977409
G03 X1.565692 Y21.868401 Z-3.000000 I2.643743 J-0.000000
G03 X1.967123 Y21.209758 Z-3.000000 I1.804545 J0.648182
G03 X2.601009 Y20.745694 Z-3.000000 I1.600544 J1.521300
G03 X3.689496 Y20.371567 Z-3.000000 I2.069393 J4.250210
G03 X4.265077 Y20.261581 Z-3.000000 I4.683556 J22.949057
G03 X4.773666 Y20.178297 Z-3.000000 I3.231502 J18.139194
G02 X5.286439 Y20.088616 Z-3.000000 I-1.436928 J-9.726846
G02 X5.728645 Y19.985027 Z-3.000000 I-1.477076 J-7.301029
G02 X6.278286 Y19.778795 Z-3.000000 I-0.731340 J-2.784702
G02 X6.590090 Y19.557146 Z-3.000000 I-0.544652 J-1.096323
G02 X6.788472 Y19.244059 Z-3.000000 I-0.536525 J-0.559354
G02 X6.876894 Y18.701902 Z-3.000000 I-1.617896 J-0.542157
G02 X6.722567 Y18.110505 Z-3.000000 I-1.210307 J0.000000
G02 X6.273314 Y17.623933 Z-3.000000 I-1.240684 J0.694841
G02 X5.637913 Y17.343233 Z-3.000000 I-1.094396 J1.617804
G02 X4.597967 Y17.219306 Z-3.000000 I-1.039946 J4.301448
G02 X3.847471 Y17.287479 Z-3.000000 I0.000000 J4.165095
G02 X2.968611 Y17.517997 Z-3.000000 I1.087587 J5.937088
G02 X2.141079 Y17.887311 Z-3.000000 I1.681366 J4.879269
G02 X1.439507 Y18.368073 Z-3.000000 I2.223757 J3.997392
G01 X1.357342 Y18.368073 Z-3.000000
G01 X1.357342 Y16.914933 Z-3.000000
G03 X2.148875 Y16.604940 Z-3.000000 I3.896157 J8.782886
G03 X2.886962 Y16.393003 Z-3.000000 I2.512284 J7.358025
G03 X3.648328 Y16.265638 Z-3.000000 I1.394205 J5.994989
G03 X4.586081 Y16.217301 Z-3.000000 I0.937753 J9.072215
G03 X5.455041 Y16.278033 Z-3.000000 I0.000000 J6.247030
G03 X6.086246 Y16.428142 Z-3.000000 I-0.481138 J3.425317
G03 X6.686643 Y16.687612 Z-3.000000 I-1.252362 J3.722267
G03 X7.181785 Y17.014151 Z-3.000000 I-1.527429 J2.854758
G03 X7.560421 Y17.398402 Z-3.000000 I-1.503346 J1.860056
G03 X7.843759 Y17.858028 Z-3.000000 I-1.890899 J1.482797
G03 X8.025669 Y18.369349 Z-3.000000 I-2.275257 J1.097476
G03 X8.084054 Y18.865716 Z-3.000000 I-2.080775 J0.496368
G03 X7.939756 Y19.746024 Z-3.000000 I-2.757356 J0.000000
G03 X7.592095 Y20.325056 Z-3.000000 I-1.494657 J-0.503532
G03 X7.040058 Y20.746065 Z-3.000000 I-1.558031 J-1.470496
G03 X6.127070 Y21.104337 Z-3.000000 I-2.009391 J-3.778129
G03 X5.644042 Y21.215643 Z-3.000000 I-2.537903 J-9.909878
G03 X4.955050 Y21.344631 Z-3.000000 I-4.098528 J-19.987645
G02 X4.264974 Y21.467429 Z-3.000000 I7.136467 J42.104500
G02 X3.888967 Y21.543585 Z-3.000000 I2.264992 J12.149451
G02 X3.220869 Y21.777544 Z-3.000000 I0.730604 J3.157220
G02 X2.898331 Y22.017974 Z-3.000000 I0.449658 J0.939777
G02 X2.699320 Y22.360332 Z-3.000000 I0.706061 J0.639451
G02 X2.617212 Y22.873736 Z-3.000000 I1.564045 J0.513404
G02 X2.758061 Y23.408945 Z-3.000000 I1.087285 J0.000000
G02 X3.179967 Y23.869539 Z-3.000000 I1.208349 J-0.683322
G02 X3.783202 Y24.142662 Z-3.000000 I1.086297 J-1.596524
G02 X4.679615 Y24.256595 Z-3.000000 I0.896413 J-3.469487
G02 X5.517353 Y24.186125 Z-3.000000 I-0.000000 J-5.014728
G02 X6.337910 Y23.975475 Z-3.000000 I-0.848970 J-5.010547
G02 X7.117931 Y23.638873 Z-3.000000 I-1.674882 J-4.953355
G02 X7.650490 Y23.277844 Z-3.000000 I-1.413783 J-2.658796
G01 X7.732655 Y23.277844 Z-3.000000
G01 X7.732655 Y24.648818 Z-3.000000
G03 X7.130451 Y24.875547 Z-3.000000 I-2.532126 J-5.812345
G03 X6.373050 Y25.082901 Z-3.000000 I-2.840284 J-8.887762
G03 X5.600224 Y25.211132 Z-3.000000 I-1.441429 J-6.294285
G03 X4.685816 Y25.258600 Z-3.000000 I-0.914407 J-8.783679
G01 X4.685816 Y25.258600 Z-3.000000
G00 Z10.000000
M05 (Turn spray off)
 
(End cutting path id: text4387)


(Start cutting path id: text4387)
(Change tool to Graffiti)
(Add G00 here to change sprayer if needed)
G00 Z10.000000
G00 X4.685816 Y25.258600
M03 S1(Turn spray on)
 
G01 Z-4.000000 F100.0(Penetrate)
G03 X3.328815 Y25.059828 Z-4.000000 I0.000000 J-4.731463 F400.000000
G03 X2.336092 Y24.555285 Z-4.000000 I0.895269 J-2.990402
G03 X1.647564 Y23.739523 Z-4.000000 I1.443974 J-1.917208
G03 X1.410051 Y22.762114 Z-4.000000 I1.892356 J-0.977409
G03 X1.565692 Y21.868401 Z-4.000000 I2.643743 J-0.000000
G03 X1.967123 Y21.209758 Z-4.000000 I1.804545 J0.648182
G03 X2.601009 Y20.745694 Z-4.000000 I1.600544 J1.521300
G03 X3.689496 Y20.371567 Z-4.000000 I2.069393 J4.250210
G03 X4.265077 Y20.261581 Z-4.000000 I4.683556 J22.949057
G03 X4.773666 Y20.178297 Z-4.000000 I3.231502 J18.139194
G02 X5.286439 Y20.088616 Z-4.000000 I-1.436928 J-9.726846
G02 X5.728645 Y19.985027 Z-4.000000 I-1.477076 J-7.301029
G02 X6.278286 Y19.778795 Z-4.000000 I-0.731340 J-2.784702
G02 X6.590090 Y19.557146 Z-4.000000 I-0.544652 J-1.096323
G02 X6.788472 Y19.244059 Z-4.000000 I-0.536525 J-0.559354
G02 X6.876894 Y18.701902 Z-4.000000 I-1.617896 J-0.542157
G02 X6.722567 Y18.110505 Z-4.000000 I-1.210307 J0.000000
G02 X6.273314 Y17.623933 Z-4.000000 I-1.240684 J0.694841
G02 X5.637913 Y17.343233 Z-4.000000 I-1.094396 J1.617804
G02 X4.597967 Y17.219306 Z-4.000000 I-1.039946 J4.301448
G02 X3.847471 Y17.287479 Z-4.000000 I0.000000 J4.165095
G02 X2.968611 Y17.517997 Z-4.000000 I1.087587 J5.937088
G02 X2.141079 Y17.887311 Z-4.000000 I1.681366 J4.879269
G02 X1.439507 Y18.368073 Z-4.000000 I2.223757 J3.997392
G01 X1.357342 Y18.368073 Z-4.000000
G01 X1.357342 Y16.914933 Z-4.000000
G03 X2.148875 Y16.604940 Z-4.000000 I3.896157 J8.782886
G03 X2.886962 Y16.393003 Z-4.000000 I2.512284 J7.358025
G03 X3.648328 Y16.265638 Z-4.000000 I1.394205 J5.994989
G03 X4.586081 Y16.217301 Z-4.000000 I0.937753 J9.072215
G03 X5.455041 Y16.278033 Z-4.000000 I0.000000 J6.247030
G03 X6.086246 Y16.428142 Z-4.000000 I-0.481138 J3.425317
G03 X6.686643 Y16.687612 Z-4.000000 I-1.252362 J3.722267
G03 X7.181785 Y17.014151 Z-4.000000 I-1.527429 J2.854758
G03 X7.560421 Y17.398402 Z-4.000000 I-1.503346 J1.860056
G03 X7.843759 Y17.858028 Z-4.000000 I-1.890899 J1.482797
G03 X8.025669 Y18.369349 Z-4.000000 I-2.275257 J1.097476
G03 X8.084054 Y18.865716 Z-4.000000 I-2.080775 J0.496368
G03 X7.939756 Y19.746024 Z-4.000000 I-2.757356 J0.000000
G03 X7.592095 Y20.325056 Z-4.000000 I-1.494657 J-0.503532
G03 X7.040058 Y20.746065 Z-4.000000 I-1.558031 J-1.470496
G03 X6.127070 Y21.104337 Z-4.000000 I-2.009391 J-3.778129
G03 X5.644042 Y21.215643 Z-4.000000 I-2.537903 J-9.909878
G03 X4.955050 Y21.344631 Z-4.000000 I-4.098528 J-19.987645
G02 X4.264974 Y21.467429 Z-4.000000 I7.136467 J42.104500
G02 X3.888967 Y21.543585 Z-4.000000 I2.264992 J12.149451
G02 X3.220869 Y21.777544 Z-4.000000 I0.730604 J3.157220
G02 X2.898331 Y22.017974 Z-4.000000 I0.449658 J0.939777
G02 X2.699320 Y22.360332 Z-4.000000 I0.706061 J0.639451
G02 X2.617212 Y22.873736 Z-4.000000 I1.564045 J0.513404
G02 X2.758061 Y23.408945 Z-4.000000 I1.087285 J0.000000
G02 X3.179967 Y23.869539 Z-4.000000 I1.208349 J-0.683322
G02 X3.783202 Y24.142662 Z-4.000000 I1.086297 J-1.596524
G02 X4.679615 Y24.256595 Z-4.000000 I0.896413 J-3.469487
G02 X5.517353 Y24.186125 Z-4.000000 I-0.000000 J-5.014728
G02 X6.337910 Y23.975475 Z-4.000000 I-0.848970 J-5.010547
G02 X7.117931 Y23.638873 Z-4.000000 I-1.674882 J-4.953355
G02 X7.650490 Y23.277844 Z-4.000000 I-1.413783 J-2.658796
G01 X7.732655 Y23.277844 Z-4.000000
G01 X7.732655 Y24.648818 Z-4.000000
G03 X7.130451 Y24.875547 Z-4.000000 I-2.532126 J-5.812345
G03 X6.373050 Y25.082901 Z-4.000000 I-2.840284 J-8.887762
G03 X5.600224 Y25.211132 Z-4.000000 I-1.441429 J-6.294285
G03 X4.685816 Y25.258600 Z-4.000000 I-0.914407 J-8.783679
G01 X4.685816 Y25.258600 Z-4.000000
G00 Z10.000000
M05 (Turn spray off)
 
(End cutting path id: text4387)


(Start cutting path id: text4387)
(Change tool to Graffiti)
(Add G00 here to change sprayer if needed)
G00 Z10.000000
G00 X4.685816 Y25.258600
M03 S1(Turn spray on)
 
G01 Z-5.000000 F100.0(Penetrate)
G03 X3.328815 Y25.059828 Z-5.000000 I0.000000 J-4.731463 F400.000000
G03 X2.336092 Y24.555285 Z-5.000000 I0.895269 J-2.990402
G03 X1.647564 Y23.739523 Z-5.000000 I1.443974 J-1.917208
G03 X1.410051 Y22.762114 Z-5.000000 I1.892356 J-0.977409
G03 X1.565692 Y21.868401 Z-5.000000 I2.643743 J-0.000000
G03 X1.967123 Y21.209758 Z-5.000000 I1.804545 J0.648182
G03 X2.601009 Y20.745694 Z-5.000000 I1.600544 J1.521300
G03 X3.689496 Y20.371567 Z-5.000000 I2.069393 J4.250210
G03 X4.265077 Y20.261581 Z-5.000000 I4.683556 J22.949057
G03 X4.773666 Y20.178297 Z-5.000000 I3.231502 J18.139194
G02 X5.286439 Y20.088616 Z-5.000000 I-1.436928 J-9.726846
G02 X5.728645 Y19.985027 Z-5.000000 I-1.477076 J-7.301029
G02 X6.278286 Y19.778795 Z-5.000000 I-0.731340 J-2.784702
G02 X6.590090 Y19.557146 Z-5.000000 I-0.544652 J-1.096323
G02 X6.788472 Y19.244059 Z-5.000000 I-0.536525 J-0.559354
G02 X6.876894 Y18.701902 Z-5.000000 I-1.617896 J-0.542157
G02 X6.722567 Y18.110505 Z-5.000000 I-1.210307 J0.000000
G02 X6.273314 Y17.623933 Z-5.000000 I-1.240684 J0.694841
G02 X5.637913 Y17.343233 Z-5.000000 I-1.094396 J1.617804
G02 X4.597967 Y17.219306 Z-5.000000 I-1.039946 J4.301448
G02 X3.847471 Y17.287479 Z-5.000000 I0.000000 J4.165095
G02 X2.968611 Y17.517997 Z-5.000000 I1.087587 J5.937088
G02 X2.141079 Y17.887311 Z-5.000000 I1.681366 J4.879269
G02 X1.439507 Y18.368073 Z-5.000000 I2.223757 J3.997392
G01 X1.357342 Y18.368073 Z-5.000000
G01 X1.357342 Y16.914933 Z-5.000000
G03 X2.148875 Y16.604940 Z-5.000000 I3.896157 J8.782886
G03 X2.886962 Y16.393003 Z-5.000000 I2.512284 J7.358025
G03 X3.648328 Y16.265638 Z-5.000000 I1.394205 J5.994989
G03 X4.586081 Y16.217301 Z-5.000000 I0.937753 J9.072215
G03 X5.455041 Y16.278033 Z-5.000000 I0.000000 J6.247030
G03 X6.086246 Y16.428142 Z-5.000000 I-0.481138 J3.425317
G03 X6.686643 Y16.687612 Z-5.000000 I-1.252362 J3.722267
G03 X7.181785 Y17.014151 Z-5.000000 I-1.527429 J2.854758
G03 X7.560421 Y17.398402 Z-5.000000 I-1.503346 J1.860056
G03 X7.843759 Y17.858028 Z-5.000000 I-1.890899 J1.482797
G03 X8.025669 Y18.369349 Z-5.000000 I-2.275257 J1.097476
G03 X8.084054 Y18.865716 Z-5.000000 I-2.080775 J0.496368
G03 X7.939756 Y19.746024 Z-5.000000 I-2.757356 J0.000000
G03 X7.592095 Y20.325056 Z-5.000000 I-1.494657 J-0.503532
G03 X7.040058 Y20.746065 Z-5.000000 I-1.558031 J-1.470496
G03 X6.127070 Y21.104337 Z-5.000000 I-2.009391 J-3.778129
G03 X5.644042 Y21.215643 Z-5.000000 I-2.537903 J-9.909878
G03 X4.955050 Y21.344631 Z-5.000000 I-4.098528 J-19.987645
G02 X4.264974 Y21.467429 Z-5.000000 I7.136467 J42.104500
G02 X3.888967 Y21.543585 Z-5.000000 I2.264992 J12.149451
G02 X3.220869 Y21.777544 Z-5.000000 I0.730604 J3.157220
G02 X2.898331 Y22.017974 Z-5.000000 I0.449658 J0.939777
G02 X2.699320 Y22.360332 Z-5.000000 I0.706061 J0.639451
G02 X2.617212 Y22.873736 Z-5.000000 I1.564045 J0.513404
G02 X2.758061 Y23.408945 Z-5.000000 I1.087285 J0.000000
G02 X3.179967 Y23.869539 Z-5.000000 I1.208349 J-0.683322
G02 X3.783202 Y24.142662 Z-5.000000 I1.086297 J-1.596524
G02 X4.679615 Y24.256595 Z-5.000000 I0.896413 J-3.469487
G02 X5.517353 Y24.186125 Z-5.000000 I-0.000000 J-5.014728
G02 X6.337910 Y23.975475 Z-5.000000 I-0.848970 J-5.010547
G02 X7.117931 Y23.638873 Z-5.000000 I-1.674882 J-4.953355
G02 X7.650490 Y23.277844 Z-5.000000 I-1.413783 J-2.658796
G01 X7.732655 Y23.277844 Z-5.000000
G01 X7.732655 Y24.648818 Z-5.000000
G03 X7.130451 Y24.875547 Z-5.000000 I-2.532126 J-5.812345
G03 X6.373050 Y25.082901 Z-5.000000 I-2.840284 J-8.887762
G03 X5.600224 Y25.211132 Z-5.000000 I-1.441429 J-6.294285
G03 X4.685816 Y25.258600 Z-5.000000 I-0.914407 J-8.783679
G01 X4.685816 Y25.258600 Z-5.000000
G00 Z10.000000
M05 (Turn spray off)
 
(End cutting path id: text4387)


(Start cutting path id: text4387)
(Change tool to Graffiti)
(Add G00 here to change sprayer if needed)
G00 Z10.000000
G00 X9.578018 Y25.100469
M03 S1(Turn spray on)
 
G01 Z-1.000000 F100.0(Penetrate)
G01 X9.578018 Y24.209571 Z-1.000000 F400.000000
G01 X10.720583 Y24.209571 Z-1.000000
G01 X10.720583 Y17.266333 Z-1.000000
G01 X9.578018 Y17.266333 Z-1.000000
G01 X9.578018 Y16.375432 Z-1.000000
G01 X13.023282 Y16.375432 Z-1.000000
G01 X13.023282 Y17.266333 Z-1.000000
G01 X11.880717 Y17.266333 Z-1.000000
G01 X11.880717 Y24.209571 Z-1.000000
G01 X13.023282 Y24.209571 Z-1.000000
G01 X13.023282 Y25.100469 Z-1.000000
G01 X9.578018 Y25.100469 Z-1.000000
G00 Z10.000000
M05 (Turn spray off)
 
(End cutting path id: text4387)


(Start cutting path id: text4387)
(Change tool to Graffiti)
(Add G00 here to change sprayer if needed)
G00 Z10.000000
G00 X9.578018 Y25.100469
M03 S1(Turn spray on)
 
G01 Z-2.000000 F100.0(Penetrate)
G01 X9.578018 Y24.209571 Z-2.000000 F400.000000
G01 X10.720583 Y24.209571 Z-2.000000
G01 X10.720583 Y17.266333 Z-2.000000
G01 X9.578018 Y17.266333 Z-2.000000
G01 X9.578018 Y16.375432 Z-2.000000
G01 X13.023282 Y16.375432 Z-2.000000
G01 X13.023282 Y17.266333 Z-2.000000
G01 X11.880717 Y17.266333 Z-2.000000
G01 X11.880717 Y24.209571 Z-2.000000
G01 X13.023282 Y24.209571 Z-2.000000
G01 X13.023282 Y25.100469 Z-2.000000
G01 X9.578018 Y25.100469 Z-2.000000
G00 Z10.000000
M05 (Turn spray off)
 
(End cutting path id: text4387)


(Start cutting path id: text4387)
(Change tool to Graffiti)
(Add G00 here to change sprayer if needed)
G00 Z10.000000
G00 X9.578018 Y25.100469
M03 S1(Turn spray on)
 
G01 Z-3.000000 F100.0(Penetrate)
G01 X9.578018 Y24.209571 Z-3.000000 F400.000000
G01 X10.720583 Y24.209571 Z-3.000000
G01 X10.720583 Y17.266333 Z-3.000000
G01 X9.578018 Y17.266333 Z-3.000000
G01 X9.578018 Y16.375432 Z-3.000000
G01 X13.023282 Y16.375432 Z-3.000000
G01 X13.023282 Y17.266333 Z-3.000000
G01 X11.880717 Y17.266333 Z-3.000000
G01 X11.880717 Y24.209571 Z-3.000000
G01 X13.023282 Y24.209571 Z-3.000000
G01 X13.023282 Y25.100469 Z-3.000000
G01 X9.578018 Y25.100469 Z-3.000000
G00 Z10.000000
M05 (Turn spray off)
 
(End cutting path id: text4387)


(Start cutting path id: text4387)
(Change tool to Graffiti)
(Add G00 here to change sprayer if needed)
G00 Z10.000000
G00 X9.578018 Y25.100469
M03 S1(Turn spray on)
 
G01 Z-4.000000 F100.0(Penetrate)
G01 X9.578018 Y24.209571 Z-4.000000 F400.000000
G01 X10.720583 Y24.209571 Z-4.000000
G01 X10.720583 Y17.266333 Z-4.000000
G01 X9.578018 Y17.266333 Z-4.000000
G01 X9.578018 Y16.375432 Z-4.000000
G01 X13.023282 Y16.375432 Z-4.000000
G01 X13.023282 Y17.266333 Z-4.000000
G01 X11.880717 Y17.266333 Z-4.000000
G01 X11.880717 Y24.209571 Z-4.000000
G01 X13.023282 Y24.209571 Z-4.000000
G01 X13.023282 Y25.100469 Z-4.000000
G01 X9.578018 Y25.100469 Z-4.000000
G00 Z10.000000
M05 (Turn spray off)
 
(End cutting path id: text4387)


(Start cutting path id: text4387)
(Change tool to Graffiti)
(Add G00 here to change sprayer if needed)
G00 Z10.000000
G00 X9.578018 Y25.100469
M03 S1(Turn spray on)
 
G01 Z-5.000000 F100.0(Penetrate)
G01 X9.578018 Y24.209571 Z-5.000000 F400.000000
G01 X10.720583 Y24.209571 Z-5.000000
G01 X10.720583 Y17.266333 Z-5.000000
G01 X9.578018 Y17.266333 Z-5.000000
G01 X9.578018 Y16.375432 Z-5.000000
G01 X13.023282 Y16.375432 Z-5.000000
G01 X13.023282 Y17.266333 Z-5.000000
G01 X11.880717 Y17.266333 Z-5.000000
G01 X11.880717 Y24.209571 Z-5.000000
G01 X13.023282 Y24.209571 Z-5.000000
G01 X13.023282 Y25.100469 Z-5.000000
G01 X9.578018 Y25.100469 Z-5.000000
G00 Z10.000000
M05 (Turn spray off)
 
(End cutting path id: text4387)


(Start cutting path id: text4387)
(Change tool to Graffiti)
(Add G00 here to change sprayer if needed)
G00 Z10.000000
G00 X17.939771 Y25.258600
M03 S1(Turn spray on)
 
G01 Z-1.000000 F100.0(Penetrate)
G03 X16.582770 Y25.059828 Z-1.000000 I-0.000000 J-4.731463 F400.000000
G03 X15.590047 Y24.555285 Z-1.000000 I0.895269 J-2.990402
G03 X14.901519 Y23.739523 Z-1.000000 I1.443974 J-1.917208
G03 X14.664006 Y22.762114 Z-1.000000 I1.892356 J-0.977409
G03 X14.819383 Y21.868408 Z-1.000000 I2.647921 J-0.000001
G03 X15.220561 Y21.209758 Z-1.000000 I1.802119 J0.646152
G03 X15.854641 Y20.745664 Z-1.000000 I1.599877 J1.520666
G03 X16.943451 Y20.371567 Z-1.000000 I2.070892 J4.255786
G03 X17.519032 Y20.261581 Z-1.000000 I4.683556 J22.949057
G03 X18.027621 Y20.178297 Z-1.000000 I3.231502 J18.139194
G02 X18.540394 Y20.088616 Z-1.000000 I-1.436928 J-9.726846
G02 X18.982600 Y19.985027 Z-1.000000 I-1.477076 J-7.301029
G02 X19.532241 Y19.778795 Z-1.000000 I-0.731340 J-2.784702
G02 X19.844045 Y19.557146 Z-1.000000 I-0.544652 J-1.096323
G02 X20.042427 Y19.244059 Z-1.000000 I-0.536525 J-0.559354
G02 X20.130849 Y18.701902 Z-1.000000 I-1.617896 J-0.542157
G02 X19.976521 Y18.110505 Z-1.000000 I-1.210307 J0.000000
G02 X19.527269 Y17.623933 Z-1.000000 I-1.240684 J0.694841
G02 X18.891671 Y17.343199 Z-1.000000 I-1.094284 J1.617639
G02 X17.851404 Y17.219306 Z-1.000000 I-1.040267 J4.305370
G02 X17.101146 Y17.287500 Z-1.000000 I-0.000000 J4.161234
G02 X16.222565 Y17.517997 Z-1.000000 I1.088728 J5.939568
G02 X15.395034 Y17.887311 Z-1.000000 I1.681365 J4.879268
G02 X14.693462 Y18.368073 Z-1.000000 I2.223758 J3.997393
G01 X14.611296 Y18.368073 Z-1.000000
G01 X14.611296 Y16.914933 Z-1.000000
G03 X15.402829 Y16.604940 Z-1.000000 I3.896153 J8.782876
G03 X16.140917 Y16.393003 Z-1.000000 I2.512285 J7.358026
G03 X16.902283 Y16.265638 Z-1.000000 I1.394205 J5.994989
G03 X17.840036 Y16.217301 Z-1.000000 I0.937753 J9.072215
G03 X18.708696 Y16.278053 Z-1.000000 I0.000000 J6.240686
G03 X19.339684 Y16.428142 Z-1.000000 I-0.481541 J3.425840
G03 X19.940361 Y16.687594 Z-1.000000 I-1.255765 J3.732383
G03 X20.435740 Y17.014151 Z-1.000000 I-1.523626 J2.850317
G03 X20.814376 Y17.398402 Z-1.000000 I-1.503346 J1.860056
G03 X21.097714 Y17.858028 Z-1.000000 I-1.890899 J1.482797
G03 X21.279624 Y18.369349 Z-1.000000 I-2.275257 J1.097476
G03 X21.338009 Y18.865716 Z-1.000000 I-2.080775 J0.496368
G03 X21.193432 Y19.746030 Z-1.000000 I-2.752359 J0.000000
G03 X20.845533 Y20.325056 Z-1.000000 I-1.496706 J-0.505246
G03 X20.293696 Y20.746039 Z-1.000000 I-1.559002 J-1.471413
G03 X19.381025 Y21.104337 Z-1.000000 I-2.007391 J-3.771757
G03 X18.897997 Y21.215643 Z-1.000000 I-2.537903 J-9.909878
G03 X18.209005 Y21.344631 Z-1.000000 I-4.098528 J-19.987645
G02 X17.518594 Y21.467427 Z-1.000000 I7.216633 J42.577477
G02 X17.142405 Y21.543585 Z-1.000000 I2.251256 J12.087497
G02 X16.474652 Y21.777572 Z-1.000000 I0.728958 J3.150107
G02 X16.152286 Y22.017974 Z-1.000000 I0.450314 J0.940186
G02 X15.953274 Y22.360332 Z-1.000000 I0.706061 J0.639451
G02 X15.871166 Y22.873736 Z-1.000000 I1.564045 J0.513404
G02 X16.012016 Y23.408945 Z-1.000000 I1.087285 J-0.000000
G02 X16.433922 Y23.869539 Z-1.000000 I1.208349 J-0.683322
G02 X17.037157 Y24.142662 Z-1.000000 I1.086297 J-1.596524
G02 X17.933570 Y24.256595 Z-1.000000 I0.896413 J-3.469487
G02 X18.771308 Y24.186125 Z-1.000000 I-0.000000 J-5.014728
G02 X19.591865 Y23.975475 Z-1.000000 I-0.848970 J-5.010547
G02 X20.371885 Y23.638873 Z-1.000000 I-1.674882 J-4.953355
G02 X20.904444 Y23.277844 Z-1.000000 I-1.413783 J-2.658796
G01 X20.986610 Y23.277844 Z-1.000000
G01 X20.986610 Y24.648818 Z-1.000000
G03 X20.384405 Y24.875547 Z-1.000000 I-2.532126 J-5.812345
G03 X19.627004 Y25.082901 Z-1.000000 I-2.840284 J-8.887762
G03 X18.854179 Y25.211132 Z-1.000000 I-1.441429 J-6.294285
G03 X17.939771 Y25.258600 Z-1.000000 I-0.914407 J-8.783679
G01 X17.939771 Y25.258600 Z-1.000000
G00 Z10.000000
M05 (Turn spray off)
 
(End cutting path id: text4387)


(Start cutting path id: text4387)
(Change tool to Graffiti)
(Add G00 here to change sprayer if needed)
G00 Z10.000000
G00 X17.939771 Y25.258600
M03 S1(Turn spray on)
 
G01 Z-2.000000 F100.0(Penetrate)
G03 X16.582770 Y25.059828 Z-2.000000 I-0.000000 J-4.731463 F400.000000
G03 X15.590047 Y24.555285 Z-2.000000 I0.895269 J-2.990402
G03 X14.901519 Y23.739523 Z-2.000000 I1.443974 J-1.917208
G03 X14.664006 Y22.762114 Z-2.000000 I1.892356 J-0.977409
G03 X14.819383 Y21.868408 Z-2.000000 I2.647921 J-0.000001
G03 X15.220561 Y21.209758 Z-2.000000 I1.802119 J0.646152
G03 X15.854641 Y20.745664 Z-2.000000 I1.599877 J1.520666
G03 X16.943451 Y20.371567 Z-2.000000 I2.070892 J4.255786
G03 X17.519032 Y20.261581 Z-2.000000 I4.683556 J22.949057
G03 X18.027621 Y20.178297 Z-2.000000 I3.231502 J18.139194
G02 X18.540394 Y20.088616 Z-2.000000 I-1.436928 J-9.726846
G02 X18.982600 Y19.985027 Z-2.000000 I-1.477076 J-7.301029
G02 X19.532241 Y19.778795 Z-2.000000 I-0.731340 J-2.784702
G02 X19.844045 Y19.557146 Z-2.000000 I-0.544652 J-1.096323
G02 X20.042427 Y19.244059 Z-2.000000 I-0.536525 J-0.559354
G02 X20.130849 Y18.701902 Z-2.000000 I-1.617896 J-0.542157
G02 X19.976521 Y18.110505 Z-2.000000 I-1.210307 J0.000000
G02 X19.527269 Y17.623933 Z-2.000000 I-1.240684 J0.694841
G02 X18.891671 Y17.343199 Z-2.000000 I-1.094284 J1.617639
G02 X17.851404 Y17.219306 Z-2.000000 I-1.040267 J4.305370
G02 X17.101146 Y17.287500 Z-2.000000 I-0.000000 J4.161234
G02 X16.222565 Y17.517997 Z-2.000000 I1.088728 J5.939568
G02 X15.395034 Y17.887311 Z-2.000000 I1.681365 J4.879268
G02 X14.693462 Y18.368073 Z-2.000000 I2.223758 J3.997393
G01 X14.611296 Y18.368073 Z-2.000000
G01 X14.611296 Y16.914933 Z-2.000000
G03 X15.402829 Y16.604940 Z-2.000000 I3.896153 J8.782876
G03 X16.140917 Y16.393003 Z-2.000000 I2.512285 J7.358026
G03 X16.902283 Y16.265638 Z-2.000000 I1.394205 J5.994989
G03 X17.840036 Y16.217301 Z-2.000000 I0.937753 J9.072215
G03 X18.708696 Y16.278053 Z-2.000000 I0.000000 J6.240686
G03 X19.339684 Y16.428142 Z-2.000000 I-0.481541 J3.425840
G03 X19.940361 Y16.687594 Z-2.000000 I-1.255765 J3.732383
G03 X20.435740 Y17.014151 Z-2.000000 I-1.523626 J2.850317
G03 X20.814376 Y17.398402 Z-2.000000 I-1.503346 J1.860056
G03 X21.097714 Y17.858028 Z-2.000000 I-1.890899 J1.482797
G03 X21.279624 Y18.369349 Z-2.000000 I-2.275257 J1.097476
G03 X21.338009 Y18.865716 Z-2.000000 I-2.080775 J0.496368
G03 X21.193432 Y19.746030 Z-2.000000 I-2.752359 J0.000000
G03 X20.845533 Y20.325056 Z-2.000000 I-1.496706 J-0.505246
G03 X20.293696 Y20.746039 Z-2.000000 I-1.559002 J-1.471413
G03 X19.381025 Y21.104337 Z-2.000000 I-2.007391 J-3.771757
G03 X18.897997 Y21.215643 Z-2.000000 I-2.537903 J-9.909878
G03 X18.209005 Y21.344631 Z-2.000000 I-4.098528 J-19.987645
G02 X17.518594 Y21.467427 Z-2.000000 I7.216633 J42.577477
G02 X17.142405 Y21.543585 Z-2.000000 I2.251256 J12.087497
G02 X16.474652 Y21.777572 Z-2.000000 I0.728958 J3.150107
G02 X16.152286 Y22.017974 Z-2.000000 I0.450314 J0.940186
G02 X15.953274 Y22.360332 Z-2.000000 I0.706061 J0.639451
G02 X15.871166 Y22.873736 Z-2.000000 I1.564045 J0.513404
G02 X16.012016 Y23.408945 Z-2.000000 I1.087285 J-0.000000
G02 X16.433922 Y23.869539 Z-2.000000 I1.208349 J-0.683322
G02 X17.037157 Y24.142662 Z-2.000000 I1.086297 J-1.596524
G02 X17.933570 Y24.256595 Z-2.000000 I0.896413 J-3.469487
G02 X18.771308 Y24.186125 Z-2.000000 I-0.000000 J-5.014728
G02 X19.591865 Y23.975475 Z-2.000000 I-0.848970 J-5.010547
G02 X20.371885 Y23.638873 Z-2.000000 I-1.674882 J-4.953355
G02 X20.904444 Y23.277844 Z-2.000000 I-1.413783 J-2.658796
G01 X20.986610 Y23.277844 Z-2.000000
G01 X20.986610 Y24.648818 Z-2.000000
G03 X20.384405 Y24.875547 Z-2.000000 I-2.532126 J-5.812345
G03 X19.627004 Y25.082901 Z-2.000000 I-2.840284 J-8.887762
G03 X18.854179 Y25.211132 Z-2.000000 I-1.441429 J-6.294285
G03 X17.939771 Y25.258600 Z-2.000000 I-0.914407 J-8.783679
G01 X17.939771 Y25.258600 Z-2.000000
G00 Z10.000000
M05 (Turn spray off)
 
(End cutting path id: text4387)


(Start cutting path id: text4387)
(Change tool to Graffiti)
(Add G00 here to change sprayer if needed)
G00 Z10.000000
G00 X17.939771 Y25.258600
M03 S1(Turn spray on)
 
G01 Z-3.000000 F100.0(Penetrate)
G03 X16.582770 Y25.059828 Z-3.000000 I-0.000000 J-4.731463 F400.000000
G03 X15.590047 Y24.555285 Z-3.000000 I0.895269 J-2.990402
G03 X14.901519 Y23.739523 Z-3.000000 I1.443974 J-1.917208
G03 X14.664006 Y22.762114 Z-3.000000 I1.892356 J-0.977409
G03 X14.819383 Y21.868408 Z-3.000000 I2.647921 J-0.000001
G03 X15.220561 Y21.209758 Z-3.000000 I1.802119 J0.646152
G03 X15.854641 Y20.745664 Z-3.000000 I1.599877 J1.520666
G03 X16.943451 Y20.371567 Z-3.000000 I2.070892 J4.255786
G03 X17.519032 Y20.261581 Z-3.000000 I4.683556 J22.949057
G03 X18.027621 Y20.178297 Z-3.000000 I3.231502 J18.139194
G02 X18.540394 Y20.088616 Z-3.000000 I-1.436928 J-9.726846
G02 X18.982600 Y19.985027 Z-3.000000 I-1.477076 J-7.301029
G02 X19.532241 Y19.778795 Z-3.000000 I-0.731340 J-2.784702
G02 X19.844045 Y19.557146 Z-3.000000 I-0.544652 J-1.096323
G02 X20.042427 Y19.244059 Z-3.000000 I-0.536525 J-0.559354
G02 X20.130849 Y18.701902 Z-3.000000 I-1.617896 J-0.542157
G02 X19.976521 Y18.110505 Z-3.000000 I-1.210307 J0.000000
G02 X19.527269 Y17.623933 Z-3.000000 I-1.240684 J0.694841
G02 X18.891671 Y17.343199 Z-3.000000 I-1.094284 J1.617639
G02 X17.851404 Y17.219306 Z-3.000000 I-1.040267 J4.305370
G02 X17.101146 Y17.287500 Z-3.000000 I-0.000000 J4.161234
G02 X16.222565 Y17.517997 Z-3.000000 I1.088728 J5.939568
G02 X15.395034 Y17.887311 Z-3.000000 I1.681365 J4.879268
G02 X14.693462 Y18.368073 Z-3.000000 I2.223758 J3.997393
G01 X14.611296 Y18.368073 Z-3.000000
G01 X14.611296 Y16.914933 Z-3.000000
G03 X15.402829 Y16.604940 Z-3.000000 I3.896153 J8.782876
G03 X16.140917 Y16.393003 Z-3.000000 I2.512285 J7.358026
G03 X16.902283 Y16.265638 Z-3.000000 I1.394205 J5.994989
G03 X17.840036 Y16.217301 Z-3.000000 I0.937753 J9.072215
G03 X18.708696 Y16.278053 Z-3.000000 I0.000000 J6.240686
G03 X19.339684 Y16.428142 Z-3.000000 I-0.481541 J3.425840
G03 X19.940361 Y16.687594 Z-3.000000 I-1.255765 J3.732383
G03 X20.435740 Y17.014151 Z-3.000000 I-1.523626 J2.850317
G03 X20.814376 Y17.398402 Z-3.000000 I-1.503346 J1.860056
G03 X21.097714 Y17.858028 Z-3.000000 I-1.890899 J1.482797
G03 X21.279624 Y18.369349 Z-3.000000 I-2.275257 J1.097476
G03 X21.338009 Y18.865716 Z-3.000000 I-2.080775 J0.496368
G03 X21.193432 Y19.746030 Z-3.000000 I-2.752359 J0.000000
G03 X20.845533 Y20.325056 Z-3.000000 I-1.496706 J-0.505246
G03 X20.293696 Y20.746039 Z-3.000000 I-1.559002 J-1.471413
G03 X19.381025 Y21.104337 Z-3.000000 I-2.007391 J-3.771757
G03 X18.897997 Y21.215643 Z-3.000000 I-2.537903 J-9.909878
G03 X18.209005 Y21.344631 Z-3.000000 I-4.098528 J-19.987645
G02 X17.518594 Y21.467427 Z-3.000000 I7.216633 J42.577477
G02 X17.142405 Y21.543585 Z-3.000000 I2.251256 J12.087497
G02 X16.474652 Y21.777572 Z-3.000000 I0.728958 J3.150107
G02 X16.152286 Y22.017974 Z-3.000000 I0.450314 J0.940186
G02 X15.953274 Y22.360332 Z-3.000000 I0.706061 J0.639451
G02 X15.871166 Y22.873736 Z-3.000000 I1.564045 J0.513404
G02 X16.012016 Y23.408945 Z-3.000000 I1.087285 J-0.000000
G02 X16.433922 Y23.869539 Z-3.000000 I1.208349 J-0.683322
G02 X17.037157 Y24.142662 Z-3.000000 I1.086297 J-1.596524
G02 X17.933570 Y24.256595 Z-3.000000 I0.896413 J-3.469487
G02 X18.771308 Y24.186125 Z-3.000000 I-0.000000 J-5.014728
G02 X19.591865 Y23.975475 Z-3.000000 I-0.848970 J-5.010547
G02 X20.371885 Y23.638873 Z-3.000000 I-1.674882 J-4.953355
G02 X20.904444 Y23.277844 Z-3.000000 I-1.413783 J-2.658796
G01 X20.986610 Y23.277844 Z-3.000000
G01 X20.986610 Y24.648818 Z-3.000000
G03 X20.384405 Y24.875547 Z-3.000000 I-2.532126 J-5.812345
G03 X19.627004 Y25.082901 Z-3.000000 I-2.840284 J-8.887762
G03 X18.854179 Y25.211132 Z-3.000000 I-1.441429 J-6.294285
G03 X17.939771 Y25.258600 Z-3.000000 I-0.914407 J-8.783679
G01 X17.939771 Y25.258600 Z-3.000000
G00 Z10.000000
M05 (Turn spray off)
 
(End cutting path id: text4387)


(Start cutting path id: text4387)
(Change tool to Graffiti)
(Add G00 here to change sprayer if needed)
G00 Z10.000000
G00 X17.939771 Y25.258600
M03 S1(Turn spray on)
 
G01 Z-4.000000 F100.0(Penetrate)
G03 X16.582770 Y25.059828 Z-4.000000 I-0.000000 J-4.731463 F400.000000
G03 X15.590047 Y24.555285 Z-4.000000 I0.895269 J-2.990402
G03 X14.901519 Y23.739523 Z-4.000000 I1.443974 J-1.917208
G03 X14.664006 Y22.762114 Z-4.000000 I1.892356 J-0.977409
G03 X14.819383 Y21.868408 Z-4.000000 I2.647921 J-0.000001
G03 X15.220561 Y21.209758 Z-4.000000 I1.802119 J0.646152
G03 X15.854641 Y20.745664 Z-4.000000 I1.599877 J1.520666
G03 X16.943451 Y20.371567 Z-4.000000 I2.070892 J4.255786
G03 X17.519032 Y20.261581 Z-4.000000 I4.683556 J22.949057
G03 X18.027621 Y20.178297 Z-4.000000 I3.231502 J18.139194
G02 X18.540394 Y20.088616 Z-4.000000 I-1.436928 J-9.726846
G02 X18.982600 Y19.985027 Z-4.000000 I-1.477076 J-7.301029
G02 X19.532241 Y19.778795 Z-4.000000 I-0.731340 J-2.784702
G02 X19.844045 Y19.557146 Z-4.000000 I-0.544652 J-1.096323
G02 X20.042427 Y19.244059 Z-4.000000 I-0.536525 J-0.559354
G02 X20.130849 Y18.701902 Z-4.000000 I-1.617896 J-0.542157
G02 X19.976521 Y18.110505 Z-4.000000 I-1.210307 J0.000000
G02 X19.527269 Y17.623933 Z-4.000000 I-1.240684 J0.694841
G02 X18.891671 Y17.343199 Z-4.000000 I-1.094284 J1.617639
G02 X17.851404 Y17.219306 Z-4.000000 I-1.040267 J4.305370
G02 X17.101146 Y17.287500 Z-4.000000 I-0.000000 J4.161234
G02 X16.222565 Y17.517997 Z-4.000000 I1.088728 J5.939568
G02 X15.395034 Y17.887311 Z-4.000000 I1.681365 J4.879268
G02 X14.693462 Y18.368073 Z-4.000000 I2.223758 J3.997393
G01 X14.611296 Y18.368073 Z-4.000000
G01 X14.611296 Y16.914933 Z-4.000000
G03 X15.402829 Y16.604940 Z-4.000000 I3.896153 J8.782876
G03 X16.140917 Y16.393003 Z-4.000000 I2.512285 J7.358026
G03 X16.902283 Y16.265638 Z-4.000000 I1.394205 J5.994989
G03 X17.840036 Y16.217301 Z-4.000000 I0.937753 J9.072215
G03 X18.708696 Y16.278053 Z-4.000000 I0.000000 J6.240686
G03 X19.339684 Y16.428142 Z-4.000000 I-0.481541 J3.425840
G03 X19.940361 Y16.687594 Z-4.000000 I-1.255765 J3.732383
G03 X20.435740 Y17.014151 Z-4.000000 I-1.523626 J2.850317
G03 X20.814376 Y17.398402 Z-4.000000 I-1.503346 J1.860056
G03 X21.097714 Y17.858028 Z-4.000000 I-1.890899 J1.482797
G03 X21.279624 Y18.369349 Z-4.000000 I-2.275257 J1.097476
G03 X21.338009 Y18.865716 Z-4.000000 I-2.080775 J0.496368
G03 X21.193432 Y19.746030 Z-4.000000 I-2.752359 J0.000000
G03 X20.845533 Y20.325056 Z-4.000000 I-1.496706 J-0.505246
G03 X20.293696 Y20.746039 Z-4.000000 I-1.559002 J-1.471413
G03 X19.381025 Y21.104337 Z-4.000000 I-2.007391 J-3.771757
G03 X18.897997 Y21.215643 Z-4.000000 I-2.537903 J-9.909878
G03 X18.209005 Y21.344631 Z-4.000000 I-4.098528 J-19.987645
G02 X17.518594 Y21.467427 Z-4.000000 I7.216633 J42.577477
G02 X17.142405 Y21.543585 Z-4.000000 I2.251256 J12.087497
G02 X16.474652 Y21.777572 Z-4.000000 I0.728958 J3.150107
G02 X16.152286 Y22.017974 Z-4.000000 I0.450314 J0.940186
G02 X15.953274 Y22.360332 Z-4.000000 I0.706061 J0.639451
G02 X15.871166 Y22.873736 Z-4.000000 I1.564045 J0.513404
G02 X16.012016 Y23.408945 Z-4.000000 I1.087285 J-0.000000
G02 X16.433922 Y23.869539 Z-4.000000 I1.208349 J-0.683322
G02 X17.037157 Y24.142662 Z-4.000000 I1.086297 J-1.596524
G02 X17.933570 Y24.256595 Z-4.000000 I0.896413 J-3.469487
G02 X18.771308 Y24.186125 Z-4.000000 I-0.000000 J-5.014728
G02 X19.591865 Y23.975475 Z-4.000000 I-0.848970 J-5.010547
G02 X20.371885 Y23.638873 Z-4.000000 I-1.674882 J-4.953355
G02 X20.904444 Y23.277844 Z-4.000000 I-1.413783 J-2.658796
G01 X20.986610 Y23.277844 Z-4.000000
G01 X20.986610 Y24.648818 Z-4.000000
G03 X20.384405 Y24.875547 Z-4.000000 I-2.532126 J-5.812345
G03 X19.627004 Y25.082901 Z-4.000000 I-2.840284 J-8.887762
G03 X18.854179 Y25.211132 Z-4.000000 I-1.441429 J-6.294285
G03 X17.939771 Y25.258600 Z-4.000000 I-0.914407 J-8.783679
G01 X17.939771 Y25.258600 Z-4.000000
G00 Z10.000000
M05 (Turn spray off)
 
(End cutting path id: text4387)


(Start cutting path id: text4387)
(Change tool to Graffiti)
(Add G00 here to change sprayer if needed)
G00 Z10.000000
G00 X17.939771 Y25.258600
M03 S1(Turn spray on)
 
G01 Z-5.000000 F100.0(Penetrate)
G03 X16.582770 Y25.059828 Z-5.000000 I-0.000000 J-4.731463 F400.000000
G03 X15.590047 Y24.555285 Z-5.000000 I0.895269 J-2.990402
G03 X14.901519 Y23.739523 Z-5.000000 I1.443974 J-1.917208
G03 X14.664006 Y22.762114 Z-5.000000 I1.892356 J-0.977409
G03 X14.819383 Y21.868408 Z-5.000000 I2.647921 J-0.000001
G03 X15.220561 Y21.209758 Z-5.000000 I1.802119 J0.646152
G03 X15.854641 Y20.745664 Z-5.000000 I1.599877 J1.520666
G03 X16.943451 Y20.371567 Z-5.000000 I2.070892 J4.255786
G03 X17.519032 Y20.261581 Z-5.000000 I4.683556 J22.949057
G03 X18.027621 Y20.178297 Z-5.000000 I3.231502 J18.139194
G02 X18.540394 Y20.088616 Z-5.000000 I-1.436928 J-9.726846
G02 X18.982600 Y19.985027 Z-5.000000 I-1.477076 J-7.301029
G02 X19.532241 Y19.778795 Z-5.000000 I-0.731340 J-2.784702
G02 X19.844045 Y19.557146 Z-5.000000 I-0.544652 J-1.096323
G02 X20.042427 Y19.244059 Z-5.000000 I-0.536525 J-0.559354
G02 X20.130849 Y18.701902 Z-5.000000 I-1.617896 J-0.542157
G02 X19.976521 Y18.110505 Z-5.000000 I-1.210307 J0.000000
G02 X19.527269 Y17.623933 Z-5.000000 I-1.240684 J0.694841
G02 X18.891671 Y17.343199 Z-5.000000 I-1.094284 J1.617639
G02 X17.851404 Y17.219306 Z-5.000000 I-1.040267 J4.305370
G02 X17.101146 Y17.287500 Z-5.000000 I-0.000000 J4.161234
G02 X16.222565 Y17.517997 Z-5.000000 I1.088728 J5.939568
G02 X15.395034 Y17.887311 Z-5.000000 I1.681365 J4.879268
G02 X14.693462 Y18.368073 Z-5.000000 I2.223758 J3.997393
G01 X14.611296 Y18.368073 Z-5.000000
G01 X14.611296 Y16.914933 Z-5.000000
G03 X15.402829 Y16.604940 Z-5.000000 I3.896153 J8.782876
G03 X16.140917 Y16.393003 Z-5.000000 I2.512285 J7.358026
G03 X16.902283 Y16.265638 Z-5.000000 I1.394205 J5.994989
G03 X17.840036 Y16.217301 Z-5.000000 I0.937753 J9.072215
G03 X18.708696 Y16.278053 Z-5.000000 I0.000000 J6.240686
G03 X19.339684 Y16.428142 Z-5.000000 I-0.481541 J3.425840
G03 X19.940361 Y16.687594 Z-5.000000 I-1.255765 J3.732383
G03 X20.435740 Y17.014151 Z-5.000000 I-1.523626 J2.850317
G03 X20.814376 Y17.398402 Z-5.000000 I-1.503346 J1.860056
G03 X21.097714 Y17.858028 Z-5.000000 I-1.890899 J1.482797
G03 X21.279624 Y18.369349 Z-5.000000 I-2.275257 J1.097476
G03 X21.338009 Y18.865716 Z-5.000000 I-2.080775 J0.496368
G03 X21.193432 Y19.746030 Z-5.000000 I-2.752359 J0.000000
G03 X20.845533 Y20.325056 Z-5.000000 I-1.496706 J-0.505246
G03 X20.293696 Y20.746039 Z-5.000000 I-1.559002 J-1.471413
G03 X19.381025 Y21.104337 Z-5.000000 I-2.007391 J-3.771757
G03 X18.897997 Y21.215643 Z-5.000000 I-2.537903 J-9.909878
G03 X18.209005 Y21.344631 Z-5.000000 I-4.098528 J-19.987645
G02 X17.518594 Y21.467427 Z-5.000000 I7.216633 J42.577477
G02 X17.142405 Y21.543585 Z-5.000000 I2.251256 J12.087497
G02 X16.474652 Y21.777572 Z-5.000000 I0.728958 J3.150107
G02 X16.152286 Y22.017974 Z-5.000000 I0.450314 J0.940186
G02 X15.953274 Y22.360332 Z-5.000000 I0.706061 J0.639451
G02 X15.871166 Y22.873736 Z-5.000000 I1.564045 J0.513404
G02 X16.012016 Y23.408945 Z-5.000000 I1.087285 J-0.000000
G02 X16.433922 Y23.869539 Z-5.000000 I1.208349 J-0.683322
G02 X17.037157 Y24.142662 Z-5.000000 I1.086297 J-1.596524
G02 X17.933570 Y24.256595 Z-5.000000 I0.896413 J-3.469487
G02 X18.771308 Y24.186125 Z-5.000000 I-0.000000 J-5.014728
G02 X19.591865 Y23.975475 Z-5.000000 I-0.848970 J-5.010547
G02 X20.371885 Y23.638873 Z-5.000000 I-1.674882 J-4.953355
G02 X20.904444 Y23.277844 Z-5.000000 I-1.413783 J-2.658796
G01 X20.986610 Y23.277844 Z-5.000000
G01 X20.986610 Y24.648818 Z-5.000000
G03 X20.384405 Y24.875547 Z-5.000000 I-2.532126 J-5.812345
G03 X19.627004 Y25.082901 Z-5.000000 I-2.840284 J-8.887762
G03 X18.854179 Y25.211132 Z-5.000000 I-1.441429 J-6.294285
G03 X17.939771 Y25.258600 Z-5.000000 I-0.914407 J-8.783679
G01 X17.939771 Y25.258600 Z-5.000000
G00 Z10.000000
M05 (Turn spray off)
 
(End cutting path id: text4387)


(Start cutting path id: text4387)
(Change tool to Graffiti)
(Add G00 here to change sprayer if needed)
G00 Z10.000000
G00 X22.029439 Y25.100469
M03 S1(Turn spray on)
 
G01 Z-1.000000 F100.0(Penetrate)
G01 X22.029439 Y24.069011 Z-1.000000 F400.000000
G01 X25.146557 Y24.069011 Z-1.000000
G01 X25.146557 Y16.375432 Z-1.000000
G01 X26.306691 Y16.375432 Z-1.000000
G01 X26.306691 Y24.069011 Z-1.000000
G01 X29.423809 Y24.069011 Z-1.000000
G01 X29.423809 Y25.100469 Z-1.000000
G01 X22.029439 Y25.100469 Z-1.000000
G00 Z10.000000
M05 (Turn spray off)
 
(End cutting path id: text4387)


(Start cutting path id: text4387)
(Change tool to Graffiti)
(Add G00 here to change sprayer if needed)
G00 Z10.000000
G00 X22.029439 Y25.100469
M03 S1(Turn spray on)
 
G01 Z-2.000000 F100.0(Penetrate)
G01 X22.029439 Y24.069011 Z-2.000000 F400.000000
G01 X25.146557 Y24.069011 Z-2.000000
G01 X25.146557 Y16.375432 Z-2.000000
G01 X26.306691 Y16.375432 Z-2.000000
G01 X26.306691 Y24.069011 Z-2.000000
G01 X29.423809 Y24.069011 Z-2.000000
G01 X29.423809 Y25.100469 Z-2.000000
G01 X22.029439 Y25.100469 Z-2.000000
G00 Z10.000000
M05 (Turn spray off)
 
(End cutting path id: text4387)


(Start cutting path id: text4387)
(Change tool to Graffiti)
(Add G00 here to change sprayer if needed)
G00 Z10.000000
G00 X22.029439 Y25.100469
M03 S1(Turn spray on)
 
G01 Z-3.000000 F100.0(Penetrate)
G01 X22.029439 Y24.069011 Z-3.000000 F400.000000
G01 X25.146557 Y24.069011 Z-3.000000
G01 X25.146557 Y16.375432 Z-3.000000
G01 X26.306691 Y16.375432 Z-3.000000
G01 X26.306691 Y24.069011 Z-3.000000
G01 X29.423809 Y24.069011 Z-3.000000
G01 X29.423809 Y25.100469 Z-3.000000
G01 X22.029439 Y25.100469 Z-3.000000
G00 Z10.000000
M05 (Turn spray off)
 
(End cutting path id: text4387)


(Start cutting path id: text4387)
(Change tool to Graffiti)
(Add G00 here to change sprayer if needed)
G00 Z10.000000
G00 X22.029439 Y25.100469
M03 S1(Turn spray on)
 
G01 Z-4.000000 F100.0(Penetrate)
G01 X22.029439 Y24.069011 Z-4.000000 F400.000000
G01 X25.146557 Y24.069011 Z-4.000000
G01 X25.146557 Y16.375432 Z-4.000000
G01 X26.306691 Y16.375432 Z-4.000000
G01 X26.306691 Y24.069011 Z-4.000000
G01 X29.423809 Y24.069011 Z-4.000000
G01 X29.423809 Y25.100469 Z-4.000000
G01 X22.029439 Y25.100469 Z-4.000000
G00 Z10.000000
M05 (Turn spray off)
 
(End cutting path id: text4387)


(Start cutting path id: text4387)
(Change tool to Graffiti)
(Add G00 here to change sprayer if needed)
G00 Z10.000000
G00 X22.029439 Y25.100469
M03 S1(Turn spray on)
 
G01 Z-5.000000 F100.0(Penetrate)
G01 X22.029439 Y24.069011 Z-5.000000 F400.000000
G01 X25.146557 Y24.069011 Z-5.000000
G01 X25.146557 Y16.375432 Z-5.000000
G01 X26.306691 Y16.375432 Z-5.000000
G01 X26.306691 Y24.069011 Z-5.000000
G01 X29.423809 Y24.069011 Z-5.000000
G01 X29.423809 Y25.100469 Z-5.000000
G01 X22.029439 Y25.100469 Z-5.000000
G00 Z10.000000
M05 (Turn spray off)
 
(End cutting path id: text4387)


(Start cutting path id: text4387)
(Change tool to Graffiti)
(Add G00 here to change sprayer if needed)
G00 Z10.000000
G00 X30.595830 Y25.100469
M03 S1(Turn spray on)
 
G01 Z-1.000000 F100.0(Penetrate)
G01 X30.595830 Y16.375432 Z-1.000000 F400.000000
G01 X36.343792 Y16.375432 Z-1.000000
G01 X36.343792 Y17.406893 Z-1.000000
G01 X31.755965 Y17.406893 Z-1.000000
G01 X31.755965 Y20.647000 Z-1.000000
G01 X36.343792 Y20.647000 Z-1.000000
G01 X36.343792 Y21.678461 Z-1.000000
G01 X31.755965 Y21.678461 Z-1.000000
G01 X31.755965 Y24.069011 Z-1.000000
G01 X36.343792 Y24.069011 Z-1.000000
G01 X36.343792 Y25.100469 Z-1.000000
G01 X30.595830 Y25.100469 Z-1.000000
G00 Z10.000000
M05 (Turn spray off)
 
(End cutting path id: text4387)


(Start cutting path id: text4387)
(Change tool to Graffiti)
(Add G00 here to change sprayer if needed)
G00 Z10.000000
G00 X30.595830 Y25.100469
M03 S1(Turn spray on)
 
G01 Z-2.000000 F100.0(Penetrate)
G01 X30.595830 Y16.375432 Z-2.000000 F400.000000
G01 X36.343792 Y16.375432 Z-2.000000
G01 X36.343792 Y17.406893 Z-2.000000
G01 X31.755965 Y17.406893 Z-2.000000
G01 X31.755965 Y20.647000 Z-2.000000
G01 X36.343792 Y20.647000 Z-2.000000
G01 X36.343792 Y21.678461 Z-2.000000
G01 X31.755965 Y21.678461 Z-2.000000
G01 X31.755965 Y24.069011 Z-2.000000
G01 X36.343792 Y24.069011 Z-2.000000
G01 X36.343792 Y25.100469 Z-2.000000
G01 X30.595830 Y25.100469 Z-2.000000
G00 Z10.000000
M05 (Turn spray off)
 
(End cutting path id: text4387)


(Start cutting path id: text4387)
(Change tool to Graffiti)
(Add G00 here to change sprayer if needed)
G00 Z10.000000
G00 X30.595830 Y25.100469
M03 S1(Turn spray on)
 
G01 Z-3.000000 F100.0(Penetrate)
G01 X30.595830 Y16.375432 Z-3.000000 F400.000000
G01 X36.343792 Y16.375432 Z-3.000000
G01 X36.343792 Y17.406893 Z-3.000000
G01 X31.755965 Y17.406893 Z-3.000000
G01 X31.755965 Y20.647000 Z-3.000000
G01 X36.343792 Y20.647000 Z-3.000000
G01 X36.343792 Y21.678461 Z-3.000000
G01 X31.755965 Y21.678461 Z-3.000000
G01 X31.755965 Y24.069011 Z-3.000000
G01 X36.343792 Y24.069011 Z-3.000000
G01 X36.343792 Y25.100469 Z-3.000000
G01 X30.595830 Y25.100469 Z-3.000000
G00 Z10.000000
M05 (Turn spray off)
 
(End cutting path id: text4387)


(Start cutting path id: text4387)
(Change tool to Graffiti)
(Add G00 here to change sprayer if needed)
G00 Z10.000000
G00 X30.595830 Y25.100469
M03 S1(Turn spray on)
 
G01 Z-4.000000 F100.0(Penetrate)
G01 X30.595830 Y16.375432 Z-4.000000 F400.000000
G01 X36.343792 Y16.375432 Z-4.000000
G01 X36.343792 Y17.406893 Z-4.000000
G01 X31.755965 Y17.406893 Z-4.000000
G01 X31.755965 Y20.647000 Z-4.000000
G01 X36.343792 Y20.647000 Z-4.000000
G01 X36.343792 Y21.678461 Z-4.000000
G01 X31.755965 Y21.678461 Z-4.000000
G01 X31.755965 Y24.069011 Z-4.000000
G01 X36.343792 Y24.069011 Z-4.000000
G01 X36.343792 Y25.100469 Z-4.000000
G01 X30.595830 Y25.100469 Z-4.000000
G00 Z10.000000
M05 (Turn spray off)
 
(End cutting path id: text4387)


(Start cutting path id: text4387)
(Change tool to Graffiti)
(Add G00 here to change sprayer if needed)
G00 Z10.000000
G00 X30.595830 Y25.100469
M03 S1(Turn spray on)
 
G01 Z-5.000000 F100.0(Penetrate)
G01 X30.595830 Y16.375432 Z-5.000000 F400.000000
G01 X36.343792 Y16.375432 Z-5.000000
G01 X36.343792 Y17.406893 Z-5.000000
G01 X31.755965 Y17.406893 Z-5.000000
G01 X31.755965 Y20.647000 Z-5.000000
G01 X36.343792 Y20.647000 Z-5.000000
G01 X36.343792 Y21.678461 Z-5.000000
G01 X31.755965 Y21.678461 Z-5.000000
G01 X31.755965 Y24.069011 Z-5.000000
G01 X36.343792 Y24.069011 Z-5.000000
G01 X36.343792 Y25.100469 Z-5.000000
G01 X30.595830 Y25.100469 Z-5.000000
G00 Z10.000000
M05 (Turn spray off)
 
(End cutting path id: text4387)


(Start cutting path id: text4387)
(Change tool to Graffiti)
(Add G00 here to change sprayer if needed)
G00 Z10.000000
G00 X38.183472 Y25.100469
M03 S1(Turn spray on)
 
G01 Z-1.000000 F100.0(Penetrate)
G01 X38.183472 Y16.375432 Z-1.000000 F400.000000
G01 X39.267641 Y16.375432 Z-1.000000
G01 X39.267641 Y23.893309 Z-1.000000
G01 X41.675759 Y18.777867 Z-1.000000
G01 X42.367191 Y18.777867 Z-1.000000
G01 X44.792877 Y23.893309 Z-1.000000
G01 X44.792877 Y16.375432 Z-1.000000
G01 X45.953013 Y16.375432 Z-1.000000
G01 X45.953013 Y25.100469 Z-1.000000
G01 X44.341745 Y25.100469 Z-1.000000
G01 X42.091755 Y20.242892 Z-1.000000
G01 X39.765800 Y25.100469 Z-1.000000
G01 X38.183472 Y25.100469 Z-1.000000
G00 Z10.000000
M05 (Turn spray off)
 
(End cutting path id: text4387)


(Start cutting path id: text4387)
(Change tool to Graffiti)
(Add G00 here to change sprayer if needed)
G00 Z10.000000
G00 X38.183472 Y25.100469
M03 S1(Turn spray on)
 
G01 Z-2.000000 F100.0(Penetrate)
G01 X38.183472 Y16.375432 Z-2.000000 F400.000000
G01 X39.267641 Y16.375432 Z-2.000000
G01 X39.267641 Y23.893309 Z-2.000000
G01 X41.675759 Y18.777867 Z-2.000000
G01 X42.367191 Y18.777867 Z-2.000000
G01 X44.792877 Y23.893309 Z-2.000000
G01 X44.792877 Y16.375432 Z-2.000000
G01 X45.953013 Y16.375432 Z-2.000000
G01 X45.953013 Y25.100469 Z-2.000000
G01 X44.341745 Y25.100469 Z-2.000000
G01 X42.091755 Y20.242892 Z-2.000000
G01 X39.765800 Y25.100469 Z-2.000000
G01 X38.183472 Y25.100469 Z-2.000000
G00 Z10.000000
M05 (Turn spray off)
 
(End cutting path id: text4387)


(Start cutting path id: text4387)
(Change tool to Graffiti)
(Add G00 here to change sprayer if needed)
G00 Z10.000000
G00 X38.183472 Y25.100469
M03 S1(Turn spray on)
 
G01 Z-3.000000 F100.0(Penetrate)
G01 X38.183472 Y16.375432 Z-3.000000 F400.000000
G01 X39.267641 Y16.375432 Z-3.000000
G01 X39.267641 Y23.893309 Z-3.000000
G01 X41.675759 Y18.777867 Z-3.000000
G01 X42.367191 Y18.777867 Z-3.000000
G01 X44.792877 Y23.893309 Z-3.000000
G01 X44.792877 Y16.375432 Z-3.000000
G01 X45.953013 Y16.375432 Z-3.000000
G01 X45.953013 Y25.100469 Z-3.000000
G01 X44.341745 Y25.100469 Z-3.000000
G01 X42.091755 Y20.242892 Z-3.000000
G01 X39.765800 Y25.100469 Z-3.000000
G01 X38.183472 Y25.100469 Z-3.000000
G00 Z10.000000
M05 (Turn spray off)
 
(End cutting path id: text4387)


(Start cutting path id: text4387)
(Change tool to Graffiti)
(Add G00 here to change sprayer if needed)
G00 Z10.000000
G00 X38.183472 Y25.100469
M03 S1(Turn spray on)
 
G01 Z-4.000000 F100.0(Penetrate)
G01 X38.183472 Y16.375432 Z-4.000000 F400.000000
G01 X39.267641 Y16.375432 Z-4.000000
G01 X39.267641 Y23.893309 Z-4.000000
G01 X41.675759 Y18.777867 Z-4.000000
G01 X42.367191 Y18.777867 Z-4.000000
G01 X44.792877 Y23.893309 Z-4.000000
G01 X44.792877 Y16.375432 Z-4.000000
G01 X45.953013 Y16.375432 Z-4.000000
G01 X45.953013 Y25.100469 Z-4.000000
G01 X44.341745 Y25.100469 Z-4.000000
G01 X42.091755 Y20.242892 Z-4.000000
G01 X39.765800 Y25.100469 Z-4.000000
G01 X38.183472 Y25.100469 Z-4.000000
G00 Z10.000000
M05 (Turn spray off)
 
(End cutting path id: text4387)


(Start cutting path id: text4387)
(Change tool to Graffiti)
(Add G00 here to change sprayer if needed)
G00 Z10.000000
G00 X38.183472 Y25.100469
M03 S1(Turn spray on)
 
G01 Z-5.000000 F100.0(Penetrate)
G01 X38.183472 Y16.375432 Z-5.000000 F400.000000
G01 X39.267641 Y16.375432 Z-5.000000
G01 X39.267641 Y23.893309 Z-5.000000
G01 X41.675759 Y18.777867 Z-5.000000
G01 X42.367191 Y18.777867 Z-5.000000
G01 X44.792877 Y23.893309 Z-5.000000
G01 X44.792877 Y16.375432 Z-5.000000
G01 X45.953013 Y16.375432 Z-5.000000
G01 X45.953013 Y25.100469 Z-5.000000
G01 X44.341745 Y25.100469 Z-5.000000
G01 X42.091755 Y20.242892 Z-5.000000
G01 X39.765800 Y25.100469 Z-5.000000
G01 X38.183472 Y25.100469 Z-5.000000
G00 Z10.000000
M05 (Turn spray off)
 
(End cutting path id: text4387)


(Start cutting path id: text4387)
(Change tool to Graffiti)
(Add G00 here to change sprayer if needed)
G00 Z10.000000
G00 X50.452990 Y25.100469
M03 S1(Turn spray on)
 
G01 Z-1.000000 F100.0(Penetrate)
G01 X47.277478 Y16.375432 Z-1.000000 F400.000000
G01 X48.455182 Y16.375432 Z-1.000000
G01 X49.310426 Y18.807323 Z-1.000000
G01 X53.083834 Y18.807323 Z-1.000000
G01 X53.939596 Y16.375432 Z-1.000000
G01 X55.175694 Y16.375432 Z-1.000000
G01 X52.000182 Y25.100469 Z-1.000000
G01 X50.452990 Y25.100469 Z-1.000000
G00 Z10.000000
M05 (Turn spray off)
 
(End cutting path id: text4387)


(Start cutting path id: text4387)
(Change tool to Graffiti)
(Add G00 here to change sprayer if needed)
G00 Z10.000000
G00 X50.452990 Y25.100469
M03 S1(Turn spray on)
 
G01 Z-2.000000 F100.0(Penetrate)
G01 X47.277478 Y16.375432 Z-2.000000 F400.000000
G01 X48.455182 Y16.375432 Z-2.000000
G01 X49.310426 Y18.807323 Z-2.000000
G01 X53.083834 Y18.807323 Z-2.000000
G01 X53.939596 Y16.375432 Z-2.000000
G01 X55.175694 Y16.375432 Z-2.000000
G01 X52.000182 Y25.100469 Z-2.000000
G01 X50.452990 Y25.100469 Z-2.000000
G00 Z10.000000
M05 (Turn spray off)
 
(End cutting path id: text4387)


(Start cutting path id: text4387)
(Change tool to Graffiti)
(Add G00 here to change sprayer if needed)
G00 Z10.000000
G00 X50.452990 Y25.100469
M03 S1(Turn spray on)
 
G01 Z-3.000000 F100.0(Penetrate)
G01 X47.277478 Y16.375432 Z-3.000000 F400.000000
G01 X48.455182 Y16.375432 Z-3.000000
G01 X49.310426 Y18.807323 Z-3.000000
G01 X53.083834 Y18.807323 Z-3.000000
G01 X53.939596 Y16.375432 Z-3.000000
G01 X55.175694 Y16.375432 Z-3.000000
G01 X52.000182 Y25.100469 Z-3.000000
G01 X50.452990 Y25.100469 Z-3.000000
G00 Z10.000000
M05 (Turn spray off)
 
(End cutting path id: text4387)


(Start cutting path id: text4387)
(Change tool to Graffiti)
(Add G00 here to change sprayer if needed)
G00 Z10.000000
G00 X50.452990 Y25.100469
M03 S1(Turn spray on)
 
G01 Z-4.000000 F100.0(Penetrate)
G01 X47.277478 Y16.375432 Z-4.000000 F400.000000
G01 X48.455182 Y16.375432 Z-4.000000
G01 X49.310426 Y18.807323 Z-4.000000
G01 X53.083834 Y18.807323 Z-4.000000
G01 X53.939596 Y16.375432 Z-4.000000
G01 X55.175694 Y16.375432 Z-4.000000
G01 X52.000182 Y25.100469 Z-4.000000
G01 X50.452990 Y25.100469 Z-4.000000
G00 Z10.000000
M05 (Turn spray off)
 
(End cutting path id: text4387)


(Start cutting path id: text4387)
(Change tool to Graffiti)
(Add G00 here to change sprayer if needed)
G00 Z10.000000
G00 X50.452990 Y25.100469
M03 S1(Turn spray on)
 
G01 Z-5.000000 F100.0(Penetrate)
G01 X47.277478 Y16.375432 Z-5.000000 F400.000000
G01 X48.455182 Y16.375432 Z-5.000000
G01 X49.310426 Y18.807323 Z-5.000000
G01 X53.083834 Y18.807323 Z-5.000000
G01 X53.939596 Y16.375432 Z-5.000000
G01 X55.175694 Y16.375432 Z-5.000000
G01 X52.000182 Y25.100469 Z-5.000000
G01 X50.452990 Y25.100469 Z-5.000000
G00 Z10.000000
M05 (Turn spray off)
 
(End cutting path id: text4387)


(Start cutting path id: text4387)
(Change tool to Graffiti)
(Add G00 here to change sprayer if needed)
G00 Z10.000000
G00 X51.197130 Y24.086579
M03 S1(Turn spray on)
 
G01 Z-1.000000 F100.0(Penetrate)
G01 X52.726750 Y19.803126 Z-1.000000 F400.000000
G01 X49.662342 Y19.803126 Z-1.000000
G01 X51.197130 Y24.086579 Z-1.000000
G00 Z10.000000
M05 (Turn spray off)
 
(End cutting path id: text4387)


(Start cutting path id: text4387)
(Change tool to Graffiti)
(Add G00 here to change sprayer if needed)
G00 Z10.000000
G00 X51.197130 Y24.086579
M03 S1(Turn spray on)
 
G01 Z-2.000000 F100.0(Penetrate)
G01 X52.726750 Y19.803126 Z-2.000000 F400.000000
G01 X49.662342 Y19.803126 Z-2.000000
G01 X51.197130 Y24.086579 Z-2.000000
G00 Z10.000000
M05 (Turn spray off)
 
(End cutting path id: text4387)


(Start cutting path id: text4387)
(Change tool to Graffiti)
(Add G00 here to change sprayer if needed)
G00 Z10.000000
G00 X51.197130 Y24.086579
M03 S1(Turn spray on)
 
G01 Z-3.000000 F100.0(Penetrate)
G01 X52.726750 Y19.803126 Z-3.000000 F400.000000
G01 X49.662342 Y19.803126 Z-3.000000
G01 X51.197130 Y24.086579 Z-3.000000
G00 Z10.000000
M05 (Turn spray off)
 
(End cutting path id: text4387)


(Start cutting path id: text4387)
(Change tool to Graffiti)
(Add G00 here to change sprayer if needed)
G00 Z10.000000
G00 X51.197130 Y24.086579
M03 S1(Turn spray on)
 
G01 Z-4.000000 F100.0(Penetrate)
G01 X52.726750 Y19.803126 Z-4.000000 F400.000000
G01 X49.662342 Y19.803126 Z-4.000000
G01 X51.197130 Y24.086579 Z-4.000000
G00 Z10.000000
M05 (Turn spray off)
 
(End cutting path id: text4387)


(Start cutting path id: text4387)
(Change tool to Graffiti)
(Add G00 here to change sprayer if needed)
G00 Z10.000000
G00 X51.197130 Y24.086579
M03 S1(Turn spray on)
 
G01 Z-5.000000 F100.0(Penetrate)
G01 X52.726750 Y19.803126 Z-5.000000 F400.000000
G01 X49.662342 Y19.803126 Z-5.000000
G01 X51.197130 Y24.086579 Z-5.000000
G00 Z10.000000
M05 (Turn spray off)
 
(End cutting path id: text4387)


(Start cutting path id: text4387)
(Change tool to Graffiti)
(Add G00 here to change sprayer if needed)
G00 Z10.000000
G00 X59.382667 Y25.258600
M03 S1(Turn spray on)
 
G01 Z-1.000000 F100.0(Penetrate)
G03 X58.025964 Y25.059790 Z-1.000000 I-0.000000 J-4.728566 F400.000000
G03 X57.033461 Y24.555285 Z-1.000000 I0.895737 J-2.990685
G03 X56.344932 Y23.739523 Z-1.000000 I1.443968 J-1.917204
G03 X56.107420 Y22.762114 Z-1.000000 I1.892359 J-0.977409
G03 X56.262796 Y21.868408 Z-1.000000 I2.647939 J-0.000000
G03 X56.663973 Y21.209758 Z-1.000000 I1.802108 J0.646144
G03 X57.298053 Y20.745665 Z-1.000000 I1.599874 J1.520661
G03 X58.386863 Y20.371567 Z-1.000000 I2.070893 J4.255786
G03 X58.962172 Y20.261584 Z-1.000000 I4.712422 J23.090518
G03 X59.470516 Y20.178297 Z-1.000000 I3.214173 J18.024743
G02 X59.983569 Y20.088623 Z-1.000000 I-1.443373 J-9.770539
G02 X60.426013 Y19.985027 Z-1.000000 I-1.471220 J-7.279947
G02 X60.975329 Y19.778770 Z-1.000000 I-0.729290 J-2.776909
G02 X61.286942 Y19.557146 Z-1.000000 I-0.545737 J-1.097211
G02 X61.485548 Y19.244066 Z-1.000000 I-0.537840 J-0.560721
G02 X61.574263 Y18.701902 Z-1.000000 I-1.612311 J-0.542164
G02 X61.419935 Y18.110504 Z-1.000000 I-1.210304 J-0.000000
G02 X60.970683 Y17.623933 Z-1.000000 I-1.240692 J0.694849
G02 X60.335083 Y17.343198 Z-1.000000 I-1.094289 J1.617651
G02 X59.294817 Y17.219306 Z-1.000000 I-1.040266 J4.305372
G02 X58.544560 Y17.287500 Z-1.000000 I-0.000000 J4.161230
G02 X57.665978 Y17.517997 Z-1.000000 I1.088731 J5.939585
G02 X56.838446 Y17.887311 Z-1.000000 I1.681358 J4.879254
G02 X56.136873 Y18.368073 Z-1.000000 I2.223776 J3.997424
G01 X56.054710 Y18.368073 Z-1.000000
G01 X56.054710 Y16.914933 Z-1.000000
G03 X56.845975 Y16.604951 Z-1.000000 I3.904088 J8.800759
G03 X57.583812 Y16.393003 Z-1.000000 I2.507798 J7.339927
G03 X58.345412 Y16.265624 Z-1.000000 I1.393939 J5.993858
G03 X59.283448 Y16.217301 Z-1.000000 I0.938036 J9.080474
G03 X60.152109 Y16.278053 Z-1.000000 I-0.000000 J6.240687
G03 X60.783096 Y16.428142 Z-1.000000 I-0.481542 J3.425844
G03 X61.383774 Y16.687594 Z-1.000000 I-1.255781 J3.732423
G03 X61.879153 Y17.014151 Z-1.000000 I-1.523609 J2.850291
G03 X62.257788 Y17.398402 Z-1.000000 I-1.503366 J1.860072
G03 X62.541126 Y17.858028 Z-1.000000 I-1.890889 J1.482791
G03 X62.723038 Y18.369349 Z-1.000000 I-2.275229 J1.097474
G03 X62.781423 Y18.865716 Z-1.000000 I-2.080762 J0.496368
G03 X62.636845 Y19.746030 Z-1.000000 I-2.752344 J0.000000
G03 X62.288947 Y20.325056 Z-1.000000 I-1.496719 J-0.505253
G03 X61.737109 Y20.746039 Z-1.000000 I-1.559008 J-1.471422
G03 X60.824438 Y21.104337 Z-1.000000 I-2.007387 J-3.771746
G03 X60.341410 Y21.215643 Z-1.000000 I-2.537917 J-9.909941
G03 X59.652417 Y21.344631 Z-1.000000 I-4.098464 J-19.987321
G02 X58.962009 Y21.467427 Z-1.000000 I7.216714 J42.577830
G02 X58.585817 Y21.543585 Z-1.000000 I2.251440 J12.088463
G02 X57.918066 Y21.777572 Z-1.000000 I0.728959 J3.150101
G02 X57.595699 Y22.017974 Z-1.000000 I0.450315 J0.940188
G02 X57.396688 Y22.360332 Z-1.000000 I0.706063 J0.639452
G02 X57.314580 Y22.873736 Z-1.000000 I1.564043 J0.513404
G02 X57.455213 Y23.408930 Z-1.000000 I1.088686 J0.000000
G02 X57.876819 Y23.869539 Z-1.000000 I1.206536 J-0.681113
G02 X58.480261 Y24.142697 Z-1.000000 I1.086118 J-1.596257
G02 X59.376983 Y24.256595 Z-1.000000 I0.896722 J-3.473025
G02 X60.214721 Y24.186126 Z-1.000000 I-0.000000 J-5.014733
G02 X61.035278 Y23.975475 Z-1.000000 I-0.848967 J-5.010539
G02 X61.815298 Y23.638874 Z-1.000000 I-1.674881 J-4.953343
G02 X62.347856 Y23.277844 Z-1.000000 I-1.413789 J-2.658803
G01 X62.429506 Y23.277844 Z-1.000000
G01 X62.429506 Y24.648818 Z-1.000000
G03 X61.827531 Y24.875537 Z-1.000000 I-2.536739 J-5.822929
G03 X61.070418 Y25.082901 Z-1.000000 I-2.833876 J-8.861006
G03 X60.297353 Y25.211146 Z-1.000000 I-1.441125 J-6.292975
G03 X59.382667 Y25.258600 Z-1.000000 I-0.914686 J-8.791730
G01 X59.382667 Y25.258600 Z-1.000000
G00 Z10.000000
M05 (Turn spray off)
 
(End cutting path id: text4387)


(Start cutting path id: text4387)
(Change tool to Graffiti)
(Add G00 here to change sprayer if needed)
G00 Z10.000000
G00 X59.382667 Y25.258600
M03 S1(Turn spray on)
 
G01 Z-2.000000 F100.0(Penetrate)
G03 X58.025964 Y25.059790 Z-2.000000 I-0.000000 J-4.728566 F400.000000
G03 X57.033461 Y24.555285 Z-2.000000 I0.895737 J-2.990685
G03 X56.344932 Y23.739523 Z-2.000000 I1.443968 J-1.917204
G03 X56.107420 Y22.762114 Z-2.000000 I1.892359 J-0.977409
G03 X56.262796 Y21.868408 Z-2.000000 I2.647939 J-0.000000
G03 X56.663973 Y21.209758 Z-2.000000 I1.802108 J0.646144
G03 X57.298053 Y20.745665 Z-2.000000 I1.599874 J1.520661
G03 X58.386863 Y20.371567 Z-2.000000 I2.070893 J4.255786
G03 X58.962172 Y20.261584 Z-2.000000 I4.712422 J23.090518
G03 X59.470516 Y20.178297 Z-2.000000 I3.214173 J18.024743
G02 X59.983569 Y20.088623 Z-2.000000 I-1.443373 J-9.770539
G02 X60.426013 Y19.985027 Z-2.000000 I-1.471220 J-7.279947
G02 X60.975329 Y19.778770 Z-2.000000 I-0.729290 J-2.776909
G02 X61.286942 Y19.557146 Z-2.000000 I-0.545737 J-1.097211
G02 X61.485548 Y19.244066 Z-2.000000 I-0.537840 J-0.560721
G02 X61.574263 Y18.701902 Z-2.000000 I-1.612311 J-0.542164
G02 X61.419935 Y18.110504 Z-2.000000 I-1.210304 J-0.000000
G02 X60.970683 Y17.623933 Z-2.000000 I-1.240692 J0.694849
G02 X60.335083 Y17.343198 Z-2.000000 I-1.094289 J1.617651
G02 X59.294817 Y17.219306 Z-2.000000 I-1.040266 J4.305372
G02 X58.544560 Y17.287500 Z-2.000000 I-0.000000 J4.161230
G02 X57.665978 Y17.517997 Z-2.000000 I1.088731 J5.939585
G02 X56.838446 Y17.887311 Z-2.000000 I1.681358 J4.879254
G02 X56.136873 Y18.368073 Z-2.000000 I2.223776 J3.997424
G01 X56.054710 Y18.368073 Z-2.000000
G01 X56.054710 Y16.914933 Z-2.000000
G03 X56.845975 Y16.604951 Z-2.000000 I3.904088 J8.800759
G03 X57.583812 Y16.393003 Z-2.000000 I2.507798 J7.339927
G03 X58.345412 Y16.265624 Z-2.000000 I1.393939 J5.993858
G03 X59.283448 Y16.217301 Z-2.000000 I0.938036 J9.080474
G03 X60.152109 Y16.278053 Z-2.000000 I-0.000000 J6.240687
G03 X60.783096 Y16.428142 Z-2.000000 I-0.481542 J3.425844
G03 X61.383774 Y16.687594 Z-2.000000 I-1.255781 J3.732423
G03 X61.879153 Y17.014151 Z-2.000000 I-1.523609 J2.850291
G03 X62.257788 Y17.398402 Z-2.000000 I-1.503366 J1.860072
G03 X62.541126 Y17.858028 Z-2.000000 I-1.890889 J1.482791
G03 X62.723038 Y18.369349 Z-2.000000 I-2.275229 J1.097474
G03 X62.781423 Y18.865716 Z-2.000000 I-2.080762 J0.496368
G03 X62.636845 Y19.746030 Z-2.000000 I-2.752344 J0.000000
G03 X62.288947 Y20.325056 Z-2.000000 I-1.496719 J-0.505253
G03 X61.737109 Y20.746039 Z-2.000000 I-1.559008 J-1.471422
G03 X60.824438 Y21.104337 Z-2.000000 I-2.007387 J-3.771746
G03 X60.341410 Y21.215643 Z-2.000000 I-2.537917 J-9.909941
G03 X59.652417 Y21.344631 Z-2.000000 I-4.098464 J-19.987321
G02 X58.962009 Y21.467427 Z-2.000000 I7.216714 J42.577830
G02 X58.585817 Y21.543585 Z-2.000000 I2.251440 J12.088463
G02 X57.918066 Y21.777572 Z-2.000000 I0.728959 J3.150101
G02 X57.595699 Y22.017974 Z-2.000000 I0.450315 J0.940188
G02 X57.396688 Y22.360332 Z-2.000000 I0.706063 J0.639452
G02 X57.314580 Y22.873736 Z-2.000000 I1.564043 J0.513404
G02 X57.455213 Y23.408930 Z-2.000000 I1.088686 J0.000000
G02 X57.876819 Y23.869539 Z-2.000000 I1.206536 J-0.681113
G02 X58.480261 Y24.142697 Z-2.000000 I1.086118 J-1.596257
G02 X59.376983 Y24.256595 Z-2.000000 I0.896722 J-3.473025
G02 X60.214721 Y24.186126 Z-2.000000 I-0.000000 J-5.014733
G02 X61.035278 Y23.975475 Z-2.000000 I-0.848967 J-5.010539
G02 X61.815298 Y23.638874 Z-2.000000 I-1.674881 J-4.953343
G02 X62.347856 Y23.277844 Z-2.000000 I-1.413789 J-2.658803
G01 X62.429506 Y23.277844 Z-2.000000
G01 X62.429506 Y24.648818 Z-2.000000
G03 X61.827531 Y24.875537 Z-2.000000 I-2.536739 J-5.822929
G03 X61.070418 Y25.082901 Z-2.000000 I-2.833876 J-8.861006
G03 X60.297353 Y25.211146 Z-2.000000 I-1.441125 J-6.292975
G03 X59.382667 Y25.258600 Z-2.000000 I-0.914686 J-8.791730
G01 X59.382667 Y25.258600 Z-2.000000
G00 Z10.000000
M05 (Turn spray off)
 
(End cutting path id: text4387)


(Start cutting path id: text4387)
(Change tool to Graffiti)
(Add G00 here to change sprayer if needed)
G00 Z10.000000
G00 X59.382667 Y25.258600
M03 S1(Turn spray on)
 
G01 Z-3.000000 F100.0(Penetrate)
G03 X58.025964 Y25.059790 Z-3.000000 I-0.000000 J-4.728566 F400.000000
G03 X57.033461 Y24.555285 Z-3.000000 I0.895737 J-2.990685
G03 X56.344932 Y23.739523 Z-3.000000 I1.443968 J-1.917204
G03 X56.107420 Y22.762114 Z-3.000000 I1.892359 J-0.977409
G03 X56.262796 Y21.868408 Z-3.000000 I2.647939 J-0.000000
G03 X56.663973 Y21.209758 Z-3.000000 I1.802108 J0.646144
G03 X57.298053 Y20.745665 Z-3.000000 I1.599874 J1.520661
G03 X58.386863 Y20.371567 Z-3.000000 I2.070893 J4.255786
G03 X58.962172 Y20.261584 Z-3.000000 I4.712422 J23.090518
G03 X59.470516 Y20.178297 Z-3.000000 I3.214173 J18.024743
G02 X59.983569 Y20.088623 Z-3.000000 I-1.443373 J-9.770539
G02 X60.426013 Y19.985027 Z-3.000000 I-1.471220 J-7.279947
G02 X60.975329 Y19.778770 Z-3.000000 I-0.729290 J-2.776909
G02 X61.286942 Y19.557146 Z-3.000000 I-0.545737 J-1.097211
G02 X61.485548 Y19.244066 Z-3.000000 I-0.537840 J-0.560721
G02 X61.574263 Y18.701902 Z-3.000000 I-1.612311 J-0.542164
G02 X61.419935 Y18.110504 Z-3.000000 I-1.210304 J-0.000000
G02 X60.970683 Y17.623933 Z-3.000000 I-1.240692 J0.694849
G02 X60.335083 Y17.343198 Z-3.000000 I-1.094289 J1.617651
G02 X59.294817 Y17.219306 Z-3.000000 I-1.040266 J4.305372
G02 X58.544560 Y17.287500 Z-3.000000 I-0.000000 J4.161230
G02 X57.665978 Y17.517997 Z-3.000000 I1.088731 J5.939585
G02 X56.838446 Y17.887311 Z-3.000000 I1.681358 J4.879254
G02 X56.136873 Y18.368073 Z-3.000000 I2.223776 J3.997424
G01 X56.054710 Y18.368073 Z-3.000000
G01 X56.054710 Y16.914933 Z-3.000000
G03 X56.845975 Y16.604951 Z-3.000000 I3.904088 J8.800759
G03 X57.583812 Y16.393003 Z-3.000000 I2.507798 J7.339927
G03 X58.345412 Y16.265624 Z-3.000000 I1.393939 J5.993858
G03 X59.283448 Y16.217301 Z-3.000000 I0.938036 J9.080474
G03 X60.152109 Y16.278053 Z-3.000000 I-0.000000 J6.240687
G03 X60.783096 Y16.428142 Z-3.000000 I-0.481542 J3.425844
G03 X61.383774 Y16.687594 Z-3.000000 I-1.255781 J3.732423
G03 X61.879153 Y17.014151 Z-3.000000 I-1.523609 J2.850291
G03 X62.257788 Y17.398402 Z-3.000000 I-1.503366 J1.860072
G03 X62.541126 Y17.858028 Z-3.000000 I-1.890889 J1.482791
G03 X62.723038 Y18.369349 Z-3.000000 I-2.275229 J1.097474
G03 X62.781423 Y18.865716 Z-3.000000 I-2.080762 J0.496368
G03 X62.636845 Y19.746030 Z-3.000000 I-2.752344 J0.000000
G03 X62.288947 Y20.325056 Z-3.000000 I-1.496719 J-0.505253
G03 X61.737109 Y20.746039 Z-3.000000 I-1.559008 J-1.471422
G03 X60.824438 Y21.104337 Z-3.000000 I-2.007387 J-3.771746
G03 X60.341410 Y21.215643 Z-3.000000 I-2.537917 J-9.909941
G03 X59.652417 Y21.344631 Z-3.000000 I-4.098464 J-19.987321
G02 X58.962009 Y21.467427 Z-3.000000 I7.216714 J42.577830
G02 X58.585817 Y21.543585 Z-3.000000 I2.251440 J12.088463
G02 X57.918066 Y21.777572 Z-3.000000 I0.728959 J3.150101
G02 X57.595699 Y22.017974 Z-3.000000 I0.450315 J0.940188
G02 X57.396688 Y22.360332 Z-3.000000 I0.706063 J0.639452
G02 X57.314580 Y22.873736 Z-3.000000 I1.564043 J0.513404
G02 X57.455213 Y23.408930 Z-3.000000 I1.088686 J0.000000
G02 X57.876819 Y23.869539 Z-3.000000 I1.206536 J-0.681113
G02 X58.480261 Y24.142697 Z-3.000000 I1.086118 J-1.596257
G02 X59.376983 Y24.256595 Z-3.000000 I0.896722 J-3.473025
G02 X60.214721 Y24.186126 Z-3.000000 I-0.000000 J-5.014733
G02 X61.035278 Y23.975475 Z-3.000000 I-0.848967 J-5.010539
G02 X61.815298 Y23.638874 Z-3.000000 I-1.674881 J-4.953343
G02 X62.347856 Y23.277844 Z-3.000000 I-1.413789 J-2.658803
G01 X62.429506 Y23.277844 Z-3.000000
G01 X62.429506 Y24.648818 Z-3.000000
G03 X61.827531 Y24.875537 Z-3.000000 I-2.536739 J-5.822929
G03 X61.070418 Y25.082901 Z-3.000000 I-2.833876 J-8.861006
G03 X60.297353 Y25.211146 Z-3.000000 I-1.441125 J-6.292975
G03 X59.382667 Y25.258600 Z-3.000000 I-0.914686 J-8.791730
G01 X59.382667 Y25.258600 Z-3.000000
G00 Z10.000000
M05 (Turn spray off)
 
(End cutting path id: text4387)


(Start cutting path id: text4387)
(Change tool to Graffiti)
(Add G00 here to change sprayer if needed)
G00 Z10.000000
G00 X59.382667 Y25.258600
M03 S1(Turn spray on)
 
G01 Z-4.000000 F100.0(Penetrate)
G03 X58.025964 Y25.059790 Z-4.000000 I-0.000000 J-4.728566 F400.000000
G03 X57.033461 Y24.555285 Z-4.000000 I0.895737 J-2.990685
G03 X56.344932 Y23.739523 Z-4.000000 I1.443968 J-1.917204
G03 X56.107420 Y22.762114 Z-4.000000 I1.892359 J-0.977409
G03 X56.262796 Y21.868408 Z-4.000000 I2.647939 J-0.000000
G03 X56.663973 Y21.209758 Z-4.000000 I1.802108 J0.646144
G03 X57.298053 Y20.745665 Z-4.000000 I1.599874 J1.520661
G03 X58.386863 Y20.371567 Z-4.000000 I2.070893 J4.255786
G03 X58.962172 Y20.261584 Z-4.000000 I4.712422 J23.090518
G03 X59.470516 Y20.178297 Z-4.000000 I3.214173 J18.024743
G02 X59.983569 Y20.088623 Z-4.000000 I-1.443373 J-9.770539
G02 X60.426013 Y19.985027 Z-4.000000 I-1.471220 J-7.279947
G02 X60.975329 Y19.778770 Z-4.000000 I-0.729290 J-2.776909
G02 X61.286942 Y19.557146 Z-4.000000 I-0.545737 J-1.097211
G02 X61.485548 Y19.244066 Z-4.000000 I-0.537840 J-0.560721
G02 X61.574263 Y18.701902 Z-4.000000 I-1.612311 J-0.542164
G02 X61.419935 Y18.110504 Z-4.000000 I-1.210304 J-0.000000
G02 X60.970683 Y17.623933 Z-4.000000 I-1.240692 J0.694849
G02 X60.335083 Y17.343198 Z-4.000000 I-1.094289 J1.617651
G02 X59.294817 Y17.219306 Z-4.000000 I-1.040266 J4.305372
G02 X58.544560 Y17.287500 Z-4.000000 I-0.000000 J4.161230
G02 X57.665978 Y17.517997 Z-4.000000 I1.088731 J5.939585
G02 X56.838446 Y17.887311 Z-4.000000 I1.681358 J4.879254
G02 X56.136873 Y18.368073 Z-4.000000 I2.223776 J3.997424
G01 X56.054710 Y18.368073 Z-4.000000
G01 X56.054710 Y16.914933 Z-4.000000
G03 X56.845975 Y16.604951 Z-4.000000 I3.904088 J8.800759
G03 X57.583812 Y16.393003 Z-4.000000 I2.507798 J7.339927
G03 X58.345412 Y16.265624 Z-4.000000 I1.393939 J5.993858
G03 X59.283448 Y16.217301 Z-4.000000 I0.938036 J9.080474
G03 X60.152109 Y16.278053 Z-4.000000 I-0.000000 J6.240687
G03 X60.783096 Y16.428142 Z-4.000000 I-0.481542 J3.425844
G03 X61.383774 Y16.687594 Z-4.000000 I-1.255781 J3.732423
G03 X61.879153 Y17.014151 Z-4.000000 I-1.523609 J2.850291
G03 X62.257788 Y17.398402 Z-4.000000 I-1.503366 J1.860072
G03 X62.541126 Y17.858028 Z-4.000000 I-1.890889 J1.482791
G03 X62.723038 Y18.369349 Z-4.000000 I-2.275229 J1.097474
G03 X62.781423 Y18.865716 Z-4.000000 I-2.080762 J0.496368
G03 X62.636845 Y19.746030 Z-4.000000 I-2.752344 J0.000000
G03 X62.288947 Y20.325056 Z-4.000000 I-1.496719 J-0.505253
G03 X61.737109 Y20.746039 Z-4.000000 I-1.559008 J-1.471422
G03 X60.824438 Y21.104337 Z-4.000000 I-2.007387 J-3.771746
G03 X60.341410 Y21.215643 Z-4.000000 I-2.537917 J-9.909941
G03 X59.652417 Y21.344631 Z-4.000000 I-4.098464 J-19.987321
G02 X58.962009 Y21.467427 Z-4.000000 I7.216714 J42.577830
G02 X58.585817 Y21.543585 Z-4.000000 I2.251440 J12.088463
G02 X57.918066 Y21.777572 Z-4.000000 I0.728959 J3.150101
G02 X57.595699 Y22.017974 Z-4.000000 I0.450315 J0.940188
G02 X57.396688 Y22.360332 Z-4.000000 I0.706063 J0.639452
G02 X57.314580 Y22.873736 Z-4.000000 I1.564043 J0.513404
G02 X57.455213 Y23.408930 Z-4.000000 I1.088686 J0.000000
G02 X57.876819 Y23.869539 Z-4.000000 I1.206536 J-0.681113
G02 X58.480261 Y24.142697 Z-4.000000 I1.086118 J-1.596257
G02 X59.376983 Y24.256595 Z-4.000000 I0.896722 J-3.473025
G02 X60.214721 Y24.186126 Z-4.000000 I-0.000000 J-5.014733
G02 X61.035278 Y23.975475 Z-4.000000 I-0.848967 J-5.010539
G02 X61.815298 Y23.638874 Z-4.000000 I-1.674881 J-4.953343
G02 X62.347856 Y23.277844 Z-4.000000 I-1.413789 J-2.658803
G01 X62.429506 Y23.277844 Z-4.000000
G01 X62.429506 Y24.648818 Z-4.000000
G03 X61.827531 Y24.875537 Z-4.000000 I-2.536739 J-5.822929
G03 X61.070418 Y25.082901 Z-4.000000 I-2.833876 J-8.861006
G03 X60.297353 Y25.211146 Z-4.000000 I-1.441125 J-6.292975
G03 X59.382667 Y25.258600 Z-4.000000 I-0.914686 J-8.791730
G01 X59.382667 Y25.258600 Z-4.000000
G00 Z10.000000
M05 (Turn spray off)
 
(End cutting path id: text4387)


(Start cutting path id: text4387)
(Change tool to Graffiti)
(Add G00 here to change sprayer if needed)
G00 Z10.000000
G00 X59.382667 Y25.258600
M03 S1(Turn spray on)
 
G01 Z-5.000000 F100.0(Penetrate)
G03 X58.025964 Y25.059790 Z-5.000000 I-0.000000 J-4.728566 F400.000000
G03 X57.033461 Y24.555285 Z-5.000000 I0.895737 J-2.990685
G03 X56.344932 Y23.739523 Z-5.000000 I1.443968 J-1.917204
G03 X56.107420 Y22.762114 Z-5.000000 I1.892359 J-0.977409
G03 X56.262796 Y21.868408 Z-5.000000 I2.647939 J-0.000000
G03 X56.663973 Y21.209758 Z-5.000000 I1.802108 J0.646144
G03 X57.298053 Y20.745665 Z-5.000000 I1.599874 J1.520661
G03 X58.386863 Y20.371567 Z-5.000000 I2.070893 J4.255786
G03 X58.962172 Y20.261584 Z-5.000000 I4.712422 J23.090518
G03 X59.470516 Y20.178297 Z-5.000000 I3.214173 J18.024743
G02 X59.983569 Y20.088623 Z-5.000000 I-1.443373 J-9.770539
G02 X60.426013 Y19.985027 Z-5.000000 I-1.471220 J-7.279947
G02 X60.975329 Y19.778770 Z-5.000000 I-0.729290 J-2.776909
G02 X61.286942 Y19.557146 Z-5.000000 I-0.545737 J-1.097211
G02 X61.485548 Y19.244066 Z-5.000000 I-0.537840 J-0.560721
G02 X61.574263 Y18.701902 Z-5.000000 I-1.612311 J-0.542164
G02 X61.419935 Y18.110504 Z-5.000000 I-1.210304 J-0.000000
G02 X60.970683 Y17.623933 Z-5.000000 I-1.240692 J0.694849
G02 X60.335083 Y17.343198 Z-5.000000 I-1.094289 J1.617651
G02 X59.294817 Y17.219306 Z-5.000000 I-1.040266 J4.305372
G02 X58.544560 Y17.287500 Z-5.000000 I-0.000000 J4.161230
G02 X57.665978 Y17.517997 Z-5.000000 I1.088731 J5.939585
G02 X56.838446 Y17.887311 Z-5.000000 I1.681358 J4.879254
G02 X56.136873 Y18.368073 Z-5.000000 I2.223776 J3.997424
G01 X56.054710 Y18.368073 Z-5.000000
G01 X56.054710 Y16.914933 Z-5.000000
G03 X56.845975 Y16.604951 Z-5.000000 I3.904088 J8.800759
G03 X57.583812 Y16.393003 Z-5.000000 I2.507798 J7.339927
G03 X58.345412 Y16.265624 Z-5.000000 I1.393939 J5.993858
G03 X59.283448 Y16.217301 Z-5.000000 I0.938036 J9.080474
G03 X60.152109 Y16.278053 Z-5.000000 I-0.000000 J6.240687
G03 X60.783096 Y16.428142 Z-5.000000 I-0.481542 J3.425844
G03 X61.383774 Y16.687594 Z-5.000000 I-1.255781 J3.732423
G03 X61.879153 Y17.014151 Z-5.000000 I-1.523609 J2.850291
G03 X62.257788 Y17.398402 Z-5.000000 I-1.503366 J1.860072
G03 X62.541126 Y17.858028 Z-5.000000 I-1.890889 J1.482791
G03 X62.723038 Y18.369349 Z-5.000000 I-2.275229 J1.097474
G03 X62.781423 Y18.865716 Z-5.000000 I-2.080762 J0.496368
G03 X62.636845 Y19.746030 Z-5.000000 I-2.752344 J0.000000
G03 X62.288947 Y20.325056 Z-5.000000 I-1.496719 J-0.505253
G03 X61.737109 Y20.746039 Z-5.000000 I-1.559008 J-1.471422
G03 X60.824438 Y21.104337 Z-5.000000 I-2.007387 J-3.771746
G03 X60.341410 Y21.215643 Z-5.000000 I-2.537917 J-9.909941
G03 X59.652417 Y21.344631 Z-5.000000 I-4.098464 J-19.987321
G02 X58.962009 Y21.467427 Z-5.000000 I7.216714 J42.577830
G02 X58.585817 Y21.543585 Z-5.000000 I2.251440 J12.088463
G02 X57.918066 Y21.777572 Z-5.000000 I0.728959 J3.150101
G02 X57.595699 Y22.017974 Z-5.000000 I0.450315 J0.940188
G02 X57.396688 Y22.360332 Z-5.000000 I0.706063 J0.639452
G02 X57.314580 Y22.873736 Z-5.000000 I1.564043 J0.513404
G02 X57.455213 Y23.408930 Z-5.000000 I1.088686 J0.000000
G02 X57.876819 Y23.869539 Z-5.000000 I1.206536 J-0.681113
G02 X58.480261 Y24.142697 Z-5.000000 I1.086118 J-1.596257
G02 X59.376983 Y24.256595 Z-5.000000 I0.896722 J-3.473025
G02 X60.214721 Y24.186126 Z-5.000000 I-0.000000 J-5.014733
G02 X61.035278 Y23.975475 Z-5.000000 I-0.848967 J-5.010539
G02 X61.815298 Y23.638874 Z-5.000000 I-1.674881 J-4.953343
G02 X62.347856 Y23.277844 Z-5.000000 I-1.413789 J-2.658803
G01 X62.429506 Y23.277844 Z-5.000000
G01 X62.429506 Y24.648818 Z-5.000000
G03 X61.827531 Y24.875537 Z-5.000000 I-2.536739 J-5.822929
G03 X61.070418 Y25.082901 Z-5.000000 I-2.833876 J-8.861006
G03 X60.297353 Y25.211146 Z-5.000000 I-1.441125 J-6.292975
G03 X59.382667 Y25.258600 Z-5.000000 I-0.914686 J-8.791730
G01 X59.382667 Y25.258600 Z-5.000000
G00 Z10.000000
M05 (Turn spray off)
 
(End cutting path id: text4387)


(Start cutting path id: text4387)
(Change tool to Graffiti)
(Add G00 here to change sprayer if needed)
G00 Z10.000000
G00 X61.333966 Y10.281755
M03 S1(Turn spray on)
 
G01 Z-1.000000 F100.0(Penetrate)
G03 X60.447107 Y10.201648 Z-1.000000 I-0.000000 J-4.949246 F400.000000
G03 X59.664305 Y9.977381 Z-1.000000 I0.739224 J-4.058575
G03 X58.954983 Y9.597565 Z-1.000000 I1.347549 J-3.368854
G03 X58.386863 Y9.098365 Z-1.000000 I1.817860 J-2.641708
G03 X57.923205 Y8.451147 Z-1.000000 I2.769362 J-2.473624
G03 X57.566243 Y7.645228 Z-1.000000 I3.950986 J-2.232002
G03 X57.362232 Y6.789040 Z-1.000000 I4.759476 J-1.586485
G03 X57.285124 Y5.735269 Z-1.000000 I7.161988 J-1.053771
G03 X57.362784 Y4.663727 Z-1.000000 I7.431320 J-0.000000
G03 X57.566243 Y3.807224 Z-1.000000 I4.926627 J0.717886
G03 X57.927211 Y3.007123 Z-1.000000 I4.342373 J1.477599
G03 X58.380662 Y2.383539 Z-1.000000 I3.073543 J1.758325
G03 X58.959228 Y1.876800 Z-1.000000 I2.508668 J2.280598
G03 X59.658103 Y1.498840 Z-1.000000 I2.062363 J2.978343
G03 X60.429812 Y1.275574 Z-1.000000 I1.481311 J3.674759
G03 X61.333966 Y1.193948 Z-1.000000 I0.904154 J4.966753
G03 X62.261283 Y1.275900 Z-1.000000 I0.000000 J5.287457
G03 X63.009832 Y1.492638 Z-1.000000 I-0.648666 J3.641293
G03 X63.696917 Y1.865188 Z-1.000000 I-1.309027 J3.234068
G03 X64.287271 Y2.383539 Z-1.000000 I-2.020624 J2.896656
G03 X64.733976 Y2.996042 Z-1.000000 I-2.492529 J2.286976
G03 X65.095490 Y3.801538 Z-1.000000 I-4.002645 J2.280295
G03 X65.308274 Y4.670420 Z-1.000000 I-4.719514 J1.616276
G03 X65.388494 Y5.735269 Z-1.000000 I-7.027296 J1.064849
G03 X65.309766 Y6.800311 Z-1.000000 I-7.243371 J0.000000
G03 X65.101692 Y7.662796 Z-1.000000 I-4.928214 J-0.732592
G03 X64.744245 Y8.467867 Z-1.000000 I-4.265976 J-1.412181
G03 X64.287271 Y9.098365 Z-1.000000 I-3.053092 J-1.731975
G03 X63.715595 Y9.594550 Z-1.000000 I-2.461038 J-2.258049
G03 X63.015515 Y9.971179 Z-1.000000 I-2.091973 J-3.049591
G03 X62.254534 Y10.197443 Z-1.000000 I-1.440315 J-3.451323
G03 X61.333966 Y10.281755 Z-1.000000 I-0.920568 J-4.983510
G01 X61.333966 Y10.281755 Z-1.000000
G00 Z10.000000
M05 (Turn spray off)
 
(End cutting path id: text4387)


(Start cutting path id: text4387)
(Change tool to Graffiti)
(Add G00 here to change sprayer if needed)
G00 Z10.000000
G00 X61.333966 Y10.281755
M03 S1(Turn spray on)
 
G01 Z-2.000000 F100.0(Penetrate)
G03 X60.447107 Y10.201648 Z-2.000000 I-0.000000 J-4.949246 F400.000000
G03 X59.664305 Y9.977381 Z-2.000000 I0.739224 J-4.058575
G03 X58.954983 Y9.597565 Z-2.000000 I1.347549 J-3.368854
G03 X58.386863 Y9.098365 Z-2.000000 I1.817860 J-2.641708
G03 X57.923205 Y8.451147 Z-2.000000 I2.769362 J-2.473624
G03 X57.566243 Y7.645228 Z-2.000000 I3.950986 J-2.232002
G03 X57.362232 Y6.789040 Z-2.000000 I4.759476 J-1.586485
G03 X57.285124 Y5.735269 Z-2.000000 I7.161988 J-1.053771
G03 X57.362784 Y4.663727 Z-2.000000 I7.431320 J-0.000000
G03 X57.566243 Y3.807224 Z-2.000000 I4.926627 J0.717886
G03 X57.927211 Y3.007123 Z-2.000000 I4.342373 J1.477599
G03 X58.380662 Y2.383539 Z-2.000000 I3.073543 J1.758325
G03 X58.959228 Y1.876800 Z-2.000000 I2.508668 J2.280598
G03 X59.658103 Y1.498840 Z-2.000000 I2.062363 J2.978343
G03 X60.429812 Y1.275574 Z-2.000000 I1.481311 J3.674759
G03 X61.333966 Y1.193948 Z-2.000000 I0.904154 J4.966753
G03 X62.261283 Y1.275900 Z-2.000000 I0.000000 J5.287457
G03 X63.009832 Y1.492638 Z-2.000000 I-0.648666 J3.641293
G03 X63.696917 Y1.865188 Z-2.000000 I-1.309027 J3.234068
G03 X64.287271 Y2.383539 Z-2.000000 I-2.020624 J2.896656
G03 X64.733976 Y2.996042 Z-2.000000 I-2.492529 J2.286976
G03 X65.095490 Y3.801538 Z-2.000000 I-4.002645 J2.280295
G03 X65.308274 Y4.670420 Z-2.000000 I-4.719514 J1.616276
G03 X65.388494 Y5.735269 Z-2.000000 I-7.027296 J1.064849
G03 X65.309766 Y6.800311 Z-2.000000 I-7.243371 J0.000000
G03 X65.101692 Y7.662796 Z-2.000000 I-4.928214 J-0.732592
G03 X64.744245 Y8.467867 Z-2.000000 I-4.265976 J-1.412181
G03 X64.287271 Y9.098365 Z-2.000000 I-3.053092 J-1.731975
G03 X63.715595 Y9.594550 Z-2.000000 I-2.461038 J-2.258049
G03 X63.015515 Y9.971179 Z-2.000000 I-2.091973 J-3.049591
G03 X62.254534 Y10.197443 Z-2.000000 I-1.440315 J-3.451323
G03 X61.333966 Y10.281755 Z-2.000000 I-0.920568 J-4.983510
G01 X61.333966 Y10.281755 Z-2.000000
G00 Z10.000000
M05 (Turn spray off)
 
(End cutting path id: text4387)


(Start cutting path id: text4387)
(Change tool to Graffiti)
(Add G00 here to change sprayer if needed)
G00 Z10.000000
G00 X61.333966 Y10.281755
M03 S1(Turn spray on)
 
G01 Z-3.000000 F100.0(Penetrate)
G03 X60.447107 Y10.201648 Z-3.000000 I-0.000000 J-4.949246 F400.000000
G03 X59.664305 Y9.977381 Z-3.000000 I0.739224 J-4.058575
G03 X58.954983 Y9.597565 Z-3.000000 I1.347549 J-3.368854
G03 X58.386863 Y9.098365 Z-3.000000 I1.817860 J-2.641708
G03 X57.923205 Y8.451147 Z-3.000000 I2.769362 J-2.473624
G03 X57.566243 Y7.645228 Z-3.000000 I3.950986 J-2.232002
G03 X57.362232 Y6.789040 Z-3.000000 I4.759476 J-1.586485
G03 X57.285124 Y5.735269 Z-3.000000 I7.161988 J-1.053771
G03 X57.362784 Y4.663727 Z-3.000000 I7.431320 J-0.000000
G03 X57.566243 Y3.807224 Z-3.000000 I4.926627 J0.717886
G03 X57.927211 Y3.007123 Z-3.000000 I4.342373 J1.477599
G03 X58.380662 Y2.383539 Z-3.000000 I3.073543 J1.758325
G03 X58.959228 Y1.876800 Z-3.000000 I2.508668 J2.280598
G03 X59.658103 Y1.498840 Z-3.000000 I2.062363 J2.978343
G03 X60.429812 Y1.275574 Z-3.000000 I1.481311 J3.674759
G03 X61.333966 Y1.193948 Z-3.000000 I0.904154 J4.966753
G03 X62.261283 Y1.275900 Z-3.000000 I0.000000 J5.287457
G03 X63.009832 Y1.492638 Z-3.000000 I-0.648666 J3.641293
G03 X63.696917 Y1.865188 Z-3.000000 I-1.309027 J3.234068
G03 X64.287271 Y2.383539 Z-3.000000 I-2.020624 J2.896656
G03 X64.733976 Y2.996042 Z-3.000000 I-2.492529 J2.286976
G03 X65.095490 Y3.801538 Z-3.000000 I-4.002645 J2.280295
G03 X65.308274 Y4.670420 Z-3.000000 I-4.719514 J1.616276
G03 X65.388494 Y5.735269 Z-3.000000 I-7.027296 J1.064849
G03 X65.309766 Y6.800311 Z-3.000000 I-7.243371 J0.000000
G03 X65.101692 Y7.662796 Z-3.000000 I-4.928214 J-0.732592
G03 X64.744245 Y8.467867 Z-3.000000 I-4.265976 J-1.412181
G03 X64.287271 Y9.098365 Z-3.000000 I-3.053092 J-1.731975
G03 X63.715595 Y9.594550 Z-3.000000 I-2.461038 J-2.258049
G03 X63.015515 Y9.971179 Z-3.000000 I-2.091973 J-3.049591
G03 X62.254534 Y10.197443 Z-3.000000 I-1.440315 J-3.451323
G03 X61.333966 Y10.281755 Z-3.000000 I-0.920568 J-4.983510
G01 X61.333966 Y10.281755 Z-3.000000
G00 Z10.000000
M05 (Turn spray off)
 
(End cutting path id: text4387)


(Start cutting path id: text4387)
(Change tool to Graffiti)
(Add G00 here to change sprayer if needed)
G00 Z10.000000
G00 X61.333966 Y10.281755
M03 S1(Turn spray on)
 
G01 Z-4.000000 F100.0(Penetrate)
G03 X60.447107 Y10.201648 Z-4.000000 I-0.000000 J-4.949246 F400.000000
G03 X59.664305 Y9.977381 Z-4.000000 I0.739224 J-4.058575
G03 X58.954983 Y9.597565 Z-4.000000 I1.347549 J-3.368854
G03 X58.386863 Y9.098365 Z-4.000000 I1.817860 J-2.641708
G03 X57.923205 Y8.451147 Z-4.000000 I2.769362 J-2.473624
G03 X57.566243 Y7.645228 Z-4.000000 I3.950986 J-2.232002
G03 X57.362232 Y6.789040 Z-4.000000 I4.759476 J-1.586485
G03 X57.285124 Y5.735269 Z-4.000000 I7.161988 J-1.053771
G03 X57.362784 Y4.663727 Z-4.000000 I7.431320 J-0.000000
G03 X57.566243 Y3.807224 Z-4.000000 I4.926627 J0.717886
G03 X57.927211 Y3.007123 Z-4.000000 I4.342373 J1.477599
G03 X58.380662 Y2.383539 Z-4.000000 I3.073543 J1.758325
G03 X58.959228 Y1.876800 Z-4.000000 I2.508668 J2.280598
G03 X59.658103 Y1.498840 Z-4.000000 I2.062363 J2.978343
G03 X60.429812 Y1.275574 Z-4.000000 I1.481311 J3.674759
G03 X61.333966 Y1.193948 Z-4.000000 I0.904154 J4.966753
G03 X62.261283 Y1.275900 Z-4.000000 I0.000000 J5.287457
G03 X63.009832 Y1.492638 Z-4.000000 I-0.648666 J3.641293
G03 X63.696917 Y1.865188 Z-4.000000 I-1.309027 J3.234068
G03 X64.287271 Y2.383539 Z-4.000000 I-2.020624 J2.896656
G03 X64.733976 Y2.996042 Z-4.000000 I-2.492529 J2.286976
G03 X65.095490 Y3.801538 Z-4.000000 I-4.002645 J2.280295
G03 X65.308274 Y4.670420 Z-4.000000 I-4.719514 J1.616276
G03 X65.388494 Y5.735269 Z-4.000000 I-7.027296 J1.064849
G03 X65.309766 Y6.800311 Z-4.000000 I-7.243371 J0.000000
G03 X65.101692 Y7.662796 Z-4.000000 I-4.928214 J-0.732592
G03 X64.744245 Y8.467867 Z-4.000000 I-4.265976 J-1.412181
G03 X64.287271 Y9.098365 Z-4.000000 I-3.053092 J-1.731975
G03 X63.715595 Y9.594550 Z-4.000000 I-2.461038 J-2.258049
G03 X63.015515 Y9.971179 Z-4.000000 I-2.091973 J-3.049591
G03 X62.254534 Y10.197443 Z-4.000000 I-1.440315 J-3.451323
G03 X61.333966 Y10.281755 Z-4.000000 I-0.920568 J-4.983510
G01 X61.333966 Y10.281755 Z-4.000000
G00 Z10.000000
M05 (Turn spray off)
 
(End cutting path id: text4387)


(Start cutting path id: text4387)
(Change tool to Graffiti)
(Add G00 here to change sprayer if needed)
G00 Z10.000000
G00 X61.333966 Y10.281755
M03 S1(Turn spray on)
 
G01 Z-5.000000 F100.0(Penetrate)
G03 X60.447107 Y10.201648 Z-5.000000 I-0.000000 J-4.949246 F400.000000
G03 X59.664305 Y9.977381 Z-5.000000 I0.739224 J-4.058575
G03 X58.954983 Y9.597565 Z-5.000000 I1.347549 J-3.368854
G03 X58.386863 Y9.098365 Z-5.000000 I1.817860 J-2.641708
G03 X57.923205 Y8.451147 Z-5.000000 I2.769362 J-2.473624
G03 X57.566243 Y7.645228 Z-5.000000 I3.950986 J-2.232002
G03 X57.362232 Y6.789040 Z-5.000000 I4.759476 J-1.586485
G03 X57.285124 Y5.735269 Z-5.000000 I7.161988 J-1.053771
G03 X57.362784 Y4.663727 Z-5.000000 I7.431320 J-0.000000
G03 X57.566243 Y3.807224 Z-5.000000 I4.926627 J0.717886
G03 X57.927211 Y3.007123 Z-5.000000 I4.342373 J1.477599
G03 X58.380662 Y2.383539 Z-5.000000 I3.073543 J1.758325
G03 X58.959228 Y1.876800 Z-5.000000 I2.508668 J2.280598
G03 X59.658103 Y1.498840 Z-5.000000 I2.062363 J2.978343
G03 X60.429812 Y1.275574 Z-5.000000 I1.481311 J3.674759
G03 X61.333966 Y1.193948 Z-5.000000 I0.904154 J4.966753
G03 X62.261283 Y1.275900 Z-5.000000 I0.000000 J5.287457
G03 X63.009832 Y1.492638 Z-5.000000 I-0.648666 J3.641293
G03 X63.696917 Y1.865188 Z-5.000000 I-1.309027 J3.234068
G03 X64.287271 Y2.383539 Z-5.000000 I-2.020624 J2.896656
G03 X64.733976 Y2.996042 Z-5.000000 I-2.492529 J2.286976
G03 X65.095490 Y3.801538 Z-5.000000 I-4.002645 J2.280295
G03 X65.308274 Y4.670420 Z-5.000000 I-4.719514 J1.616276
G03 X65.388494 Y5.735269 Z-5.000000 I-7.027296 J1.064849
G03 X65.309766 Y6.800311 Z-5.000000 I-7.243371 J0.000000
G03 X65.101692 Y7.662796 Z-5.000000 I-4.928214 J-0.732592
G03 X64.744245 Y8.467867 Z-5.000000 I-4.265976 J-1.412181
G03 X64.287271 Y9.098365 Z-5.000000 I-3.053092 J-1.731975
G03 X63.715595 Y9.594550 Z-5.000000 I-2.461038 J-2.258049
G03 X63.015515 Y9.971179 Z-5.000000 I-2.091973 J-3.049591
G03 X62.254534 Y10.197443 Z-5.000000 I-1.440315 J-3.451323
G03 X61.333966 Y10.281755 Z-5.000000 I-0.920568 J-4.983510
G01 X61.333966 Y10.281755 Z-5.000000
G00 Z10.000000
M05 (Turn spray off)
 
(End cutting path id: text4387)


(Start cutting path id: text4387)
(Change tool to Graffiti)
(Add G00 here to change sprayer if needed)
G00 Z10.000000
G00 X61.339652 Y9.279750
M03 S1(Turn spray on)
 
G01 Z-1.000000 F100.0(Penetrate)
G02 X62.538024 Y9.025322 Z-1.000000 I0.000000 J-2.949415 F400.000000
G02 X63.420142 Y8.354225 Z-1.000000 I-0.979523 J-2.202824
G02 X63.951585 Y7.351418 Z-1.000000 I-2.154605 J-1.784069
G02 X64.181850 Y5.735269 Z-1.000000 I-5.556464 J-1.616149
G02 X63.947009 Y4.104470 Z-1.000000 I-5.779774 J0.000000
G02 X63.408257 Y3.104425 Z-1.000000 I-2.637310 J0.775649
G02 X62.525108 Y2.444828 Z-1.000000 I-1.865341 J1.576515
G02 X61.339652 Y2.195953 Z-1.000000 I-1.185456 J2.698874
G02 X60.153795 Y2.444413 Z-1.000000 I0.000000 J2.954173
G02 X59.265880 Y3.104425 Z-1.000000 I0.990296 J2.259511
G02 X58.727125 Y4.104471 Z-1.000000 I2.098546 J1.775694
G02 X58.492284 Y5.735269 Z-1.000000 I5.544920 J1.630798
G02 X58.720803 Y7.352464 Z-1.000000 I5.836591 J-0.000000
G02 X59.247793 Y8.354225 Z-1.000000 I2.690411 J-0.775832
G02 X60.130263 Y9.024223 Z-1.000000 I1.853295 J-1.524860
G02 X61.339652 Y9.279750 Z-1.000000 I1.209389 J-2.734208
G01 X61.339652 Y9.279750 Z-1.000000
G00 Z10.000000
M05 (Turn spray off)
 
(End cutting path id: text4387)


(Start cutting path id: text4387)
(Change tool to Graffiti)
(Add G00 here to change sprayer if needed)
G00 Z10.000000
G00 X61.339652 Y9.279750
M03 S1(Turn spray on)
 
G01 Z-2.000000 F100.0(Penetrate)
G02 X62.538024 Y9.025322 Z-2.000000 I0.000000 J-2.949415 F400.000000
G02 X63.420142 Y8.354225 Z-2.000000 I-0.979523 J-2.202824
G02 X63.951585 Y7.351418 Z-2.000000 I-2.154605 J-1.784069
G02 X64.181850 Y5.735269 Z-2.000000 I-5.556464 J-1.616149
G02 X63.947009 Y4.104470 Z-2.000000 I-5.779774 J0.000000
G02 X63.408257 Y3.104425 Z-2.000000 I-2.637310 J0.775649
G02 X62.525108 Y2.444828 Z-2.000000 I-1.865341 J1.576515
G02 X61.339652 Y2.195953 Z-2.000000 I-1.185456 J2.698874
G02 X60.153795 Y2.444413 Z-2.000000 I0.000000 J2.954173
G02 X59.265880 Y3.104425 Z-2.000000 I0.990296 J2.259511
G02 X58.727125 Y4.104471 Z-2.000000 I2.098546 J1.775694
G02 X58.492284 Y5.735269 Z-2.000000 I5.544920 J1.630798
G02 X58.720803 Y7.352464 Z-2.000000 I5.836591 J-0.000000
G02 X59.247793 Y8.354225 Z-2.000000 I2.690411 J-0.775832
G02 X60.130263 Y9.024223 Z-2.000000 I1.853295 J-1.524860
G02 X61.339652 Y9.279750 Z-2.000000 I1.209389 J-2.734208
G01 X61.339652 Y9.279750 Z-2.000000
G00 Z10.000000
M05 (Turn spray off)
 
(End cutting path id: text4387)


(Start cutting path id: text4387)
(Change tool to Graffiti)
(Add G00 here to change sprayer if needed)
G00 Z10.000000
G00 X61.339652 Y9.279750
M03 S1(Turn spray on)
 
G01 Z-3.000000 F100.0(Penetrate)
G02 X62.538024 Y9.025322 Z-3.000000 I0.000000 J-2.949415 F400.000000
G02 X63.420142 Y8.354225 Z-3.000000 I-0.979523 J-2.202824
G02 X63.951585 Y7.351418 Z-3.000000 I-2.154605 J-1.784069
G02 X64.181850 Y5.735269 Z-3.000000 I-5.556464 J-1.616149
G02 X63.947009 Y4.104470 Z-3.000000 I-5.779774 J0.000000
G02 X63.408257 Y3.104425 Z-3.000000 I-2.637310 J0.775649
G02 X62.525108 Y2.444828 Z-3.000000 I-1.865341 J1.576515
G02 X61.339652 Y2.195953 Z-3.000000 I-1.185456 J2.698874
G02 X60.153795 Y2.444413 Z-3.000000 I0.000000 J2.954173
G02 X59.265880 Y3.104425 Z-3.000000 I0.990296 J2.259511
G02 X58.727125 Y4.104471 Z-3.000000 I2.098546 J1.775694
G02 X58.492284 Y5.735269 Z-3.000000 I5.544920 J1.630798
G02 X58.720803 Y7.352464 Z-3.000000 I5.836591 J-0.000000
G02 X59.247793 Y8.354225 Z-3.000000 I2.690411 J-0.775832
G02 X60.130263 Y9.024223 Z-3.000000 I1.853295 J-1.524860
G02 X61.339652 Y9.279750 Z-3.000000 I1.209389 J-2.734208
G01 X61.339652 Y9.279750 Z-3.000000
G00 Z10.000000
M05 (Turn spray off)
 
(End cutting path id: text4387)


(Start cutting path id: text4387)
(Change tool to Graffiti)
(Add G00 here to change sprayer if needed)
G00 Z10.000000
G00 X61.339652 Y9.279750
M03 S1(Turn spray on)
 
G01 Z-4.000000 F100.0(Penetrate)
G02 X62.538024 Y9.025322 Z-4.000000 I0.000000 J-2.949415 F400.000000
G02 X63.420142 Y8.354225 Z-4.000000 I-0.979523 J-2.202824
G02 X63.951585 Y7.351418 Z-4.000000 I-2.154605 J-1.784069
G02 X64.181850 Y5.735269 Z-4.000000 I-5.556464 J-1.616149
G02 X63.947009 Y4.104470 Z-4.000000 I-5.779774 J0.000000
G02 X63.408257 Y3.104425 Z-4.000000 I-2.637310 J0.775649
G02 X62.525108 Y2.444828 Z-4.000000 I-1.865341 J1.576515
G02 X61.339652 Y2.195953 Z-4.000000 I-1.185456 J2.698874
G02 X60.153795 Y2.444413 Z-4.000000 I0.000000 J2.954173
G02 X59.265880 Y3.104425 Z-4.000000 I0.990296 J2.259511
G02 X58.727125 Y4.104471 Z-4.000000 I2.098546 J1.775694
G02 X58.492284 Y5.735269 Z-4.000000 I5.544920 J1.630798
G02 X58.720803 Y7.352464 Z-4.000000 I5.836591 J-0.000000
G02 X59.247793 Y8.354225 Z-4.000000 I2.690411 J-0.775832
G02 X60.130263 Y9.024223 Z-4.000000 I1.853295 J-1.524860
G02 X61.339652 Y9.279750 Z-4.000000 I1.209389 J-2.734208
G01 X61.339652 Y9.279750 Z-4.000000
G00 Z10.000000
M05 (Turn spray off)
 
(End cutting path id: text4387)


(Start cutting path id: text4387)
(Change tool to Graffiti)
(Add G00 here to change sprayer if needed)
G00 Z10.000000
G00 X61.339652 Y9.279750
M03 S1(Turn spray on)
 
G01 Z-5.000000 F100.0(Penetrate)
G02 X62.538024 Y9.025322 Z-5.000000 I0.000000 J-2.949415 F400.000000
G02 X63.420142 Y8.354225 Z-5.000000 I-0.979523 J-2.202824
G02 X63.951585 Y7.351418 Z-5.000000 I-2.154605 J-1.784069
G02 X64.181850 Y5.735269 Z-5.000000 I-5.556464 J-1.616149
G02 X63.947009 Y4.104470 Z-5.000000 I-5.779774 J0.000000
G02 X63.408257 Y3.104425 Z-5.000000 I-2.637310 J0.775649
G02 X62.525108 Y2.444828 Z-5.000000 I-1.865341 J1.576515
G02 X61.339652 Y2.195953 Z-5.000000 I-1.185456 J2.698874
G02 X60.153795 Y2.444413 Z-5.000000 I0.000000 J2.954173
G02 X59.265880 Y3.104425 Z-5.000000 I0.990296 J2.259511
G02 X58.727125 Y4.104471 Z-5.000000 I2.098546 J1.775694
G02 X58.492284 Y5.735269 Z-5.000000 I5.544920 J1.630798
G02 X58.720803 Y7.352464 Z-5.000000 I5.836591 J-0.000000
G02 X59.247793 Y8.354225 Z-5.000000 I2.690411 J-0.775832
G02 X60.130263 Y9.024223 Z-5.000000 I1.853295 J-1.524860
G02 X61.339652 Y9.279750 Z-5.000000 I1.209389 J-2.734208
G01 X61.339652 Y9.279750 Z-5.000000
G00 Z10.000000
M05 (Turn spray off)
 
(End cutting path id: text4387)


(Start cutting path id: text4387)
(Change tool to Graffiti)
(Add G00 here to change sprayer if needed)
G00 Z10.000000
G00 X70.170110 Y10.258498
M03 S1(Turn spray on)
 
G01 Z-1.000000 F100.0(Penetrate)
G03 X68.813107 Y10.059726 Z-1.000000 I-0.000000 J-4.731471 F400.000000
G03 X67.820385 Y9.555183 Z-1.000000 I0.895265 J-2.990389
G03 X67.131904 Y8.739661 Z-1.000000 I1.444383 J-1.917754
G03 X66.894345 Y7.762530 Z-1.000000 I1.890788 J-0.977131
G03 X67.049678 Y6.868526 Z-1.000000 I2.650331 J0.000000
G03 X67.450898 Y6.209656 Z-1.000000 I1.801837 J0.645632
G03 X68.084989 Y5.745788 Z-1.000000 I1.597532 J1.518445
G03 X69.173788 Y5.371981 Z-1.000000 I2.072735 J4.264728
G03 X69.749369 Y5.261720 Z-1.000000 I4.863212 J23.829378
G03 X70.257959 Y5.178195 Z-1.000000 I3.144794 J17.558703
G02 X70.770732 Y5.088514 Z-1.000000 I-1.436931 J-9.726854
G02 X71.212937 Y4.984925 Z-1.000000 I-1.477061 J-7.300950
G02 X71.762573 Y4.778992 Z-1.000000 I-0.734586 J-2.797076
G02 X72.074382 Y4.557562 Z-1.000000 I-0.541832 J-1.093242
G02 X72.272810 Y4.244283 Z-1.000000 I-0.536408 J-0.559236
G02 X72.361188 Y3.701800 Z-1.000000 I-1.620755 J-0.542483
G02 X72.206860 Y3.110403 Z-1.000000 I-1.210307 J-0.000000
G02 X71.757608 Y2.623831 Z-1.000000 I-1.240682 J0.694839
G02 X71.122205 Y2.343131 Z-1.000000 I-1.094401 J1.617817
G02 X70.082260 Y2.219204 Z-1.000000 I-1.039944 J4.301437
G02 X69.331763 Y2.287607 Z-1.000000 I0.000000 J4.151318
G02 X68.452903 Y2.518411 Z-1.000000 I1.095703 J5.960932
G02 X67.625376 Y2.887470 Z-1.000000 I1.686122 J4.893016
G02 X66.923801 Y3.367971 Z-1.000000 I2.215225 J3.986865
G01 X66.841634 Y3.367971 Z-1.000000
G01 X66.841634 Y1.914831 Z-1.000000
G03 X67.633169 Y1.605113 Z-1.000000 I3.869336 J8.722419
G03 X68.371255 Y1.393417 Z-1.000000 I2.523024 J7.404086
G03 X69.132622 Y1.266054 Z-1.000000 I1.394227 J5.995230
G03 X70.070372 Y1.217718 Z-1.000000 I0.937750 J9.072251
G03 X70.939335 Y1.278449 Z-1.000000 I-0.000000 J6.247095
G03 X71.570540 Y1.428556 Z-1.000000 I-0.481145 J3.425397
G03 X72.170936 Y1.688027 Z-1.000000 I-1.252338 J3.722189
G03 X72.666077 Y2.014568 Z-1.000000 I-1.527468 J2.854802
G03 X73.044695 Y2.398573 Z-1.000000 I-1.506638 J1.864159
G03 X73.328051 Y2.857926 Z-1.000000 I-1.884371 J1.479459
G03 X73.509990 Y3.369511 Z-1.000000 I-2.273903 J1.096834
G03 X73.568348 Y3.866130 Z-1.000000 I-2.083931 J0.496619
G03 X73.424006 Y4.746130 Z-1.000000 I-2.754689 J-0.000000
G03 X73.076387 Y5.324956 Z-1.000000 I-1.494834 J-0.503938
G03 X72.524353 Y5.745963 Z-1.000000 I-1.558020 J-1.470489
G03 X71.611362 Y6.104235 Z-1.000000 I-2.009398 J-3.778152
G03 X71.128334 Y6.215541 Z-1.000000 I-2.537917 J-9.909941
G03 X70.439341 Y6.344530 Z-1.000000 I-4.098464 J-19.987321
G02 X69.749267 Y6.467328 Z-1.000000 I7.136578 J42.105039
G02 X69.373260 Y6.543483 Z-1.000000 I2.264993 J12.149446
G02 X68.705154 Y6.777758 Z-1.000000 I0.727954 J3.145775
G02 X68.382624 Y7.018391 Z-1.000000 I0.451527 J0.941664
G02 X68.183655 Y7.360539 Z-1.000000 I0.706281 J0.639650
G02 X68.101505 Y7.873634 Z-1.000000 I1.561268 J0.513095
G02 X68.242305 Y8.409113 Z-1.000000 I1.088638 J0.000000
G02 X68.664259 Y8.869953 Z-1.000000 I1.207956 J-0.682432
G02 X69.267498 Y9.142848 Z-1.000000 I1.084185 J-1.593427
G02 X70.163908 Y9.256493 Z-1.000000 I0.896409 J-3.478535
G02 X71.001647 Y9.186023 Z-1.000000 I-0.000000 J-5.014733
G02 X71.822203 Y8.975374 Z-1.000000 I-0.848969 J-5.010539
G02 X72.602217 Y8.639057 Z-1.000000 I-1.680948 J-4.971285
G02 X73.134781 Y8.278261 Z-1.000000 I-1.407885 J-2.651605
G01 X73.216947 Y8.278261 Z-1.000000
G01 X73.216947 Y9.649235 Z-1.000000
G03 X72.614742 Y9.875726 Z-1.000000 I-2.514866 J-5.772809
G03 X71.857342 Y10.082799 Z-1.000000 I-2.857259 J-8.962154
G03 X71.084517 Y10.211030 Z-1.000000 I-1.441425 J-6.294252
G03 X70.170110 Y10.258498 Z-1.000000 I-0.914408 J-8.783684
G01 X70.170110 Y10.258498 Z-1.000000
G00 Z10.000000
M05 (Turn spray off)
 
(End cutting path id: text4387)


(Start cutting path id: text4387)
(Change tool to Graffiti)
(Add G00 here to change sprayer if needed)
G00 Z10.000000
G00 X70.170110 Y10.258498
M03 S1(Turn spray on)
 
G01 Z-2.000000 F100.0(Penetrate)
G03 X68.813107 Y10.059726 Z-2.000000 I-0.000000 J-4.731471 F400.000000
G03 X67.820385 Y9.555183 Z-2.000000 I0.895265 J-2.990389
G03 X67.131904 Y8.739661 Z-2.000000 I1.444383 J-1.917754
G03 X66.894345 Y7.762530 Z-2.000000 I1.890788 J-0.977131
G03 X67.049678 Y6.868526 Z-2.000000 I2.650331 J0.000000
G03 X67.450898 Y6.209656 Z-2.000000 I1.801837 J0.645632
G03 X68.084989 Y5.745788 Z-2.000000 I1.597532 J1.518445
G03 X69.173788 Y5.371981 Z-2.000000 I2.072735 J4.264728
G03 X69.749369 Y5.261720 Z-2.000000 I4.863212 J23.829378
G03 X70.257959 Y5.178195 Z-2.000000 I3.144794 J17.558703
G02 X70.770732 Y5.088514 Z-2.000000 I-1.436931 J-9.726854
G02 X71.212937 Y4.984925 Z-2.000000 I-1.477061 J-7.300950
G02 X71.762573 Y4.778992 Z-2.000000 I-0.734586 J-2.797076
G02 X72.074382 Y4.557562 Z-2.000000 I-0.541832 J-1.093242
G02 X72.272810 Y4.244283 Z-2.000000 I-0.536408 J-0.559236
G02 X72.361188 Y3.701800 Z-2.000000 I-1.620755 J-0.542483
